; generated by Slic3r 1.2.9 on 2018-10-19 at 16:47:15

; external perimeters extrusion width = 0.30mm
; perimeters extrusion width = 0.30mm
; infill extrusion width = 0.60mm
; solid infill extrusion width = 0.60mm
; top infill extrusion width = 0.45mm

M107 ; disable fan
M190 S55 ; set bed temperature
M104 S195 ; set temperature
G28 ; home all axes
G1 Z5 F5000 ; lift nozzle

M109 S195 ; wait for temperature to be reached
G21 ; set units to millimeters
G90 ; use absolute coordinates
M82 ; use absolute distances for extrusion
G92 E0 ; reset extrusion distance
G1 E-2.00000 F4800.00000 ; retract
G92 E0 ; reset extrusion distance
G1 Z0.500 F6000.000 ; lift Z
G1 X60.336 Y87.819 F6000.000 ; move to first skirt point
G1 Z0.300 F6000.000 ; restore layer Z
G1 E2.00000 F4800.00000 ; unretract
G1 X61.398 Y87.313 E2.07858 F1800.000 ; skirt
G1 X61.530 Y87.270 E2.08786 ; skirt
G1 X62.390 Y87.077 E2.14677 ; skirt
G1 X63.000 Y87.037 E2.18760 ; skirt
G1 X197.000 Y87.037 E11.13952 ; skirt
G1 X197.574 Y87.073 E11.17792 ; skirt
G1 X198.470 Y87.270 E11.23925 ; skirt
G1 X198.602 Y87.313 E11.24854 ; skirt
G1 X199.621 Y87.791 E11.32370 ; skirt
G1 X200.682 Y88.688 E11.41655 ; skirt
G1 X200.779 Y88.799 E11.42637 ; skirt
G1 X201.635 Y90.244 E11.53858 ; skirt
G1 X201.786 Y90.697 E11.57048 ; skirt
G1 X201.953 Y91.686 E11.63747 ; skirt
G1 X201.963 Y91.999 E11.65835 ; skirt
G1 X201.963 Y168.001 E16.73576 ; skirt
G1 X201.953 Y168.314 E16.75664 ; skirt
G1 X201.784 Y169.309 E16.82409 ; skirt
G1 X201.635 Y169.755 E16.85548 ; skirt
G1 X200.779 Y171.201 E16.96771 ; skirt
G1 X200.682 Y171.312 E16.97755 ; skirt
G1 X199.664 Y172.181 E17.06700 ; skirt
G1 X198.602 Y172.687 E17.14558 ; skirt
G1 X198.470 Y172.730 E17.15486 ; skirt
G1 X197.610 Y172.923 E17.21376 ; skirt
G1 X197.000 Y172.963 E17.25460 ; skirt
G1 X62.644 Y172.963 E26.23035 ; skirt
G1 X60.776 Y172.568 E26.35790 ; skirt
G1 X59.229 Y171.449 E26.48545 ; skirt
G1 X58.268 Y169.799 E26.61300 ; skirt
G1 X58.037 Y168.356 E26.71057 ; skirt
G1 X58.037 Y91.999 E31.81170 ; skirt
G1 X58.047 Y91.685 E31.83267 ; skirt
G1 X58.216 Y90.692 E31.89991 ; skirt
G1 X58.365 Y90.246 E31.93137 ; skirt
G1 X59.221 Y88.799 E32.04371 ; skirt
G1 X59.318 Y88.688 E32.05350 ; skirt
G1 X60.290 Y87.857 E32.13893 ; skirt
G1 X60.621 Y88.272 F6000.000 ; move to first skirt point
G1 X61.564 Y87.822 E32.20878 F1800.000 ; skirt
G1 X61.696 Y87.779 E32.21805 ; skirt
G1 X62.457 Y87.608 E32.27012 ; skirt
G1 X63.000 Y87.572 E32.30649 ; skirt
G1 X197.000 Y87.572 E41.25841 ; skirt
G1 X197.511 Y87.605 E41.29263 ; skirt
G1 X198.304 Y87.779 E41.34683 ; skirt
G1 X198.436 Y87.822 E41.35612 ; skirt
G1 X199.336 Y88.245 E41.42254 ; skirt
G1 X200.279 Y89.041 E41.50499 ; skirt
G1 X200.376 Y89.151 E41.51481 ; skirt
G1 X201.132 Y90.429 E41.61397 ; skirt
G1 X201.270 Y90.843 E41.64319 ; skirt
G1 X201.418 Y91.717 E41.70240 ; skirt
G1 X201.428 Y91.999 E41.72120 ; skirt
G1 X201.428 Y168.001 E46.79861 ; skirt
G1 X201.418 Y168.283 E46.81740 ; skirt
G1 X201.269 Y169.162 E46.87700 ; skirt
G1 X201.132 Y169.571 E46.90578 ; skirt
G1 X200.376 Y170.848 E47.00496 ; skirt
G1 X200.279 Y170.959 E47.01480 ; skirt
G1 X199.379 Y171.728 E47.09385 ; skirt
G1 X198.436 Y172.178 E47.16369 ; skirt
G1 X198.304 Y172.221 E47.17297 ; skirt
G1 X197.543 Y172.392 E47.22502 ; skirt
G1 X197.000 Y172.428 E47.26140 ; skirt
G1 X62.644 Y172.428 E56.23714 ; skirt
G1 X60.894 Y172.033 E56.35697 ; skirt
G1 X59.484 Y170.924 E56.47679 ; skirt
G1 X58.687 Y169.317 E56.59661 ; skirt
G1 X58.572 Y168.356 E56.66124 ; skirt
G1 X58.572 Y91.999 E61.76237 ; skirt
G1 X58.582 Y91.716 E61.78125 ; skirt
G1 X58.731 Y90.839 E61.84067 ; skirt
G1 X58.868 Y90.430 E61.86951 ; skirt
G1 X59.625 Y89.151 E61.96878 ; skirt
G1 X59.721 Y89.041 E61.97857 ; skirt
G1 X60.575 Y88.311 E62.05361 ; skirt
G1 X60.906 Y88.725 F6000.000 ; move to first skirt point
G1 X61.731 Y88.331 E62.11471 F1800.000 ; skirt
G1 X61.863 Y88.288 E62.12399 ; skirt
G1 X62.523 Y88.140 E62.16920 ; skirt
G1 X63.000 Y88.108 E62.20111 ; skirt
G1 X197.000 Y88.108 E71.15304 ; skirt
G1 X197.449 Y88.137 E71.18308 ; skirt
G1 X198.137 Y88.288 E71.23015 ; skirt
G1 X198.269 Y88.331 E71.23944 ; skirt
G1 X199.051 Y88.698 E71.29712 ; skirt
G1 X199.876 Y89.393 E71.36917 ; skirt
G1 X199.972 Y89.504 E71.37899 ; skirt
G1 X200.629 Y90.613 E71.46511 ; skirt
G1 X200.755 Y90.990 E71.49165 ; skirt
G1 X200.883 Y91.748 E71.54307 ; skirt
G1 X200.892 Y91.999 E71.55978 ; skirt
G1 X200.892 Y168.001 E76.63719 ; skirt
G1 X200.883 Y168.251 E76.65390 ; skirt
G1 X200.754 Y169.015 E76.70566 ; skirt
G1 X200.629 Y169.387 E76.73183 ; skirt
G1 X199.972 Y170.496 E76.81796 ; skirt
G1 X199.876 Y170.607 E76.82778 ; skirt
G1 X199.094 Y171.275 E76.89644 ; skirt
G1 X198.269 Y171.669 E76.95754 ; skirt
G1 X198.137 Y171.712 E76.96682 ; skirt
G1 X197.477 Y171.860 E77.01202 ; skirt
G1 X197.000 Y171.892 E77.04394 ; skirt
G1 X62.644 Y171.892 E86.01968 ; skirt
G1 X61.021 Y171.498 E86.13124 ; skirt
G1 X59.760 Y170.403 E86.24280 ; skirt
G1 X59.108 Y168.356 E86.38627 ; skirt
G1 X59.108 Y91.999 E91.48740 ; skirt
G1 X59.117 Y91.747 E91.50418 ; skirt
G1 X59.246 Y90.986 E91.55579 ; skirt
G1 X59.371 Y90.614 E91.58200 ; skirt
G1 X60.028 Y89.503 E91.66821 ; skirt
G1 X60.124 Y89.393 E91.67800 ; skirt
G1 X60.860 Y88.764 E91.74264 ; skirt
G1 E89.74264 F4800.00000 ; retract
G92 E0 ; reset extrusion distance
G1 Z0.800 F6000.000 ; lift Z
G1 X188.118 Y161.618 F6000.000 ; move to first perimeter point
G1 Z0.300 F6000.000 ; restore layer Z
G1 E2.00000 F4800.00000 ; unretract
G1 X187.981 Y160.708 E2.06146 F1800.000 ; perimeter
G1 X188.096 Y159.835 E2.12028 ; perimeter
G1 X188.430 Y159.029 E2.17858 ; perimeter
G1 X188.961 Y158.336 E2.23687 ; perimeter
G1 X189.654 Y157.805 E2.29517 ; perimeter
G1 X190.460 Y157.471 E2.35347 ; perimeter
G1 X191.269 Y157.365 E2.40798 ; perimeter
G1 X192.183 Y157.468 E2.46945 ; perimeter
G1 X192.996 Y157.805 E2.52826 ; perimeter
G1 X193.689 Y158.336 E2.58656 ; perimeter
G1 X194.220 Y159.029 E2.64486 ; perimeter
G1 X194.532 Y159.782 E2.69937 ; perimeter
G1 X194.669 Y160.692 E2.76084 ; perimeter
G1 X194.554 Y161.565 E2.81965 ; perimeter
G1 X194.220 Y162.371 E2.87795 ; perimeter
G1 X193.689 Y163.064 E2.93625 ; perimeter
G1 X192.996 Y163.595 E2.99454 ; perimeter
G1 X192.243 Y163.907 E3.04906 ; perimeter
G1 X191.333 Y164.044 E3.11053 ; perimeter
G1 X190.460 Y163.929 E3.16934 ; perimeter
G1 X189.654 Y163.595 E3.22764 ; perimeter
G1 X188.961 Y163.064 E3.28593 ; perimeter
G1 X188.430 Y162.371 E3.34423 ; perimeter
G1 X188.141 Y161.673 E3.39474 ; perimeter
G1 X188.638 Y161.473 F6000.000 ; move to first perimeter point
G1 X188.522 Y160.703 E3.44678 F1800.000 ; perimeter
G1 X188.618 Y159.975 E3.49584 ; perimeter
G1 X188.898 Y159.299 E3.54472 ; perimeter
G1 X189.343 Y158.718 E3.59360 ; perimeter
G1 X189.924 Y158.273 E3.64247 ; perimeter
G1 X190.600 Y157.993 E3.69135 ; perimeter
G1 X191.274 Y157.904 E3.73677 ; perimeter
G1 X192.048 Y157.992 E3.78881 ; perimeter
G1 X192.726 Y158.273 E3.83787 ; perimeter
G1 X193.307 Y158.718 E3.88675 ; perimeter
G1 X193.752 Y159.299 E3.93563 ; perimeter
G1 X194.012 Y159.927 E3.98105 ; perimeter
G1 X194.128 Y160.697 E4.03309 ; perimeter
G1 X194.032 Y161.425 E4.08215 ; perimeter
G1 X193.752 Y162.101 E4.13103 ; perimeter
G1 X193.307 Y162.682 E4.17991 ; perimeter
G1 X192.726 Y163.127 E4.22878 ; perimeter
G1 X192.098 Y163.387 E4.27420 ; perimeter
G1 X191.328 Y163.503 E4.32625 ; perimeter
G1 X190.600 Y163.407 E4.37531 ; perimeter
G1 X189.924 Y163.127 E4.42418 ; perimeter
G1 X189.343 Y162.682 E4.47306 ; perimeter
G1 X188.898 Y162.101 E4.52194 ; perimeter
G1 X188.661 Y161.529 E4.56335 ; perimeter
G1 X188.255 Y161.357 F6000.000 ; move inwards before travel
G1 E2.56335 F4800.00000 ; retract
G92 E0 ; reset extrusion distance
G1 Z0.800 F6000.000 ; lift Z
G1 X186.839 Y104.684 F6000.000 ; move to first perimeter point
G1 Z0.300 F6000.000 ; restore layer Z
G1 E2.00000 F4800.00000 ; unretract
G1 X186.839 Y133.270 E3.90968 F1800.000 ; perimeter
G1 X186.586 Y133.325 E3.92694 ; perimeter
G1 X186.309 Y132.727 E3.97101 ; perimeter
G1 X185.605 Y131.801 E4.04872 ; perimeter
G1 X184.719 Y131.048 E4.12643 ; perimeter
G1 X183.691 Y130.503 E4.20413 ; perimeter
G1 X182.570 Y130.192 E4.28184 ; perimeter
G1 X181.409 Y130.129 E4.35955 ; perimeter
G1 X180.261 Y130.317 E4.43726 ; perimeter
G1 X179.180 Y130.747 E4.51497 ; perimeter
G1 X178.217 Y131.400 E4.59268 ; perimeter
G1 X177.505 Y132.153 E4.66193 ; perimeter
G1 X177.505 Y104.456 E6.51220 ; perimeter
G1 X159.715 Y104.456 E7.70066 ; perimeter
G1 X159.715 Y103.034 E7.79567 ; perimeter
G1 X185.440 Y103.034 E9.51423 ; perimeter
G1 X185.440 Y93.015 E10.18356 ; perimeter
G1 X195.985 Y93.015 E10.88804 ; perimeter
G1 X195.985 Y104.684 E11.66759 ; perimeter
G1 X186.899 Y104.684 E12.27462 ; perimeter
G1 X176.969 Y104.992 F6000.000 ; move to first perimeter point
G1 X176.969 Y133.626 E14.18756 F1800.000 ; perimeter
G1 X177.238 Y133.671 E14.20580 ; perimeter
G1 X177.307 Y133.468 E14.22011 ; perimeter
G1 X177.846 Y132.571 E14.29004 ; perimeter
G1 X178.566 Y131.811 E14.35996 ; perimeter
G1 X179.433 Y131.223 E14.42989 ; perimeter
G1 X180.405 Y130.836 E14.49981 ; perimeter
G1 X181.438 Y130.667 E14.56974 ; perimeter
G1 X182.483 Y130.723 E14.63967 ; perimeter
G1 X183.492 Y131.003 E14.70959 ; perimeter
G1 X184.416 Y131.494 E14.77952 ; perimeter
G1 X185.214 Y132.171 E14.84944 ; perimeter
G1 X185.848 Y133.004 E14.91937 ; perimeter
G1 X186.287 Y133.954 E14.98930 ; perimeter
G1 X186.512 Y134.977 E15.05922 ; perimeter
G1 X186.512 Y136.023 E15.12915 ; perimeter
G1 X186.287 Y137.046 E15.19907 ; perimeter
G1 X185.848 Y137.996 E15.26900 ; perimeter
G1 X185.214 Y138.829 E15.33893 ; perimeter
G1 X184.416 Y139.506 E15.40885 ; perimeter
G1 X183.492 Y139.997 E15.47878 ; perimeter
G1 X182.483 Y140.277 E15.54870 ; perimeter
G1 X181.438 Y140.333 E15.61863 ; perimeter
G1 X180.405 Y140.164 E15.68855 ; perimeter
G1 X179.433 Y139.777 E15.75848 ; perimeter
G1 X178.566 Y139.189 E15.82841 ; perimeter
G1 X177.846 Y138.429 E15.89833 ; perimeter
G1 X177.307 Y137.532 E15.96826 ; perimeter
G1 X177.238 Y137.329 E15.98257 ; perimeter
G1 X176.969 Y137.374 E16.00081 ; perimeter
G1 X176.969 Y152.550 E17.01464 ; perimeter
G1 X160.362 Y152.550 E18.12411 ; perimeter
G1 X160.362 Y104.992 E21.30123 ; perimeter
G1 X176.909 Y104.992 E22.40668 ; perimeter
G1 X176.433 Y105.527 F6000.000 ; move to first perimeter point
G1 X176.433 Y152.014 E25.51224 F1800.000 ; perimeter
G1 X160.897 Y152.014 E26.55014 ; perimeter
G1 X160.897 Y105.527 E29.65570 ; perimeter
G1 X176.373 Y105.527 E30.68959 ; perimeter
G1 X176.833 Y105.527 F6000.000 ; move inwards before travel
G1 X180.549 Y131.355 F6000.000 ; move to first perimeter point
G1 X181.467 Y131.205 E30.75173 F1800.000 ; perimeter
G1 X182.396 Y131.255 E30.81388 ; perimeter
G1 X183.292 Y131.504 E30.87602 ; perimeter
G1 X184.114 Y131.939 E30.93816 ; perimeter
G1 X184.823 Y132.542 E31.00031 ; perimeter
G1 X185.386 Y133.282 E31.06245 ; perimeter
G1 X185.777 Y134.126 E31.12459 ; perimeter
G1 X185.977 Y135.035 E31.18673 ; perimeter
G1 X185.977 Y135.965 E31.24888 ; perimeter
G1 X185.777 Y136.874 E31.31102 ; perimeter
G1 X185.386 Y137.718 E31.37316 ; perimeter
G1 X184.823 Y138.458 E31.43530 ; perimeter
G1 X184.114 Y139.061 E31.49745 ; perimeter
G1 X183.292 Y139.496 E31.55959 ; perimeter
G1 X182.396 Y139.745 E31.62173 ; perimeter
G1 X181.467 Y139.795 E31.68388 ; perimeter
G1 X180.549 Y139.645 E31.74602 ; perimeter
G1 X179.685 Y139.301 E31.80816 ; perimeter
G1 X178.915 Y138.779 E31.87030 ; perimeter
G1 X178.275 Y138.103 E31.93245 ; perimeter
G1 X177.796 Y137.306 E31.99459 ; perimeter
G1 X177.499 Y136.425 E32.05673 ; perimeter
G1 X177.398 Y135.500 E32.11888 ; perimeter
G1 X177.499 Y134.575 E32.18102 ; perimeter
G1 X177.796 Y133.694 E32.24316 ; perimeter
G1 X178.275 Y132.897 E32.30530 ; perimeter
G1 X178.915 Y132.221 E32.36745 ; perimeter
G1 X179.685 Y131.699 E32.42959 ; perimeter
G1 X180.493 Y131.377 E32.48772 ; perimeter
G1 X180.663 Y130.972 F6000.000 ; move inwards before travel
G1 E30.48772 F4800.00000 ; retract
G92 E0 ; reset extrusion distance
G1 Z0.800 F6000.000 ; lift Z
G1 X72.402 Y159.638 F6000.000 ; move to first perimeter point
G1 Z0.300 F6000.000 ; restore layer Z
G1 E2.00000 F4800.00000 ; unretract
G1 X72.560 Y160.687 E2.07089 F1800.000 ; perimeter
G1 X72.426 Y161.705 E2.13945 ; perimeter
G1 X72.038 Y162.642 E2.20717 ; perimeter
G1 X71.421 Y163.446 E2.27489 ; perimeter
G1 X70.617 Y164.063 E2.34261 ; perimeter
G1 X69.737 Y164.427 E2.40622 ; perimeter
G1 X68.688 Y164.585 E2.47711 ; perimeter
G1 X67.670 Y164.451 E2.54567 ; perimeter
G1 X66.733 Y164.063 E2.61339 ; perimeter
G1 X65.929 Y163.446 E2.68111 ; perimeter
G1 X65.312 Y162.642 E2.74883 ; perimeter
G1 X64.948 Y161.762 E2.81244 ; perimeter
G1 X64.790 Y160.713 E2.88332 ; perimeter
G1 X64.924 Y159.695 E2.95189 ; perimeter
G1 X65.312 Y158.758 E3.01961 ; perimeter
G1 X65.929 Y157.954 E3.08733 ; perimeter
G1 X66.733 Y157.337 E3.15505 ; perimeter
G1 X67.670 Y156.949 E3.22277 ; perimeter
G1 X68.614 Y156.825 E3.28637 ; perimeter
G1 X69.668 Y156.944 E3.35726 ; perimeter
G1 X70.617 Y157.337 E3.42583 ; perimeter
G1 X71.421 Y157.954 E3.49355 ; perimeter
G1 X72.038 Y158.758 E3.56127 ; perimeter
G1 X72.379 Y159.583 E3.62086 ; perimeter
G1 X71.882 Y159.782 F6000.000 ; move to first perimeter point
G1 X72.019 Y160.692 E3.68233 F1800.000 ; perimeter
G1 X71.904 Y161.565 E3.74114 ; perimeter
G1 X71.570 Y162.371 E3.79944 ; perimeter
G1 X71.039 Y163.064 E3.85774 ; perimeter
G1 X70.346 Y163.595 E3.91604 ; perimeter
G1 X69.593 Y163.907 E3.97055 ; perimeter
G1 X68.683 Y164.044 E4.03202 ; perimeter
G1 X67.810 Y163.929 E4.09083 ; perimeter
G1 X67.004 Y163.595 E4.14913 ; perimeter
G1 X66.311 Y163.064 E4.20743 ; perimeter
G1 X65.780 Y162.371 E4.26572 ; perimeter
G1 X65.468 Y161.618 E4.32024 ; perimeter
G1 X65.331 Y160.708 E4.38170 ; perimeter
G1 X65.446 Y159.835 E4.44052 ; perimeter
G1 X65.780 Y159.029 E4.49881 ; perimeter
G1 X66.311 Y158.336 E4.55711 ; perimeter
G1 X67.004 Y157.805 E4.61541 ; perimeter
G1 X67.810 Y157.471 E4.67371 ; perimeter
G1 X68.619 Y157.365 E4.72822 ; perimeter
G1 X69.533 Y157.468 E4.78969 ; perimeter
G1 X70.346 Y157.805 E4.84850 ; perimeter
G1 X71.039 Y158.336 E4.90680 ; perimeter
G1 X71.570 Y159.029 E4.96510 ; perimeter
G1 X71.859 Y159.727 E5.01560 ; perimeter
G1 X71.362 Y159.927 F6000.000 ; move to first perimeter point
G1 X71.478 Y160.697 E5.06765 F1800.000 ; perimeter
G1 X71.382 Y161.425 E5.11671 ; perimeter
G1 X71.102 Y162.101 E5.16558 ; perimeter
G1 X70.657 Y162.682 E5.21446 ; perimeter
G1 X70.076 Y163.127 E5.26334 ; perimeter
G1 X69.448 Y163.387 E5.30876 ; perimeter
G1 X68.678 Y163.503 E5.36080 ; perimeter
G1 X67.950 Y163.407 E5.40986 ; perimeter
G1 X67.274 Y163.127 E5.45874 ; perimeter
G1 X66.693 Y162.682 E5.50761 ; perimeter
G1 X66.248 Y162.101 E5.55649 ; perimeter
G1 X65.988 Y161.473 E5.60191 ; perimeter
G1 X65.872 Y160.703 E5.65396 ; perimeter
G1 X65.968 Y159.975 E5.70302 ; perimeter
G1 X66.248 Y159.299 E5.75189 ; perimeter
G1 X66.693 Y158.718 E5.80077 ; perimeter
G1 X67.274 Y158.273 E5.84965 ; perimeter
G1 X67.950 Y157.993 E5.89852 ; perimeter
G1 X68.624 Y157.904 E5.94394 ; perimeter
G1 X69.398 Y157.992 E5.99599 ; perimeter
G1 X70.076 Y158.273 E6.04505 ; perimeter
G1 X70.657 Y158.718 E6.09393 ; perimeter
G1 X71.102 Y159.299 E6.14280 ; perimeter
G1 X71.339 Y159.871 E6.18421 ; perimeter
G1 X71.745 Y160.043 F6000.000 ; move inwards before travel
G1 E4.18421 F4800.00000 ; retract
G92 E0 ; reset extrusion distance
G1 Z0.800 F6000.000 ; lift Z
G1 X68.675 Y103.183 F6000.000 ; move to first perimeter point
G1 Z0.300 F6000.000 ; restore layer Z
G1 E2.00000 F4800.00000 ; unretract
G1 X67.670 Y103.051 E2.06772 F1800.000 ; perimeter
