; generated by Slic3r 1.2.9 on 2018-10-19 at 00:45:13

; external perimeters extrusion width = 0.30mm
; perimeters extrusion width = 0.30mm
; infill extrusion width = 0.60mm
; solid infill extrusion width = 0.60mm
; top infill extrusion width = 0.45mm

M107 ; disable fan
M190 S55 ; set bed temperature
M104 S195 ; set temperature
G28 ; home all axes
G1 Z5 F5000 ; lift nozzle

M109 S195 ; wait for temperature to be reached
G21 ; set units to millimeters
G90 ; use absolute coordinates
M82 ; use absolute distances for extrusion
G92 E0 ; reset extrusion distance
G1 E-2.00000 F4800.00000 ; retract
G92 E0 ; reset extrusion distance
G1 Z0.500 F6000.000 ; lift Z
G1 X60.233 Y88.485 F6000.000 ; move to first skirt point
G1 Z0.300 F6000.000 ; restore layer Z
G1 E2.00000 F4800.00000 ; unretract
G1 X61.883 Y87.525 E2.12755 F1800.000 ; skirt
G1 X63.325 Y87.293 E2.22512 ; skirt
G1 X196.675 Y87.293 E11.13362 ; skirt
G1 X198.543 Y87.689 E11.26118 ; skirt
G1 X200.090 Y88.808 E11.38873 ; skirt
G1 X201.050 Y90.458 E11.51628 ; skirt
G1 X201.282 Y91.900 E11.61385 ; skirt
G1 X201.282 Y168.100 E16.70442 ; skirt
G1 X200.886 Y169.968 E16.83198 ; skirt
G1 X199.767 Y171.515 E16.95953 ; skirt
G1 X198.117 Y172.475 E17.08708 ; skirt
G1 X196.675 Y172.707 E17.18465 ; skirt
G1 X63.325 Y172.707 E26.09315 ; skirt
G1 X61.457 Y172.311 E26.22070 ; skirt
G1 X59.910 Y171.192 E26.34826 ; skirt
G1 X58.950 Y169.542 E26.47581 ; skirt
G1 X58.718 Y168.100 E26.57338 ; skirt
G1 X58.718 Y91.900 E31.66395 ; skirt
G1 X59.114 Y90.032 E31.79150 ; skirt
G1 X60.198 Y88.534 E31.91505 ; skirt
G1 X60.757 Y88.740 F6000.000 ; move to first skirt point
G1 X62.364 Y87.944 E32.03487 F1800.000 ; skirt
G1 X63.325 Y87.829 E32.09951 ; skirt
G1 X196.675 Y87.829 E41.00801 ; skirt
G1 X198.425 Y88.224 E41.12783 ; skirt
G1 X199.835 Y89.332 E41.24765 ; skirt
G1 X200.631 Y90.939 E41.36747 ; skirt
G1 X200.746 Y91.900 E41.43211 ; skirt
G1 X200.746 Y168.100 E46.52268 ; skirt
G1 X200.351 Y169.850 E46.64250 ; skirt
G1 X199.243 Y171.260 E46.76232 ; skirt
G1 X197.636 Y172.056 E46.88215 ; skirt
G1 X196.675 Y172.171 E46.94678 ; skirt
G1 X63.325 Y172.171 E55.85528 ; skirt
G1 X61.575 Y171.776 E55.97511 ; skirt
G1 X60.165 Y170.668 E56.09493 ; skirt
G1 X59.369 Y169.061 E56.21475 ; skirt
G1 X59.254 Y168.100 E56.27938 ; skirt
G1 X59.254 Y91.900 E61.36996 ; skirt
G1 X59.649 Y90.150 E61.48978 ; skirt
G1 X60.720 Y88.788 E61.60559 ; skirt
G1 X61.279 Y89.017 F6000.000 ; move to first skirt point
G1 X63.325 Y88.364 E61.74907 F1800.000 ; skirt
G1 X196.675 Y88.364 E70.65757 ; skirt
G1 X198.298 Y88.759 E70.76913 ; skirt
G1 X199.558 Y89.854 E70.88068 ; skirt
G1 X200.211 Y91.900 E71.02416 ; skirt
G1 X200.211 Y168.100 E76.11473 ; skirt
G1 X199.816 Y169.723 E76.22629 ; skirt
G1 X198.721 Y170.983 E76.33785 ; skirt
G1 X196.675 Y171.636 E76.48132 ; skirt
G1 X63.325 Y171.636 E85.38982 ; skirt
G1 X61.702 Y171.241 E85.50138 ; skirt
G1 X60.442 Y170.146 E85.61294 ; skirt
G1 X59.789 Y168.100 E85.75641 ; skirt
G1 X59.789 Y91.900 E90.84699 ; skirt
G1 X60.184 Y90.277 E90.95854 ; skirt
G1 X61.239 Y89.062 E91.06609 ; skirt
G1 E89.06609 F4800.00000 ; retract
G92 E0 ; reset extrusion distance
G1 Z0.800 F6000.000 ; lift Z
G1 X185.901 Y161.253 F6000.000 ; move to first perimeter point
G1 Z0.300 F6000.000 ; restore layer Z
G1 E2.00000 F4800.00000 ; unretract
G1 X185.769 Y160.162 E2.07338 F1800.000 ; perimeter
G1 X185.901 Y159.072 E2.14676 ; perimeter
G1 X186.291 Y158.045 E2.22014 ; perimeter
G1 X186.890 Y157.177 E2.29060 ; perimeter
G1 X187.730 Y156.416 E2.36633 ; perimeter
G1 X188.709 Y155.902 E2.44021 ; perimeter
G1 X189.776 Y155.639 E2.51359 ; perimeter
G1 X190.874 Y155.639 E2.58697 ; perimeter
G1 X191.941 Y155.902 E2.66035 ; perimeter
G1 X192.913 Y156.413 E2.73373 ; perimeter
G1 X193.703 Y157.112 E2.80419 ; perimeter
G1 X194.357 Y158.038 E2.87992 ; perimeter
G1 X194.749 Y159.072 E2.95380 ; perimeter
G1 X194.881 Y160.162 E3.02718 ; perimeter
G1 X194.749 Y161.253 E3.10056 ; perimeter
G1 X194.375 Y162.239 E3.17102 ; perimeter
G1 X193.741 Y163.179 E3.24675 ; perimeter
G1 X192.913 Y163.912 E3.32063 ; perimeter
G1 X191.941 Y164.423 E3.39401 ; perimeter
G1 X190.874 Y164.686 E3.46739 ; perimeter
G1 X189.776 Y164.686 E3.54077 ; perimeter
G1 X188.752 Y164.433 E3.61123 ; perimeter
G1 X187.742 Y163.917 E3.68696 ; perimeter
G1 X186.915 Y163.184 E3.76084 ; perimeter
G1 X186.291 Y162.280 E3.83422 ; perimeter
G1 X185.922 Y161.309 E3.90359 ; perimeter
G1 X186.425 Y161.124 F6000.000 ; move to first perimeter point
G1 X186.308 Y160.162 E3.96828 F1800.000 ; perimeter
G1 X186.425 Y159.201 E4.03297 ; perimeter
G1 X186.768 Y158.296 E4.09766 ; perimeter
G1 X187.295 Y157.532 E4.15963 ; perimeter
G1 X188.039 Y156.859 E4.22667 ; perimeter
G1 X188.901 Y156.407 E4.29167 ; perimeter
G1 X189.841 Y156.175 E4.35636 ; perimeter
G1 X190.809 Y156.175 E4.42105 ; perimeter
G1 X191.749 Y156.407 E4.48574 ; perimeter
G1 X192.607 Y156.857 E4.55043 ; perimeter
G1 X193.301 Y157.472 E4.61240 ; perimeter
G1 X193.880 Y158.292 E4.67943 ; perimeter
G1 X194.225 Y159.201 E4.74443 ; perimeter
G1 X194.342 Y160.162 E4.80912 ; perimeter
G1 X194.225 Y161.124 E4.87381 ; perimeter
G1 X193.896 Y161.991 E4.93578 ; perimeter
G1 X193.335 Y162.823 E5.00282 ; perimeter
G1 X192.607 Y163.468 E5.06781 ; perimeter
G1 X191.749 Y163.918 E5.13250 ; perimeter
G1 X190.809 Y164.150 E5.19719 ; perimeter
G1 X189.841 Y164.150 E5.26188 ; perimeter
G1 X188.940 Y163.928 E5.32385 ; perimeter
G1 X188.047 Y163.471 E5.39089 ; perimeter
G1 X187.318 Y162.826 E5.45589 ; perimeter
G1 X186.768 Y162.029 E5.52058 ; perimeter
G1 X186.446 Y161.180 E5.58126 ; perimeter
G1 X186.949 Y160.995 F6000.000 ; move to first perimeter point
G1 X186.848 Y160.162 E5.63726 F1800.000 ; perimeter
G1 X186.949 Y159.330 E5.69326 ; perimeter
G1 X187.246 Y158.547 E5.74926 ; perimeter
G1 X187.701 Y157.888 E5.80273 ; perimeter
G1 X188.348 Y157.302 E5.86108 ; perimeter
G1 X189.092 Y156.911 E5.91719 ; perimeter
G1 X189.906 Y156.711 E5.97319 ; perimeter
G1 X190.744 Y156.711 E6.02919 ; perimeter
G1 X191.558 Y156.911 E6.08520 ; perimeter
G1 X192.300 Y157.301 E6.14120 ; perimeter
G1 X192.899 Y157.832 E6.19467 ; perimeter
G1 X193.403 Y158.545 E6.25302 ; perimeter
G1 X193.701 Y159.330 E6.30913 ; perimeter
G1 X193.802 Y160.162 E6.36513 ; perimeter
G1 X193.701 Y160.995 E6.42113 ; perimeter
G1 X193.417 Y161.743 E6.47461 ; perimeter
G1 X192.929 Y162.467 E6.53295 ; perimeter
G1 X192.300 Y163.024 E6.58906 ; perimeter
G1 X191.558 Y163.414 E6.64507 ; perimeter
G1 X190.744 Y163.614 E6.70107 ; perimeter
G1 X189.906 Y163.614 E6.75707 ; perimeter
G1 X189.129 Y163.423 E6.81054 ; perimeter
G1 X188.351 Y163.025 E6.86889 ; perimeter
G1 X187.722 Y162.468 E6.92500 ; perimeter
G1 X187.246 Y161.778 E6.98100 ; perimeter
G1 X186.970 Y161.051 E7.03299 ; perimeter
G1 X186.569 Y160.868 F6000.000 ; move inwards before travel
G1 X182.142 Y132.847 F6000.000 ; move to first perimeter point
G1 X180.800 Y132.964 E7.12297 F1800.000 ; perimeter
G1 X179.458 Y132.847 E7.21294 ; perimeter
G1 X178.157 Y132.498 E7.30292 ; perimeter
G1 X176.937 Y131.929 E7.39289 ; perimeter
G1 X175.834 Y131.156 E7.48286 ; perimeter
G1 X174.881 Y130.204 E7.57284 ; perimeter
G1 X174.109 Y129.101 E7.66281 ; perimeter
G1 X173.539 Y127.880 E7.75279 ; perimeter
G1 X173.191 Y126.579 E7.84276 ; perimeter
G1 X173.074 Y125.237 E7.93274 ; perimeter
G1 X173.191 Y123.896 E8.02271 ; perimeter
G1 X173.539 Y122.595 E8.11269 ; perimeter
G1 X174.109 Y121.374 E8.20266 ; perimeter
G1 X174.881 Y120.271 E8.29264 ; perimeter
G1 X175.834 Y119.319 E8.38261 ; perimeter
G1 X176.937 Y118.546 E8.47258 ; perimeter
G1 X178.157 Y117.977 E8.56256 ; perimeter
G1 X179.458 Y117.628 E8.65253 ; perimeter
G1 X180.743 Y117.516 E8.73865 ; perimeter
G1 X182.136 Y117.627 E8.83207 ; perimeter
G1 X183.443 Y117.977 E8.92241 ; perimeter
G1 X184.663 Y118.546 E9.01238 ; perimeter
G1 X185.766 Y119.319 E9.10235 ; perimeter
G1 X186.719 Y120.271 E9.19233 ; perimeter
G1 X187.458 Y121.327 E9.27845 ; perimeter
G1 X188.059 Y122.590 E9.37187 ; perimeter
G1 X188.409 Y123.896 E9.46220 ; perimeter
G1 X188.526 Y125.237 E9.55218 ; perimeter
G1 X188.409 Y126.579 E9.64215 ; perimeter
G1 X188.061 Y127.880 E9.73213 ; perimeter
G1 X187.516 Y129.048 E9.81825 ; perimeter
G1 X186.723 Y130.200 E9.91166 ; perimeter
G1 X185.766 Y131.156 E10.00200 ; perimeter
G1 X184.663 Y131.929 E10.09197 ; perimeter
G1 X183.443 Y132.498 E10.18195 ; perimeter
G1 X182.200 Y132.831 E10.26791 ; perimeter
G1 X182.048 Y132.317 F6000.000 ; move to first perimeter point
G1 X180.800 Y132.426 E10.35163 F1800.000 ; perimeter
G1 X179.552 Y132.317 E10.43534 ; perimeter
G1 X178.341 Y131.993 E10.51905 ; perimeter
G1 X177.206 Y131.463 E10.60277 ; perimeter
G1 X176.179 Y130.744 E10.68648 ; perimeter
G1 X175.293 Y129.858 E10.77019 ; perimeter
G1 X174.574 Y128.832 E10.85391 ; perimeter
G1 X174.045 Y127.696 E10.93762 ; perimeter
G1 X173.720 Y126.486 E11.02133 ; perimeter
G1 X173.611 Y125.237 E11.10505 ; perimeter
G1 X173.720 Y123.989 E11.18876 ; perimeter
G1 X174.045 Y122.779 E11.27247 ; perimeter
G1 X174.574 Y121.643 E11.35619 ; perimeter
G1 X175.293 Y120.617 E11.43990 ; perimeter
G1 X176.179 Y119.731 E11.52361 ; perimeter
G1 X177.206 Y119.012 E11.60733 ; perimeter
G1 X178.341 Y118.482 E11.69104 ; perimeter
G1 X179.552 Y118.158 E11.77475 ; perimeter
G1 X180.745 Y118.054 E11.85475 ; perimeter
G1 X182.045 Y118.157 E11.94191 ; perimeter
G1 X183.259 Y118.482 E12.02584 ; perimeter
G1 X184.394 Y119.012 E12.10956 ; perimeter
G1 X185.421 Y119.731 E12.19327 ; perimeter
G1 X186.307 Y120.617 E12.27698 ; perimeter
G1 X186.994 Y121.598 E12.35698 ; perimeter
G1 X187.554 Y122.776 E12.44414 ; perimeter
G1 X187.880 Y123.989 E12.52807 ; perimeter
G1 X187.989 Y125.237 E12.61179 ; perimeter
G1 X187.880 Y126.486 E12.69550 ; perimeter
G1 X187.555 Y127.696 E12.77921 ; perimeter
G1 X187.049 Y128.782 E12.85921 ; perimeter
G1 X186.309 Y129.856 E12.94637 ; perimeter
G1 X185.421 Y130.744 E13.03030 ; perimeter
G1 X184.394 Y131.463 E13.11402 ; perimeter
G1 X183.259 Y131.993 E13.19773 ; perimeter
G1 X182.106 Y132.302 E13.27744 ; perimeter
G1 X181.955 Y131.788 F6000.000 ; move to first perimeter point
G1 X180.800 Y131.889 E13.35489 F1800.000 ; perimeter
G1 X179.645 Y131.788 E13.43234 ; perimeter
G1 X178.525 Y131.488 E13.50979 ; perimeter
G1 X177.474 Y130.998 E13.58724 ; perimeter
G1 X176.525 Y130.333 E13.66470 ; perimeter
G1 X175.705 Y129.513 E13.74215 ; perimeter
G1 X175.040 Y128.563 E13.81960 ; perimeter
G1 X174.550 Y127.512 E13.89705 ; perimeter
G1 X174.250 Y126.392 E13.97451 ; perimeter
G1 X174.149 Y125.237 E14.05196 ; perimeter
G1 X174.250 Y124.083 E14.12941 ; perimeter
G1 X174.550 Y122.963 E14.20686 ; perimeter
G1 X175.040 Y121.912 E14.28431 ; perimeter
G1 X175.705 Y120.962 E14.36177 ; perimeter
G1 X176.525 Y120.142 E14.43922 ; perimeter
G1 X177.474 Y119.477 E14.51667 ; perimeter
G1 X178.525 Y118.987 E14.59412 ; perimeter
G1 X179.645 Y118.687 E14.67158 ; perimeter
G1 X180.747 Y118.591 E14.74546 ; perimeter
G1 X181.954 Y118.687 E14.82635 ; perimeter
G1 X183.075 Y118.987 E14.90388 ; perimeter
G1 X184.126 Y119.477 E14.98133 ; perimeter
G1 X185.075 Y120.142 E15.05879 ; perimeter
G1 X185.895 Y120.962 E15.13624 ; perimeter
G1 X186.529 Y121.868 E15.21012 ; perimeter
G1 X187.050 Y122.962 E15.29101 ; perimeter
G1 X187.350 Y124.083 E15.36855 ; perimeter
G1 X187.451 Y125.237 E15.44600 ; perimeter
G1 X187.350 Y126.392 E15.52345 ; perimeter
G1 X187.050 Y127.512 E15.60090 ; perimeter
G1 X186.583 Y128.515 E15.67478 ; perimeter
G1 X185.896 Y129.512 E15.75568 ; perimeter
G1 X185.075 Y130.333 E15.83321 ; perimeter
G1 X184.126 Y130.998 E15.91066 ; perimeter
G1 X183.075 Y131.488 E15.98811 ; perimeter
G1 X182.013 Y131.772 E16.06156 ; perimeter
G1 X181.807 Y132.159 F6000.000 ; move inwards before travel
G1 E14.06156 F4800.00000 ; retract
G92 E0 ; reset extrusion distance
G1 Z0.800 F6000.000 ; lift Z
G1 X188.709 Y104.098 F6000.000 ; move to first perimeter point
G1 Z0.300 F6000.000 ; restore layer Z
G1 E2.00000 F4800.00000 ; unretract
G1 X187.737 Y103.587 E2.07338 F1800.000 ; perimeter
G1 X186.915 Y102.859 E2.14676 ; perimeter
G1 X186.291 Y101.955 E2.22014 ; perimeter
G1 X185.901 Y100.928 E2.29352 ; perimeter
G1 X185.769 Y99.837 E2.36690 ; perimeter
G1 X185.901 Y98.747 E2.44028 ; perimeter
G1 X186.291 Y97.720 E2.51366 ; perimeter
G1 X186.890 Y96.852 E2.58412 ; perimeter
G1 X187.730 Y96.091 E2.65985 ; perimeter
G1 X188.709 Y95.577 E2.73373 ; perimeter
G1 X189.776 Y95.314 E2.80711 ; perimeter
G1 X190.874 Y95.314 E2.88049 ; perimeter
G1 X191.941 Y95.577 E2.95387 ; perimeter
G1 X192.913 Y96.088 E3.02725 ; perimeter
G1 X193.703 Y96.787 E3.09771 ; perimeter
G1 X194.357 Y97.713 E3.17344 ; perimeter
G1 X194.749 Y98.747 E3.24732 ; perimeter
G1 X194.881 Y99.837 E3.32070 ; perimeter
G1 X194.749 Y100.928 E3.39408 ; perimeter
G1 X194.359 Y101.955 E3.46746 ; perimeter
G1 X193.735 Y102.859 E3.54084 ; perimeter
G1 X192.913 Y103.587 E3.61422 ; perimeter
G1 X191.941 Y104.098 E3.68760 ; perimeter
G1 X190.874 Y104.361 E3.76097 ; perimeter
G1 X189.776 Y104.361 E3.83435 ; perimeter
G1 X188.768 Y104.112 E3.90373 ; perimeter
G1 X188.901 Y103.593 F6000.000 ; move to first perimeter point
G1 X188.043 Y103.143 E3.96842 F1800.000 ; perimeter
G1 X187.318 Y102.501 E4.03310 ; perimeter
G1 X186.768 Y101.704 E4.09779 ; perimeter
G1 X186.425 Y100.799 E4.16248 ; perimeter
G1 X186.308 Y99.837 E4.22717 ; perimeter
G1 X186.425 Y98.876 E4.29186 ; perimeter
G1 X186.768 Y97.971 E4.35655 ; perimeter
G1 X187.295 Y97.207 E4.41852 ; perimeter
G1 X188.039 Y96.534 E4.48556 ; perimeter
G1 X188.901 Y96.082 E4.55056 ; perimeter
G1 X189.841 Y95.850 E4.61525 ; perimeter
G1 X190.809 Y95.850 E4.67994 ; perimeter
G1 X191.749 Y96.082 E4.74463 ; perimeter
G1 X192.607 Y96.532 E4.80932 ; perimeter
G1 X193.301 Y97.147 E4.87129 ; perimeter
G1 X193.880 Y97.967 E4.93833 ; perimeter
G1 X194.225 Y98.876 E5.00332 ; perimeter
G1 X194.342 Y99.837 E5.06801 ; perimeter
G1 X194.225 Y100.799 E5.13270 ; perimeter
G1 X193.882 Y101.704 E5.19739 ; perimeter
G1 X193.332 Y102.501 E5.26208 ; perimeter
G1 X192.607 Y103.143 E5.32677 ; perimeter
G1 X191.749 Y103.593 E5.39146 ; perimeter
G1 X190.809 Y103.825 E5.45615 ; perimeter
G1 X189.841 Y103.825 E5.52084 ; perimeter
G1 X188.959 Y103.608 E5.58152 ; perimeter
G1 X189.092 Y103.089 F6000.000 ; move to first perimeter point
G1 X188.350 Y102.699 E5.63752 F1800.000 ; perimeter
G1 X187.722 Y102.143 E5.69352 ; perimeter
G1 X187.246 Y101.453 E5.74952 ; perimeter
G1 X186.949 Y100.670 E5.80552 ; perimeter
G1 X186.848 Y99.837 E5.86152 ; perimeter
G1 X186.949 Y99.005 E5.91752 ; perimeter
G1 X187.246 Y98.222 E5.97353 ; perimeter
G1 X187.701 Y97.563 E6.02700 ; perimeter
G1 X188.348 Y96.977 E6.08535 ; perimeter
G1 X189.092 Y96.586 E6.14146 ; perimeter
G1 X189.906 Y96.386 E6.19746 ; perimeter
G1 X190.744 Y96.386 E6.25346 ; perimeter
G1 X191.558 Y96.586 E6.30946 ; perimeter
G1 X192.300 Y96.976 E6.36546 ; perimeter
G1 X192.899 Y97.507 E6.41894 ; perimeter
G1 X193.403 Y98.220 E6.47729 ; perimeter
G1 X193.701 Y99.005 E6.53340 ; perimeter
G1 X193.802 Y99.837 E6.58940 ; perimeter
G1 X193.701 Y100.670 E6.64540 ; perimeter
G1 X193.404 Y101.453 E6.70140 ; perimeter
G1 X192.928 Y102.143 E6.75740 ; perimeter
G1 X192.300 Y102.699 E6.81340 ; perimeter
G1 X191.558 Y103.089 E6.86940 ; perimeter
G1 X190.744 Y103.289 E6.92540 ; perimeter
G1 X189.906 Y103.289 E6.98140 ; perimeter
G1 X189.150 Y103.103 E7.03339 ; perimeter
G1 X188.772 Y103.329 F6000.000 ; move inwards before travel
G1 X159.946 Y103.229 F6000.000 ; move to first perimeter point
G1 X159.946 Y156.771 E10.61032 F1800.000 ; perimeter
G1 X81.004 Y156.771 E15.88410 ; perimeter
G1 X81.004 Y103.229 E19.46103 ; perimeter
G1 X159.886 Y103.229 E24.73080 ; perimeter
