; generated by Slic3r 1.2.9 on 2018-10-22 at 16:18:42

; external perimeters extrusion width = 0.30mm
; perimeters extrusion width = 0.30mm
; infill extrusion width = 0.60mm
; solid infill extrusion width = 0.60mm
; top infill extrusion width = 0.45mm

M107 ; disable fan
M190 S55 ; set bed temperature
M104 S195 ; set temperature
G28 ; home all axes
G1 Z5 F5000 ; lift nozzle

M109 S195 ; wait for temperature to be reached
G21 ; set units to millimeters
G90 ; use absolute coordinates
M82 ; use absolute distances for extrusion
G92 E0 ; reset extrusion distance
G1 E-2.00000 F4800.00000 ; retract
G92 E0 ; reset extrusion distance
G1 Z0.500 F6000.000 ; lift Z
G1 X60.394 Y89.058 F6000.000 ; move to first skirt point
G1 Z0.300 F6000.000 ; restore layer Z
G1 E2.00000 F4800.00000 ; unretract
G1 X62.046 Y88.101 E2.12755 F1800.000 ; skirt
G1 X63.471 Y87.872 E2.22396 ; skirt
G1 X196.529 Y87.872 E11.11298 ; skirt
G1 X198.396 Y88.271 E11.24053 ; skirt
G1 X199.941 Y89.393 E11.36808 ; skirt
G1 X200.899 Y91.045 E11.49564 ; skirt
G1 X201.128 Y92.471 E11.59210 ; skirt
G1 X201.128 Y167.529 E16.60643 ; skirt
G1 X200.729 Y169.397 E16.73399 ; skirt
G1 X199.607 Y170.942 E16.86154 ; skirt
G1 X197.955 Y171.899 E16.98909 ; skirt
G1 X196.529 Y172.128 E17.08556 ; skirt
G1 X173.836 Y172.128 E18.60156 ; skirt
G1 X171.691 Y171.597 E18.74920 ; skirt
G1 X61.333 Y113.481 E27.08154 ; skirt
G1 X59.864 Y112.261 E27.20909 ; skirt
G1 X59.017 Y110.550 E27.33665 ; skirt
G1 X58.872 Y109.406 E27.41363 ; skirt
G1 X58.872 Y92.470 E28.54509 ; skirt
G1 X59.272 Y90.603 E28.67264 ; skirt
G1 X60.359 Y89.107 E28.79618 ; skirt
G1 X60.918 Y89.314 F6000.000 ; move to first skirt point
G1 X62.526 Y88.521 E28.91601 F1800.000 ; skirt
G1 X63.472 Y88.408 E28.97961 ; skirt
G1 X196.528 Y88.408 E37.86850 ; skirt
G1 X198.277 Y88.806 E37.98832 ; skirt
G1 X199.685 Y89.917 E38.10814 ; skirt
G1 X200.479 Y91.526 E38.22796 ; skirt
G1 X200.592 Y92.472 E38.29162 ; skirt
G1 X200.592 Y167.528 E43.30582 ; skirt
G1 X200.194 Y169.277 E43.42564 ; skirt
G1 X199.083 Y170.685 E43.54546 ; skirt
G1 X197.474 Y171.479 E43.66529 ; skirt
G1 X196.528 Y171.592 E43.72894 ; skirt
G1 X173.836 Y171.592 E45.24487 ; skirt
G1 X171.940 Y171.123 E45.37535 ; skirt
G1 X61.582 Y113.007 E53.70768 ; skirt
G1 X60.218 Y111.842 E53.82751 ; skirt
G1 X59.408 Y109.406 E53.99902 ; skirt
G1 X59.408 Y92.471 E55.13039 ; skirt
G1 X59.806 Y90.722 E55.25021 ; skirt
G1 X60.881 Y89.361 E55.36603 ; skirt
G1 X61.439 Y89.592 F6000.000 ; move to first skirt point
G1 X63.473 Y88.943 E55.50864 F1800.000 ; skirt
G1 X196.527 Y88.943 E64.39740 ; skirt
G1 X198.149 Y89.341 E64.50896 ; skirt
G1 X199.408 Y90.438 E64.62052 ; skirt
G1 X200.057 Y92.473 E64.76317 ; skirt
G1 X200.057 Y167.527 E69.77724 ; skirt
G1 X199.659 Y169.149 E69.88880 ; skirt
G1 X198.562 Y170.408 E70.00036 ; skirt
G1 X196.527 Y171.057 E70.14302 ; skirt
G1 X173.837 Y171.057 E71.65887 ; skirt
G1 X172.190 Y170.649 E71.77218 ; skirt
G1 X61.832 Y112.533 E80.10452 ; skirt
G1 X60.580 Y111.428 E80.21608 ; skirt
G1 X59.943 Y109.406 E80.35770 ; skirt
G1 X59.943 Y92.472 E81.48899 ; skirt
G1 X60.341 Y90.850 E81.60054 ; skirt
G1 X61.399 Y89.637 E81.70809 ; skirt
G1 E79.70809 F4800.00000 ; retract
G92 E0 ; reset extrusion distance
G1 Z0.800 F6000.000 ; lift Z
G1 X187.351 Y163.204 F6000.000 ; move to first perimeter point
G1 Z0.300 F6000.000 ; restore layer Z
G1 E2.00000 F4800.00000 ; unretract
G1 X187.167 Y162.264 E2.06396 F1800.000 ; perimeter
G1 X187.221 Y161.314 E2.12755 ; perimeter
G1 X187.512 Y160.389 E2.19232 ; perimeter
G1 X188.018 Y159.578 E2.25620 ; perimeter
G1 X188.711 Y158.914 E2.32028 ; perimeter
G1 X189.547 Y158.444 E2.38436 ; perimeter
G1 X190.461 Y158.198 E2.44762 ; perimeter
G1 X191.437 Y158.184 E2.51284 ; perimeter
G1 X192.365 Y158.409 E2.57657 ; perimeter
G1 X193.212 Y158.859 E2.64064 ; perimeter
G1 X193.921 Y159.505 E2.70472 ; perimeter
G1 X194.438 Y160.292 E2.76764 ; perimeter
G1 X194.560 Y160.604 E2.79001 ; perimeter
G1 X194.760 Y161.220 E2.83333 ; perimeter
G1 X194.837 Y162.168 E2.89685 ; perimeter
G1 X194.687 Y163.058 E2.95716 ; perimeter
G1 X194.583 Y163.356 E2.97824 ; perimeter
G1 X194.318 Y163.917 E3.01968 ; perimeter
G1 X194.155 Y164.177 E3.04016 ; perimeter
G1 X193.760 Y164.655 E3.08160 ; perimeter
G1 X193.538 Y164.877 E3.10261 ; perimeter
G1 X192.801 Y165.392 E3.16266 ; perimeter
G1 X191.914 Y165.730 E3.22608 ; perimeter
G1 X190.999 Y165.842 E3.28765 ; perimeter
G1 X190.050 Y165.723 E3.35155 ; perimeter
G1 X189.155 Y165.370 E3.41578 ; perimeter
G1 X188.378 Y164.809 E3.47982 ; perimeter
G1 X187.767 Y164.075 E3.54362 ; perimeter
G1 X187.377 Y163.258 E3.60410 ; perimeter
G1 X187.864 Y163.035 F6000.000 ; move to first perimeter point
G1 X187.706 Y162.227 E3.65914 F1800.000 ; perimeter
G1 X187.752 Y161.406 E3.71405 ; perimeter
G1 X188.002 Y160.617 E3.76937 ; perimeter
G1 X188.437 Y159.918 E3.82438 ; perimeter
G1 X189.033 Y159.348 E3.87945 ; perimeter
G1 X189.751 Y158.943 E3.93453 ; perimeter
G1 X190.543 Y158.730 E3.98931 ; perimeter
G1 X190.805 Y158.720 E4.00683 ; perimeter
G1 X191.373 Y158.720 E4.04481 ; perimeter
G1 X192.173 Y158.914 E4.09975 ; perimeter
G1 X192.901 Y159.300 E4.15483 ; perimeter
G1 X193.510 Y159.855 E4.20990 ; perimeter
G1 X193.960 Y160.539 E4.26455 ; perimeter
G1 X194.231 Y161.326 E4.32019 ; perimeter
G1 X194.298 Y162.145 E4.37506 ; perimeter
G1 X194.166 Y162.924 E4.42786 ; perimeter
G1 X194.086 Y163.153 E4.44406 ; perimeter
G1 X193.848 Y163.660 E4.48148 ; perimeter
G1 X193.720 Y163.863 E4.49746 ; perimeter
G1 X193.363 Y164.294 E4.53488 ; perimeter
G1 X193.192 Y164.465 E4.55106 ; perimeter
G1 X192.545 Y164.917 E4.60377 ; perimeter
G1 X191.791 Y165.205 E4.65770 ; perimeter
G1 X191.000 Y165.302 E4.71098 ; perimeter
G1 X190.182 Y165.199 E4.76600 ; perimeter
G1 X189.940 Y165.105 E4.78341 ; perimeter
G1 X189.415 Y164.897 E4.82113 ; perimeter
G1 X188.747 Y164.414 E4.87620 ; perimeter
G1 X188.220 Y163.782 E4.93117 ; perimeter
G1 X187.890 Y163.090 E4.98240 ; perimeter
G1 X187.476 Y162.938 F6000.000 ; move inwards before travel
G1 E2.98240 F4800.00000 ; retract
G92 E0 ; reset extrusion distance
G1 Z0.800 F6000.000 ; lift Z
G1 X193.044 Y166.150 F6000.000 ; move to first perimeter point
G1 Z0.300 F6000.000 ; restore layer Z
G1 E2.00000 F4800.00000 ; unretract
G1 X192.973 Y165.925 E2.01575 F1800.000 ; perimeter
G1 X193.883 Y165.290 E2.08987 ; perimeter
G1 X194.157 Y165.016 E2.11572 ; perimeter
G1 X194.590 Y164.492 E2.16117 ; perimeter
G1 X194.789 Y164.175 E2.18617 ; perimeter
G1 X194.898 Y163.943 E2.20329 ; perimeter
G1 X195.150 Y163.999 E2.22049 ; perimeter
G1 X195.150 Y166.150 E2.36415 ; perimeter
G1 X193.104 Y166.150 E2.50081 ; perimeter
G1 E0.50081 F4800.00000 ; retract
G92 E0 ; reset extrusion distance
G1 Z0.800 F6000.000 ; lift Z
G1 X195.150 Y95.956 F6000.000 ; move to first perimeter point
G1 Z0.300 F6000.000 ; restore layer Z
G1 E2.00000 F4800.00000 ; unretract
G1 X194.925 Y96.027 E2.01575 F1800.000 ; perimeter
G1 X194.289 Y95.117 E2.08987 ; perimeter
G1 X194.016 Y94.843 E2.11572 ; perimeter
G1 X193.492 Y94.410 E2.16117 ; perimeter
G1 X193.175 Y94.211 E2.18617 ; perimeter
G1 X192.943 Y94.102 E2.20329 ; perimeter
G1 X192.999 Y93.850 E2.22049 ; perimeter
G1 X195.150 Y93.850 E2.36415 ; perimeter
G1 X195.150 Y95.896 E2.50081 ; perimeter
G1 X194.395 Y96.203 F6000.000 ; move to first perimeter point
G1 X194.728 Y97.074 E2.56311 F1800.000 ; perimeter
G1 X194.842 Y98.001 E2.62551 ; perimeter
G1 X194.723 Y98.950 E2.68941 ; perimeter
G1 X194.370 Y99.845 E2.75364 ; perimeter
G1 X193.809 Y100.622 E2.81768 ; perimeter
G1 X193.075 Y101.233 E2.88147 ; perimeter
G1 X192.204 Y101.649 E2.94597 ; perimeter
G1 X191.264 Y101.833 E3.00993 ; perimeter
G1 X190.314 Y101.779 E3.07353 ; perimeter
G1 X189.389 Y101.488 E3.13829 ; perimeter
G1 X188.578 Y100.982 E3.20217 ; perimeter
G1 X187.922 Y100.296 E3.26556 ; perimeter
G1 X187.442 Y99.449 E3.33060 ; perimeter
G1 X187.195 Y98.527 E3.39439 ; perimeter
G1 X187.183 Y97.581 E3.45758 ; perimeter
G1 X187.412 Y96.631 E3.52288 ; perimeter
G1 X187.859 Y95.788 E3.58658 ; perimeter
G1 X188.505 Y95.079 E3.65066 ; perimeter
G1 X189.306 Y94.552 E3.71473 ; perimeter
G1 X190.196 Y94.246 E3.77759 ; perimeter
G1 X190.529 Y94.205 E3.79998 ; perimeter
G1 X191.176 Y94.164 E3.84331 ; perimeter
G1 X192.058 Y94.313 E3.90310 ; perimeter
G1 X192.356 Y94.417 E3.92418 ; perimeter
G1 X192.917 Y94.682 E3.96561 ; perimeter
G1 X193.177 Y94.845 E3.98610 ; perimeter
G1 X193.655 Y95.240 E4.02754 ; perimeter
G1 X193.877 Y95.462 E4.04855 ; perimeter
G1 X194.360 Y96.154 E4.10491 ; perimeter
G1 X193.918 Y96.456 F6000.000 ; move to first perimeter point
G1 X194.205 Y97.204 E4.15844 F1800.000 ; perimeter
G1 X194.302 Y98.000 E4.21202 ; perimeter
G1 X194.199 Y98.818 E4.26703 ; perimeter
G1 X193.897 Y99.585 E4.32217 ; perimeter
G1 X193.414 Y100.253 E4.37724 ; perimeter
G1 X192.782 Y100.780 E4.43221 ; perimeter
G1 X192.035 Y101.136 E4.48744 ; perimeter
G1 X191.227 Y101.294 E4.54248 ; perimeter
G1 X190.406 Y101.248 E4.59738 ; perimeter
G1 X189.617 Y100.998 E4.65271 ; perimeter
G1 X188.918 Y100.563 E4.70771 ; perimeter
G1 X188.351 Y99.970 E4.76254 ; perimeter
G1 X187.943 Y99.247 E4.81796 ; perimeter
G1 X187.729 Y98.453 E4.87294 ; perimeter
G1 X187.719 Y97.633 E4.92769 ; perimeter
G1 X187.915 Y96.825 E4.98321 ; perimeter
G1 X188.300 Y96.099 E5.03814 ; perimeter
G1 X188.855 Y95.490 E5.09321 ; perimeter
G1 X189.544 Y95.037 E5.14828 ; perimeter
G1 X190.317 Y94.771 E5.20291 ; perimeter
G1 X190.578 Y94.738 E5.22048 ; perimeter
G1 X191.148 Y94.703 E5.25858 ; perimeter
G1 X191.924 Y94.834 E5.31120 ; perimeter
G1 X192.153 Y94.914 E5.32740 ; perimeter
G1 X192.660 Y95.152 E5.36481 ; perimeter
G1 X192.863 Y95.280 E5.38080 ; perimeter
G1 X193.294 Y95.637 E5.41822 ; perimeter
G1 X193.465 Y95.808 E5.43439 ; perimeter
G1 X193.884 Y96.407 E5.48321 ; perimeter
G1 X194.317 Y96.487 F6000.000 ; move inwards before travel
G1 E3.48321 F4800.00000 ; retract
G92 E0 ; reset extrusion distance
G1 Z0.800 F6000.000 ; lift Z
G1 X180.371 Y103.129 F6000.000 ; move to first perimeter point
G1 Z0.300 F6000.000 ; restore layer Z
G1 E2.00000 F4800.00000 ; unretract
G1 X99.629 Y103.129 E7.39403 F1800.000 ; perimeter
G1 X99.629 Y108.034 E7.72170 ; perimeter
G1 X64.850 Y108.034 E10.04509 ; perimeter
G1 X64.850 Y99.636 E10.60607 ; perimeter
G1 X65.121 Y99.593 E10.62440 ; perimeter
G1 X65.210 Y99.866 E10.64353 ; perimeter
G1 X65.798 Y100.793 E10.71691 ; perimeter
G1 X66.599 Y101.545 E10.79030 ; perimeter
G1 X67.562 Y102.074 E10.86368 ; perimeter
G1 X68.626 Y102.348 E10.93706 ; perimeter
G1 X69.724 Y102.348 E11.01044 ; perimeter
G1 X70.788 Y102.074 E11.08383 ; perimeter
G1 X71.751 Y101.545 E11.15721 ; perimeter
G1 X72.551 Y100.793 E11.23059 ; perimeter
G1 X73.140 Y99.866 E11.30398 ; perimeter
G1 X73.480 Y98.821 E11.37736 ; perimeter
G1 X73.548 Y97.725 E11.45074 ; perimeter
G1 X73.343 Y96.646 E11.52412 ; perimeter
G1 X72.875 Y95.652 E11.59751 ; perimeter
G1 X72.175 Y94.806 E11.67089 ; perimeter
G1 X71.286 Y94.160 E11.74427 ; perimeter
G1 X71.164 Y94.111 E11.75306 ; perimeter
G1 X71.214 Y93.850 E11.77082 ; perimeter
G1 X188.982 Y93.850 E19.63837 ; perimeter
G1 X189.050 Y94.080 E19.65435 ; perimeter
G1 X188.154 Y94.669 E19.72601 ; perimeter
G1 X187.418 Y95.478 E19.79909 ; perimeter
G1 X186.909 Y96.436 E19.87155 ; perimeter
G1 X186.647 Y97.529 E19.94664 ; perimeter
G1 X186.660 Y98.601 E20.01827 ; perimeter
G1 X186.942 Y99.650 E20.09088 ; perimeter
G1 X187.492 Y100.623 E20.16553 ; perimeter
G1 X188.237 Y101.401 E20.23748 ; perimeter
G1 X189.161 Y101.977 E20.31023 ; perimeter
G1 X190.221 Y102.311 E20.38444 ; perimeter
G1 X191.301 Y102.372 E20.45672 ; perimeter
G1 X192.372 Y102.161 E20.52961 ; perimeter
G1 X193.368 Y101.686 E20.60337 ; perimeter
G1 X194.203 Y100.990 E20.67598 ; perimeter
G1 X194.844 Y100.104 E20.74900 ; perimeter
G1 X194.889 Y99.991 E20.75716 ; perimeter
G1 X195.150 Y100.041 E20.77492 ; perimeter
G1 X195.150 Y159.982 E24.77932 ; perimeter
G1 X194.920 Y160.050 E24.79530 ; perimeter
G1 X194.331 Y159.154 E24.86695 ; perimeter
G1 X193.522 Y158.418 E24.94004 ; perimeter
G1 X192.556 Y157.904 E25.01312 ; perimeter
G1 X191.502 Y157.648 E25.08563 ; perimeter
G1 X190.380 Y157.665 E25.16057 ; perimeter
G1 X189.343 Y157.944 E25.23231 ; perimeter
G1 X188.390 Y158.481 E25.30540 ; perimeter
G1 X187.599 Y159.237 E25.37849 ; perimeter
G1 X187.023 Y160.161 E25.45124 ; perimeter
G1 X186.689 Y161.221 E25.52544 ; perimeter
G1 X186.628 Y162.301 E25.59773 ; perimeter
G1 X186.839 Y163.372 E25.67061 ; perimeter
G1 X187.314 Y164.368 E25.74437 ; perimeter
G1 X188.010 Y165.203 E25.81698 ; perimeter
G1 X188.896 Y165.844 E25.89001 ; perimeter
G1 X189.009 Y165.889 E25.89816 ; perimeter
G1 X188.959 Y166.150 E25.91592 ; perimeter
G1 X175.209 Y166.150 E26.83454 ; perimeter
G1 X175.209 Y156.871 E27.45439 ; perimeter
G1 X180.371 Y156.871 E27.79927 ; perimeter
G1 X180.371 Y103.189 E31.38555 ; perimeter
G1 X73.010 Y97.759 F6000.000 ; move to first perimeter point
G1 X72.949 Y98.720 E31.44989 F1800.000 ; perimeter
G1 X72.652 Y99.636 E31.51424 ; perimeter
G1 X72.136 Y100.449 E31.57858 ; perimeter
G1 X71.433 Y101.108 E31.64292 ; perimeter
G1 X70.589 Y101.572 E31.70726 ; perimeter
G1 X69.657 Y101.812 E31.77160 ; perimeter
G1 X68.693 Y101.812 E31.83595 ; perimeter
G1 X67.761 Y101.572 E31.90029 ; perimeter
G1 X66.917 Y101.108 E31.96463 ; perimeter
G1 X66.214 Y100.449 E32.02897 ; perimeter
G1 X65.698 Y99.636 E32.09331 ; perimeter
G1 X65.401 Y98.720 E32.15766 ; perimeter
G1 X65.340 Y97.759 E32.22200 ; perimeter
G1 X65.521 Y96.813 E32.28634 ; perimeter
G1 X65.931 Y95.941 E32.35068 ; perimeter
G1 X66.545 Y95.199 E32.41502 ; perimeter
G1 X67.324 Y94.633 E32.47937 ; perimeter
G1 X68.219 Y94.278 E32.54371 ; perimeter
G1 X69.175 Y94.158 E32.60805 ; perimeter
G1 X70.131 Y94.278 E32.67239 ; perimeter
G1 X71.026 Y94.633 E32.73673 ; perimeter
G1 X71.805 Y95.199 E32.80108 ; perimeter
G1 X72.419 Y95.941 E32.86542 ; perimeter
G1 X72.829 Y96.813 E32.92976 ; perimeter
G1 X72.998 Y97.700 E32.99009 ; perimeter
G1 X72.471 Y97.793 F6000.000 ; move to first perimeter point
G1 X72.419 Y98.619 E33.04540 F1800.000 ; perimeter
G1 X72.163 Y99.406 E33.10070 ; perimeter
G1 X71.720 Y100.105 E33.15600 ; perimeter
G1 X71.116 Y100.672 E33.21130 ; perimeter
G1 X70.391 Y101.070 E33.26660 ; perimeter
G1 X69.589 Y101.276 E33.32190 ; perimeter
G1 X68.761 Y101.276 E33.37720 ; perimeter
G1 X67.959 Y101.070 E33.43250 ; perimeter
G1 X67.234 Y100.672 E33.48781 ; perimeter
G1 X66.630 Y100.105 E33.54311 ; perimeter
G1 X66.187 Y99.406 E33.59841 ; perimeter
G1 X65.931 Y98.619 E33.65371 ; perimeter
G1 X65.879 Y97.793 E33.70901 ; perimeter
G1 X66.034 Y96.980 E33.76431 ; perimeter
G1 X66.387 Y96.230 E33.81961 ; perimeter
G1 X66.914 Y95.593 E33.87492 ; perimeter
G1 X67.584 Y95.106 E33.93022 ; perimeter
G1 X68.354 Y94.801 E33.98552 ; perimeter
G1 X69.175 Y94.698 E34.04082 ; perimeter
G1 X69.996 Y94.801 E34.09612 ; perimeter
G1 X70.766 Y95.106 E34.15142 ; perimeter
G1 X71.436 Y95.593 E34.20672 ; perimeter
G1 X71.963 Y96.230 E34.26202 ; perimeter
G1 X72.316 Y96.980 E34.31733 ; perimeter
G1 X72.460 Y97.734 E34.36862 ; perimeter
G1 X72.821 Y97.985 F6000.000 ; move inwards before travel
G1 E32.36862 F4800.00000 ; retract
G92 E0 ; reset extrusion distance
G1 Z0.800 F6000.000 ; lift Z
G1 X67.186 Y94.111 F6000.000 ; move to first perimeter point
G1 Z0.300 F6000.000 ; restore layer Z
G1 E2.00000 F4800.00000 ; unretract
G1 X67.064 Y94.160 E2.00879 F1800.000 ; perimeter
G1 X66.175 Y94.806 E2.08217 ; perimeter
G1 X65.475 Y95.652 E2.15555 ; perimeter
G1 X65.102 Y96.446 E2.21414 ; perimeter
G1 X64.850 Y96.389 E2.23134 ; perimeter
G1 X64.850 Y93.850 E2.40097 ; perimeter
G1 X67.136 Y93.850 E2.55368 ; perimeter
