; generated by Slic3r 1.2.9 on 2018-10-22 at 16:47:08

; external perimeters extrusion width = 0.30mm
; perimeters extrusion width = 0.30mm
; infill extrusion width = 0.60mm
; solid infill extrusion width = 0.60mm
; top infill extrusion width = 0.45mm

M107 ; disable fan
M190 S55 ; set bed temperature
M104 S195 ; set temperature
G28 ; home all axes
G1 Z5 F5000 ; lift nozzle

M109 S195 ; wait for temperature to be reached
G21 ; set units to millimeters
G90 ; use absolute coordinates
M82 ; use absolute distances for extrusion
G92 E0 ; reset extrusion distance
G1 E-2.00000 F4800.00000 ; retract
G92 E0 ; reset extrusion distance
G1 Z0.500 F6000.000 ; lift Z
G1 X59.908 Y79.991 F6000.000 ; move to first skirt point
G1 Z0.300 F6000.000 ; restore layer Z
G1 E2.00000 F4800.00000 ; unretract
G1 X61.558 Y79.031 E2.12755 F1800.000 ; skirt
G1 X63.000 Y78.799 E2.22512 ; skirt
G1 X197.000 Y78.799 E11.17705 ; skirt
G1 X198.868 Y79.195 E11.30460 ; skirt
G1 X200.415 Y80.314 E11.43215 ; skirt
G1 X201.375 Y81.964 E11.55970 ; skirt
G1 X201.607 Y83.406 E11.65727 ; skirt
G1 X201.607 Y94.762 E12.41590 ; skirt
G1 X201.590 Y95.154 E12.44212 ; skirt
G1 X194.598 Y176.986 E17.92888 ; skirt
G1 X194.045 Y178.814 E18.05643 ; skirt
G1 X192.798 Y180.260 E18.18398 ; skirt
G1 X191.073 Y181.076 E18.31154 ; skirt
G1 X190.008 Y181.201 E18.38313 ; skirt
G1 X180.154 Y181.201 E19.04145 ; skirt
G1 X179.139 Y181.088 E19.10965 ; skirt
G1 X91.748 Y161.357 E25.09483 ; skirt
G1 X90.013 Y160.559 E25.22238 ; skirt
G1 X88.608 Y158.854 E25.37000 ; skirt
G1 X58.846 Y96.753 E29.97054 ; skirt
G1 X58.393 Y94.762 E30.10694 ; skirt
G1 X58.393 Y83.406 E30.86557 ; skirt
G1 X58.789 Y81.538 E30.99312 ; skirt
G1 X59.873 Y80.040 E31.11666 ; skirt
G1 X60.432 Y80.246 F6000.000 ; move to first skirt point
G1 X62.039 Y79.450 E31.23648 F1800.000 ; skirt
G1 X63.000 Y79.335 E31.30112 ; skirt
G1 X197.000 Y79.335 E40.25304 ; skirt
G1 X198.750 Y79.730 E40.37287 ; skirt
G1 X200.160 Y80.838 E40.49269 ; skirt
G1 X200.956 Y82.445 E40.61251 ; skirt
G1 X201.071 Y83.406 E40.67715 ; skirt
G1 X201.071 Y94.762 E41.43577 ; skirt
G1 X201.056 Y95.108 E41.45894 ; skirt
G1 X194.065 Y176.941 E46.94570 ; skirt
G1 X193.522 Y178.650 E47.06552 ; skirt
G1 X192.298 Y179.961 E47.18535 ; skirt
G1 X190.008 Y180.665 E47.34536 ; skirt
G1 X180.154 Y180.665 E48.00369 ; skirt
G1 X179.257 Y180.565 E48.06396 ; skirt
G1 X91.866 Y160.834 E54.04914 ; skirt
G1 X90.246 Y160.064 E54.16896 ; skirt
G1 X89.091 Y158.623 E54.29234 ; skirt
G1 X59.329 Y96.521 E58.89289 ; skirt
G1 X58.929 Y94.762 E59.01343 ; skirt
G1 X58.929 Y83.406 E59.77205 ; skirt
G1 X59.324 Y81.656 E59.89188 ; skirt
G1 X60.395 Y80.294 E60.00769 ; skirt
G1 X60.954 Y80.523 F6000.000 ; move to first skirt point
G1 X63.000 Y79.870 E60.15117 F1800.000 ; skirt
G1 X197.000 Y79.870 E69.10309 ; skirt
G1 X198.623 Y80.265 E69.21465 ; skirt
G1 X199.883 Y81.360 E69.32620 ; skirt
G1 X200.536 Y83.406 E69.46968 ; skirt
G1 X200.536 Y94.762 E70.22830 ; skirt
G1 X200.523 Y95.063 E70.24843 ; skirt
G1 X193.531 Y176.895 E75.73519 ; skirt
G1 X193.000 Y178.478 E75.84675 ; skirt
G1 X191.802 Y179.641 E75.95830 ; skirt
G1 X190.008 Y180.130 E76.08247 ; skirt
G1 X180.154 Y180.130 E76.74080 ; skirt
G1 X179.375 Y180.043 E76.79314 ; skirt
G1 X91.984 Y160.312 E82.77832 ; skirt
G1 X90.488 Y159.570 E82.88988 ; skirt
G1 X89.574 Y158.391 E82.98951 ; skirt
G1 X59.812 Y96.290 E87.59006 ; skirt
G1 X59.464 Y94.762 E87.69474 ; skirt
G1 X59.464 Y83.406 E88.45336 ; skirt
G1 X59.859 Y81.783 E88.56492 ; skirt
G1 X60.914 Y80.568 E88.67247 ; skirt
G1 E86.67247 F4800.00000 ; retract
G92 E0 ; reset extrusion distance
G1 Z0.800 F6000.000 ; lift Z
G1 X188.637 Y175.223 F6000.000 ; move to first perimeter point
G1 Z0.300 F6000.000 ; restore layer Z
G1 E2.00000 F4800.00000 ; unretract
G1 X181.525 Y175.223 E2.47512 F1800.000 ; perimeter
G1 X181.525 Y169.219 E2.87623 ; perimeter
G1 X181.832 Y169.205 E2.89676 ; perimeter
G1 X181.847 Y169.376 E2.90821 ; perimeter
G1 X182.056 Y170.132 E2.96063 ; perimeter
G1 X182.397 Y170.839 E3.01305 ; perimeter
G1 X182.858 Y171.474 E3.06547 ; perimeter
G1 X183.425 Y172.016 E3.11789 ; perimeter
G1 X184.080 Y172.448 E3.17031 ; perimeter
G1 X184.801 Y172.757 E3.22273 ; perimeter
G1 X185.566 Y172.931 E3.27515 ; perimeter
G1 X186.350 Y172.966 E3.32757 ; perimeter
G1 X187.128 Y172.861 E3.37999 ; perimeter
G1 X187.874 Y172.619 E3.43241 ; perimeter
G1 X188.637 Y172.208 E3.49029 ; perimeter
G1 X188.637 Y175.163 E3.68769 ; perimeter
G1 E1.68769 F4800.00000 ; retract
G92 E0 ; reset extrusion distance
G1 Z0.800 F6000.000 ; lift Z
G1 X181.832 Y167.983 F6000.000 ; move to first perimeter point
G1 Z0.300 F6000.000 ; restore layer Z
G1 E2.00000 F4800.00000 ; unretract
G1 X181.525 Y167.969 E2.02053 F1800.000 ; perimeter
G1 X181.525 Y109.219 E5.94540 ; perimeter
G1 X181.832 Y109.205 E5.96593 ; perimeter
G1 X181.847 Y109.376 E5.97738 ; perimeter
G1 X182.056 Y110.132 E6.02980 ; perimeter
G1 X182.397 Y110.839 E6.08222 ; perimeter
G1 X182.858 Y111.474 E6.13464 ; perimeter
G1 X183.425 Y112.016 E6.18706 ; perimeter
G1 X184.080 Y112.448 E6.23948 ; perimeter
G1 X184.801 Y112.757 E6.29190 ; perimeter
G1 X185.566 Y112.931 E6.34432 ; perimeter
G1 X186.350 Y112.966 E6.39673 ; perimeter
G1 X187.128 Y112.861 E6.44915 ; perimeter
G1 X187.874 Y112.619 E6.50157 ; perimeter
G1 X188.637 Y112.208 E6.55946 ; perimeter
G1 X188.637 Y164.980 E10.08492 ; perimeter
G1 X187.874 Y164.569 E10.14280 ; perimeter
G1 X187.128 Y164.327 E10.19522 ; perimeter
G1 X186.350 Y164.222 E10.24764 ; perimeter
G1 X185.566 Y164.257 E10.30006 ; perimeter
G1 X184.801 Y164.431 E10.35248 ; perimeter
G1 X184.080 Y164.740 E10.40490 ; perimeter
G1 X183.425 Y165.172 E10.45732 ; perimeter
G1 X182.858 Y165.714 E10.50974 ; perimeter
G1 X182.397 Y166.349 E10.56216 ; perimeter
G1 X182.056 Y167.056 E10.61458 ; perimeter
G1 X181.847 Y167.813 E10.66700 ; perimeter
G1 X181.837 Y167.923 E10.67444 ; perimeter
G1 X181.832 Y107.983 F6000.000 ; move to first perimeter point
G1 X181.525 Y107.969 E10.69497 F1800.000 ; perimeter
G1 X181.525 Y101.965 E11.09608 ; perimeter
G1 X188.637 Y101.965 E11.57119 ; perimeter
G1 X188.637 Y104.980 E11.77260 ; perimeter
G1 X187.874 Y104.569 E11.83048 ; perimeter
G1 X187.128 Y104.327 E11.88290 ; perimeter
G1 X186.350 Y104.222 E11.93532 ; perimeter
G1 X185.566 Y104.257 E11.98774 ; perimeter
G1 X184.801 Y104.431 E12.04016 ; perimeter
G1 X184.080 Y104.740 E12.09258 ; perimeter
G1 X183.425 Y105.172 E12.14500 ; perimeter
G1 X182.858 Y105.714 E12.19742 ; perimeter
G1 X182.397 Y106.349 E12.24984 ; perimeter
G1 X182.056 Y107.056 E12.30226 ; perimeter
G1 X181.847 Y107.813 E12.35468 ; perimeter
G1 X181.837 Y107.923 E12.36212 ; perimeter
G1 X180.989 Y101.430 F6000.000 ; move to first perimeter point
G1 X189.173 Y101.430 E12.90880 F1800.000 ; perimeter
G1 X189.173 Y106.238 E13.23002 ; perimeter
G1 X188.807 Y105.819 E13.26716 ; perimeter
G1 X188.269 Y105.390 E13.31314 ; perimeter
G1 X187.663 Y105.064 E13.35912 ; perimeter
G1 X187.008 Y104.851 E13.40510 ; perimeter
G1 X186.326 Y104.759 E13.45108 ; perimeter
G1 X185.639 Y104.790 E13.49706 ; perimeter
G1 X184.968 Y104.943 E13.54304 ; perimeter
G1 X184.335 Y105.213 E13.58902 ; perimeter
G1 X183.760 Y105.593 E13.63499 ; perimeter
G1 X183.263 Y106.068 E13.68097 ; perimeter
G1 X182.858 Y106.625 E13.72695 ; perimeter
G1 X182.560 Y107.245 E13.77293 ; perimeter
G1 X182.377 Y107.909 E13.81891 ; perimeter
G1 X182.315 Y108.594 E13.86489 ; perimeter
G1 X182.377 Y109.279 E13.91087 ; perimeter
G1 X182.560 Y109.943 E13.95685 ; perimeter
G1 X182.858 Y110.563 E14.00282 ; perimeter
G1 X183.263 Y111.120 E14.04880 ; perimeter
G1 X183.760 Y111.595 E14.09478 ; perimeter
G1 X184.335 Y111.975 E14.14076 ; perimeter
G1 X184.968 Y112.245 E14.18674 ; perimeter
G1 X185.638 Y112.398 E14.23272 ; perimeter
G1 X186.326 Y112.429 E14.27870 ; perimeter
G1 X187.008 Y112.337 E14.32468 ; perimeter
G1 X187.663 Y112.124 E14.37066 ; perimeter
G1 X188.269 Y111.798 E14.41663 ; perimeter
G1 X188.807 Y111.369 E14.46261 ; perimeter
G1 X189.173 Y110.950 E14.49976 ; perimeter
G1 X189.173 Y166.238 E18.19328 ; perimeter
G1 X188.807 Y165.819 E18.23042 ; perimeter
G1 X188.269 Y165.390 E18.27640 ; perimeter
G1 X187.663 Y165.064 E18.32238 ; perimeter
G1 X187.008 Y164.851 E18.36836 ; perimeter
G1 X186.326 Y164.759 E18.41434 ; perimeter
G1 X185.638 Y164.790 E18.46032 ; perimeter
G1 X184.968 Y164.943 E18.50630 ; perimeter
G1 X184.335 Y165.213 E18.55228 ; perimeter
G1 X183.760 Y165.593 E18.59825 ; perimeter
G1 X183.263 Y166.068 E18.64423 ; perimeter
G1 X182.858 Y166.625 E18.69021 ; perimeter
G1 X182.560 Y167.245 E18.73619 ; perimeter
G1 X182.377 Y167.909 E18.78217 ; perimeter
G1 X182.315 Y168.594 E18.82815 ; perimeter
G1 X182.377 Y169.279 E18.87413 ; perimeter
G1 X182.560 Y169.943 E18.92011 ; perimeter
G1 X182.858 Y170.563 E18.96608 ; perimeter
G1 X183.263 Y171.120 E19.01206 ; perimeter
G1 X183.760 Y171.595 E19.05804 ; perimeter
G1 X184.335 Y171.975 E19.10402 ; perimeter
G1 X184.968 Y172.245 E19.15000 ; perimeter
G1 X185.639 Y172.398 E19.19598 ; perimeter
G1 X186.326 Y172.429 E19.24196 ; perimeter
G1 X187.008 Y172.337 E19.28794 ; perimeter
G1 X187.663 Y172.124 E19.33392 ; perimeter
G1 X188.269 Y171.798 E19.37989 ; perimeter
G1 X188.807 Y171.369 E19.42587 ; perimeter
G1 X189.173 Y170.950 E19.46302 ; perimeter
G1 X189.173 Y175.758 E19.78423 ; perimeter
G1 X180.989 Y175.758 E20.33091 ; perimeter
G1 X180.989 Y101.490 E25.29247 ; perimeter
G1 X180.454 Y100.894 F6000.000 ; move to first perimeter point
G1 X189.708 Y100.894 E25.91071 F1800.000 ; perimeter
G1 X189.708 Y108.128 E26.39399 ; perimeter
G1 X189.416 Y108.154 E26.41362 ; perimeter
G1 X189.336 Y107.716 E26.44340 ; perimeter
G1 X189.128 Y107.162 E26.48294 ; perimeter
G1 X188.825 Y106.654 E26.52248 ; perimeter
G1 X188.435 Y106.208 E26.56201 ; perimeter
G1 X187.972 Y105.839 E26.60155 ; perimeter
G1 X187.451 Y105.558 E26.64109 ; perimeter
G1 X186.888 Y105.376 E26.68063 ; perimeter
G1 X186.302 Y105.296 E26.72017 ; perimeter
G1 X185.711 Y105.323 E26.75970 ; perimeter
G1 X185.134 Y105.454 E26.79924 ; perimeter
G1 X184.589 Y105.687 E26.83878 ; perimeter
G1 X184.096 Y106.013 E26.87832 ; perimeter
G1 X183.668 Y106.422 E26.91786 ; perimeter
G1 X183.320 Y106.901 E26.95739 ; perimeter
G1 X183.063 Y107.434 E26.99693 ; perimeter
G1 X182.906 Y108.005 E27.03647 ; perimeter
G1 X182.853 Y108.594 E27.07601 ; perimeter
G1 X182.906 Y109.183 E27.11555 ; perimeter
G1 X183.063 Y109.754 E27.15508 ; perimeter
G1 X183.320 Y110.287 E27.19462 ; perimeter
G1 X183.668 Y110.766 E27.23416 ; perimeter
G1 X184.096 Y111.175 E27.27370 ; perimeter
G1 X184.589 Y111.501 E27.31323 ; perimeter
G1 X185.134 Y111.734 E27.35277 ; perimeter
G1 X185.711 Y111.865 E27.39231 ; perimeter
G1 X186.302 Y111.892 E27.43185 ; perimeter
G1 X186.888 Y111.812 E27.47139 ; perimeter
G1 X187.451 Y111.630 E27.51092 ; perimeter
G1 X187.972 Y111.349 E27.55046 ; perimeter
G1 X188.435 Y110.980 E27.59000 ; perimeter
G1 X188.825 Y110.534 E27.62954 ; perimeter
G1 X189.128 Y110.026 E27.66908 ; perimeter
G1 X189.336 Y109.472 E27.70861 ; perimeter
G1 X189.416 Y109.034 E27.73840 ; perimeter
G1 X189.708 Y109.060 E27.75802 ; perimeter
G1 X189.708 Y168.128 E31.70410 ; perimeter
G1 X189.416 Y168.154 E31.72372 ; perimeter
G1 X189.336 Y167.716 E31.75351 ; perimeter
G1 X189.128 Y167.162 E31.79305 ; perimeter
G1 X188.825 Y166.654 E31.83258 ; perimeter
G1 X188.435 Y166.208 E31.87212 ; perimeter
G1 X187.972 Y165.839 E31.91166 ; perimeter
G1 X187.451 Y165.558 E31.95120 ; perimeter
G1 X186.888 Y165.376 E31.99074 ; perimeter
G1 X186.302 Y165.296 E32.03027 ; perimeter
G1 X185.711 Y165.323 E32.06981 ; perimeter
G1 X185.134 Y165.454 E32.10935 ; perimeter
G1 X184.589 Y165.687 E32.14889 ; perimeter
G1 X184.096 Y166.013 E32.18842 ; perimeter
G1 X183.668 Y166.422 E32.22796 ; perimeter
G1 X183.320 Y166.901 E32.26750 ; perimeter
G1 X183.063 Y167.434 E32.30704 ; perimeter
G1 X182.906 Y168.005 E32.34658 ; perimeter
G1 X182.853 Y168.594 E32.38611 ; perimeter
G1 X182.906 Y169.183 E32.42565 ; perimeter
G1 X183.063 Y169.754 E32.46519 ; perimeter
G1 X183.320 Y170.287 E32.50473 ; perimeter
G1 X183.668 Y170.766 E32.54427 ; perimeter
G1 X184.096 Y171.175 E32.58380 ; perimeter
G1 X184.589 Y171.501 E32.62334 ; perimeter
G1 X185.134 Y171.734 E32.66288 ; perimeter
G1 X185.711 Y171.865 E32.70242 ; perimeter
G1 X186.302 Y171.892 E32.74196 ; perimeter
G1 X186.888 Y171.812 E32.78149 ; perimeter
G1 X187.451 Y171.630 E32.82103 ; perimeter
G1 X187.972 Y171.349 E32.86057 ; perimeter
G1 X188.435 Y170.980 E32.90011 ; perimeter
G1 X188.825 Y170.534 E32.93964 ; perimeter
G1 X189.128 Y170.026 E32.97918 ; perimeter
G1 X189.336 Y169.472 E33.01872 ; perimeter
G1 X189.416 Y169.034 E33.04851 ; perimeter
G1 X189.708 Y169.060 E33.06813 ; perimeter
G1 X189.708 Y176.294 E33.55141 ; perimeter
G1 X180.454 Y176.294 E34.16965 ; perimeter
G1 X180.454 Y100.954 E39.20277 ; perimeter
G1 X180.800 Y101.094 F6000.000 ; move inwards before travel
G1 X182.109 Y106.293 F6000.000 ; move to first infill point
G1 X181.847 Y106.031 E39.22779 F1800.000 ; infill
G1 X181.847 Y105.266 E39.27941 ; infill
G1 X182.423 Y105.842 E39.33441 ; infill
G1 X182.767 Y105.421 E39.37109 ; infill
G1 X181.847 Y104.501 E39.45892 ; infill
G1 X181.847 Y103.736 E39.51054 ; infill
G1 X183.158 Y105.047 E39.63568 ; infill
G1 X183.600 Y104.724 E39.67261 ; infill
G1 X181.847 Y102.971 E39.83989 ; infill
G1 X181.928 Y102.287 E39.88635 ; infill
G1 X184.073 Y104.432 E40.09100 ; infill
G1 X184.609 Y104.203 E40.13032 ; infill
G1 X182.693 Y102.287 E40.31311 ; infill
G1 X183.458 Y102.287 E40.36473 ; infill
G1 X185.204 Y104.033 E40.53131 ; infill
G1 X185.863 Y103.927 E40.57634 ; infill
G1 X184.223 Y102.287 E40.73279 ; infill
G1 X184.988 Y102.287 E40.78440 ; infill
G1 X186.618 Y103.917 E40.93994 ; infill
G1 X187.549 Y104.083 E41.00374 ; infill
G1 X185.753 Y102.287 E41.17512 ; infill
G1 X186.518 Y102.287 E41.22673 ; infill
G1 X188.315 Y104.084 E41.39822 ; infill
G1 X188.315 Y103.319 E41.44984 ; infill
G1 X187.283 Y102.287 E41.54833 ; infill
G1 X188.048 Y102.287 E41.59995 ; infill
G1 X188.315 Y102.554 E41.62545 ; infill
G1 E39.62545 F4800.00000 ; retract
G92 E0 ; reset extrusion distance
G1 Z0.800 F6000.000 ; lift Z
G1 X188.315 Y113.104 F6000.000 ; move to first infill point
G1 Z0.300 F6000.000 ; restore layer Z
G1 E2.00000 F4800.00000 ; unretract
G1 X188.053 Y112.842 E2.02488 F1800.000 ; infill
G1 X187.498 Y113.048 E2.06466 ; infill
G1 X188.315 Y113.865 E2.14228 ; infill
G1 X188.315 Y114.627 E2.19342 ; infill
G1 X186.892 Y113.203 E2.32861 ; infill
G1 X186.215 Y113.287 E2.37444 ; infill
G1 X188.315 Y115.388 E2.57394 ; infill
G1 X188.315 Y116.150 E2.62508 ; infill
G1 X185.418 Y113.252 E2.90031 ; infill
G1 X184.396 Y112.992 E2.97110 ; infill
G1 X188.315 Y116.911 E3.34336 ; infill
G1 X188.315 Y117.673 E3.39450 ; infill
G1 X181.847 Y111.204 E4.00887 ; infill
G1 X181.847 Y111.965 E4.06001 ; infill
G1 X188.315 Y118.434 E4.67438 ; infill
G1 X188.315 Y119.195 E4.72552 ; infill
G1 X181.847 Y112.727 E5.33989 ; infill
G1 X181.847 Y113.488 E5.39103 ; infill
G1 X188.315 Y119.957 E6.00541 ; infill
G1 X188.315 Y120.718 E6.05655 ; infill
G1 X181.847 Y114.250 E6.67092 ; infill
G1 X181.847 Y115.011 E6.72206 ; infill
G1 X188.315 Y121.480 E7.33643 ; infill
G1 X188.315 Y122.241 E7.38757 ; infill
G1 X181.847 Y115.773 E8.00194 ; infill
G1 X181.847 Y116.534 E8.05308 ; infill
G1 X188.315 Y123.003 E8.66746 ; infill
G1 X188.315 Y123.764 E8.71860 ; infill
G1 X181.847 Y117.296 E9.33297 ; infill
G1 X181.847 Y118.057 E9.38411 ; infill
G1 X188.315 Y124.526 E9.99848 ; infill
G1 X188.315 Y125.287 E10.04962 ; infill
G1 X181.847 Y118.819 E10.66399 ; infill
G1 X181.847 Y119.580 E10.71513 ; infill
G1 X188.315 Y126.049 E11.32951 ; infill
