; generated by Slic3r 1.2.9 on 2018-10-19 at 16:31:24

; external perimeters extrusion width = 0.30mm
; perimeters extrusion width = 0.30mm
; infill extrusion width = 0.60mm
; solid infill extrusion width = 0.60mm
; top infill extrusion width = 0.45mm

M107 ; disable fan
M190 S55 ; set bed temperature
M104 S195 ; set temperature
G28 ; home all axes
G1 Z5 F5000 ; lift nozzle

M109 S195 ; wait for temperature to be reached
G21 ; set units to millimeters
G90 ; use absolute coordinates
M82 ; use absolute distances for extrusion
G92 E0 ; reset extrusion distance
G1 E-2.00000 F4800.00000 ; retract
G92 E0 ; reset extrusion distance
G1 Z0.500 F6000.000 ; lift Z
G1 X61.649 Y130.307 F6000.000 ; move to first skirt point
G1 Z0.300 F6000.000 ; restore layer Z
G1 E2.00000 F4800.00000 ; unretract
G1 X173.773 Y105.523 E9.67129 F1800.000 ; skirt
G1 X174.768 Y105.415 E9.73811 ; skirt
G1 X188.359 Y105.415 E10.64612 ; skirt
G1 X190.227 Y105.811 E10.77368 ; skirt
G1 X191.774 Y106.930 E10.90123 ; skirt
G1 X192.690 Y108.450 E11.01978 ; skirt
G1 X201.687 Y133.234 E12.78119 ; skirt
G1 X201.963 Y134.806 E12.88782 ; skirt
G1 X201.953 Y149.936 E13.89859 ; skirt
G1 X201.784 Y150.931 E13.96603 ; skirt
G1 X201.635 Y151.377 E13.99743 ; skirt
G1 X200.779 Y152.822 E14.10967 ; skirt
G1 X200.682 Y152.934 E14.11952 ; skirt
G1 X199.665 Y153.803 E14.20895 ; skirt
G1 X198.602 Y154.309 E14.28754 ; skirt
G1 X197.610 Y154.545 E14.35566 ; skirt
G1 X197.000 Y154.585 E14.39652 ; skirt
G1 X62.643 Y154.585 E23.37227 ; skirt
G1 X60.776 Y154.189 E23.49982 ; skirt
G1 X59.229 Y153.070 E23.62737 ; skirt
G1 X58.268 Y151.420 E23.75493 ; skirt
G1 X58.037 Y149.978 E23.85249 ; skirt
G1 X58.037 Y134.806 E24.86610 ; skirt
G1 X58.432 Y132.938 E24.99366 ; skirt
G1 X59.551 Y131.391 E25.12121 ; skirt
G1 X61.596 Y130.335 E25.27493 ; skirt
G1 X61.765 Y130.830 F6000.000 ; move to first skirt point
G1 X173.889 Y106.046 E32.94623 F1800.000 ; skirt
G1 X174.768 Y105.951 E33.00528 ; skirt
G1 X188.359 Y105.951 E33.91329 ; skirt
G1 X190.109 Y106.346 E34.03311 ; skirt
G1 X191.519 Y107.454 E34.15293 ; skirt
G1 X192.186 Y108.633 E34.24340 ; skirt
G1 X201.183 Y133.416 E36.00482 ; skirt
G1 X201.428 Y134.806 E36.09905 ; skirt
G1 X201.418 Y149.904 E37.10774 ; skirt
G1 X201.269 Y150.784 E37.16733 ; skirt
G1 X201.132 Y151.192 E37.19611 ; skirt
G1 X200.376 Y152.470 E37.29530 ; skirt
G1 X200.279 Y152.581 E37.30514 ; skirt
G1 X199.379 Y153.350 E37.38418 ; skirt
G1 X198.436 Y153.800 E37.45403 ; skirt
G1 X197.544 Y154.013 E37.51531 ; skirt
G1 X197.000 Y154.049 E37.55170 ; skirt
G1 X62.643 Y154.049 E46.52745 ; skirt
G1 X60.894 Y153.654 E46.64727 ; skirt
G1 X59.484 Y152.546 E46.76709 ; skirt
G1 X58.687 Y150.939 E46.88692 ; skirt
G1 X58.572 Y149.978 E46.95154 ; skirt
G1 X58.572 Y134.806 E47.96516 ; skirt
G1 X58.967 Y133.056 E48.08498 ; skirt
G1 X60.076 Y131.646 E48.20480 ; skirt
G1 X61.711 Y130.856 E48.32609 ; skirt
G1 X61.880 Y131.353 F6000.000 ; move to first skirt point
G1 X174.004 Y106.569 E55.99739 F1800.000 ; skirt
G1 X174.768 Y106.486 E56.04867 ; skirt
G1 X188.359 Y106.486 E56.95668 ; skirt
G1 X189.982 Y106.880 E57.06824 ; skirt
G1 X191.243 Y107.976 E57.17979 ; skirt
G1 X191.683 Y108.815 E57.24313 ; skirt
G1 X200.680 Y133.599 E59.00454 ; skirt
G1 X200.892 Y134.806 E59.08638 ; skirt
G1 X200.883 Y149.873 E60.09299 ; skirt
G1 X200.754 Y150.637 E60.14474 ; skirt
G1 X200.629 Y151.008 E60.17090 ; skirt
G1 X199.972 Y152.118 E60.25704 ; skirt
G1 X199.876 Y152.229 E60.26688 ; skirt
G1 X199.094 Y152.896 E60.33552 ; skirt
G1 X198.269 Y153.291 E60.39663 ; skirt
G1 X197.477 Y153.482 E60.45106 ; skirt
G1 X197.000 Y153.514 E60.48299 ; skirt
G1 X62.643 Y153.514 E69.45874 ; skirt
G1 X61.021 Y153.119 E69.57029 ; skirt
G1 X59.760 Y152.024 E69.68185 ; skirt
G1 X59.108 Y149.978 E69.82532 ; skirt
G1 X59.108 Y134.806 E70.83894 ; skirt
G1 X59.502 Y133.183 E70.95049 ; skirt
G1 X60.597 Y131.922 E71.06205 ; skirt
G1 X61.826 Y131.378 E71.15181 ; skirt
G1 E69.15181 F4800.00000 ; retract
G92 E0 ; reset extrusion distance
G1 Z0.800 F6000.000 ; lift Z
G1 X179.337 Y121.867 F6000.000 ; move to first perimeter point
G1 Z0.300 F6000.000 ; restore layer Z
G1 E2.00000 F4800.00000 ; unretract
G1 X178.505 Y121.352 E2.06535 F1800.000 ; perimeter
G1 X177.782 Y120.693 E2.13071 ; perimeter
G1 X177.193 Y119.913 E2.19606 ; perimeter
G1 X176.757 Y119.037 E2.26142 ; perimeter
G1 X176.489 Y118.096 E2.32677 ; perimeter
G1 X176.405 Y117.193 E2.38737 ; perimeter
G1 X176.488 Y116.150 E2.45728 ; perimeter
G1 X176.757 Y115.207 E2.52276 ; perimeter
G1 X177.193 Y114.331 E2.58812 ; perimeter
G1 X177.782 Y113.550 E2.65347 ; perimeter
G1 X178.505 Y112.891 E2.71883 ; perimeter
G1 X179.337 Y112.376 E2.78418 ; perimeter
G1 X180.249 Y112.023 E2.84954 ; perimeter
G1 X181.211 Y111.843 E2.91489 ; perimeter
G1 X182.189 Y111.843 E2.98024 ; perimeter
G1 X183.151 Y112.023 E3.04560 ; perimeter
G1 X184.063 Y112.376 E3.11095 ; perimeter
G1 X184.895 Y112.891 E3.17631 ; perimeter
G1 X185.618 Y113.550 E3.24166 ; perimeter
G1 X186.207 Y114.331 E3.30702 ; perimeter
G1 X186.643 Y115.207 E3.37237 ; perimeter
G1 X186.911 Y116.148 E3.43773 ; perimeter
G1 X187.001 Y117.122 E3.50308 ; perimeter
G1 X186.911 Y118.096 E3.56844 ; perimeter
G1 X186.643 Y119.037 E3.63379 ; perimeter
G1 X186.207 Y119.913 E3.69914 ; perimeter
G1 X185.618 Y120.693 E3.76450 ; perimeter
G1 X184.895 Y121.352 E3.82985 ; perimeter
G1 X184.063 Y121.867 E3.89521 ; perimeter
G1 X183.151 Y122.221 E3.96056 ; perimeter
G1 X182.189 Y122.400 E4.02592 ; perimeter
G1 X181.211 Y122.400 E4.09127 ; perimeter
G1 X180.249 Y122.221 E4.15663 ; perimeter
G1 X179.393 Y121.889 E4.21797 ; perimeter
G1 X178.997 Y122.078 F6000.000 ; move inwards before travel
G1 E2.21797 F4800.00000 ; retract
G92 E0 ; reset extrusion distance
G1 Z0.800 F6000.000 ; lift Z
G1 X176.139 Y113.585 F6000.000 ; move to first perimeter point
G1 Z0.300 F6000.000 ; restore layer Z
G1 E2.00000 F4800.00000 ; unretract
G1 X176.139 Y111.393 E2.14645 F1800.000 ; perimeter
G1 X178.446 Y111.393 E2.30062 ; perimeter
G1 X178.513 Y111.627 E2.31683 ; perimeter
G1 X177.857 Y112.033 E2.36837 ; perimeter
G1 X176.987 Y112.826 E2.44699 ; perimeter
G1 X176.358 Y113.659 E2.51675 ; perimeter
G1 X176.196 Y113.604 E2.52818 ; perimeter
G1 E0.52818 F4800.00000 ; retract
G92 E0 ; reset extrusion distance
G1 Z0.800 F6000.000 ; lift Z
G1 X184.887 Y111.626 F6000.000 ; move to first perimeter point
G1 Z0.300 F6000.000 ; restore layer Z
G1 E2.00000 F4800.00000 ; unretract
G1 X184.953 Y111.393 E2.01621 F1800.000 ; perimeter
G1 X186.988 Y111.393 E2.15215 ; perimeter
G1 X186.988 Y113.224 E2.27445 ; perimeter
G1 X186.769 Y113.297 E2.28989 ; perimeter
G1 X186.413 Y112.826 E2.32938 ; perimeter
G1 X185.543 Y112.033 E2.40799 ; perimeter
G1 X184.938 Y111.658 E2.45554 ; perimeter
G1 X187.524 Y110.857 F6000.000 ; move to first perimeter point
G1 X187.524 Y115.332 E2.75446 F1800.000 ; perimeter
G1 X187.247 Y115.371 E2.77315 ; perimeter
G1 X187.145 Y115.012 E2.79803 ; perimeter
G1 X186.665 Y114.048 E2.87001 ; perimeter
G1 X186.015 Y113.188 E2.94200 ; perimeter
G1 X185.219 Y112.462 E3.01398 ; perimeter
G1 X184.303 Y111.895 E3.08597 ; perimeter
G1 X183.298 Y111.505 E3.15796 ; perimeter
G1 X182.239 Y111.307 E3.22994 ; perimeter
G1 X181.161 Y111.307 E3.30193 ; perimeter
G1 X180.102 Y111.505 E3.37391 ; perimeter
G1 X179.097 Y111.895 E3.44590 ; perimeter
G1 X178.181 Y112.462 E3.51788 ; perimeter
G1 X177.385 Y113.188 E3.58987 ; perimeter
G1 X176.735 Y114.048 E3.66186 ; perimeter
G1 X176.255 Y115.012 E3.73384 ; perimeter
G1 X175.959 Y116.054 E3.80619 ; perimeter
G1 X175.912 Y116.644 E3.84571 ; perimeter
G1 X175.603 Y116.631 E3.86635 ; perimeter
G1 X175.603 Y110.857 E4.25208 ; perimeter
G1 X187.464 Y110.857 E5.04444 ; perimeter
G1 E3.04444 F4800.00000 ; retract
G92 E0 ; reset extrusion distance
G1 Z0.800 F6000.000 ; lift Z
G1 X191.091 Y138.312 F6000.000 ; move to first perimeter point
G1 Z0.300 F6000.000 ; restore layer Z
G1 E2.00000 F4800.00000 ; unretract
G1 X192.022 Y138.366 E2.06230 F1800.000 ; perimeter
G1 X192.916 Y138.634 E2.12460 ; perimeter
G1 X193.723 Y139.100 E2.18689 ; perimeter
G1 X194.402 Y139.740 E2.24919 ; perimeter
G1 X194.914 Y140.519 E2.31149 ; perimeter
G1 X195.235 Y141.402 E2.37424 ; perimeter
G1 X195.334 Y142.383 E2.44014 ; perimeter
G1 X195.233 Y143.248 E2.49829 ; perimeter
G1 X194.914 Y144.124 E2.56059 ; perimeter
G1 X194.402 Y144.903 E2.62289 ; perimeter
G1 X193.723 Y145.543 E2.68519 ; perimeter
G1 X192.916 Y146.010 E2.74749 ; perimeter
G1 X192.022 Y146.277 E2.80978 ; perimeter
G1 X191.091 Y146.331 E2.87208 ; perimeter
G1 X190.173 Y146.169 E2.93438 ; perimeter
G1 X189.317 Y145.800 E2.99668 ; perimeter
G1 X188.569 Y145.243 E3.05898 ; perimeter
G1 X187.969 Y144.529 E3.12127 ; perimeter
G1 X187.551 Y143.695 E3.18357 ; perimeter
G1 X187.336 Y142.788 E3.24587 ; perimeter
G1 X187.336 Y141.856 E3.30817 ; perimeter
G1 X187.551 Y140.948 E3.37047 ; perimeter
G1 X187.969 Y140.115 E3.43276 ; perimeter
G1 X188.569 Y139.400 E3.49506 ; perimeter
G1 X189.322 Y138.839 E3.55782 ; perimeter
G1 X190.234 Y138.463 E3.62372 ; perimeter
G1 X191.032 Y138.323 E3.67786 ; perimeter
G1 X191.123 Y138.851 F6000.000 ; move to first perimeter point
G1 X191.929 Y138.898 E3.73179 F1800.000 ; perimeter
G1 X192.702 Y139.129 E3.78572 ; perimeter
G1 X193.401 Y139.533 E3.83966 ; perimeter
G1 X193.989 Y140.087 E3.89359 ; perimeter
G1 X194.432 Y140.761 E3.94752 ; perimeter
G1 X194.709 Y141.522 E4.00162 ; perimeter
G1 X194.795 Y142.379 E4.05916 ; perimeter
G1 X194.708 Y143.124 E4.10923 ; perimeter
G1 X194.432 Y143.882 E4.16316 ; perimeter
G1 X193.989 Y144.557 E4.21710 ; perimeter
G1 X193.401 Y145.111 E4.27103 ; perimeter
G1 X192.702 Y145.514 E4.32496 ; perimeter
G1 X191.929 Y145.746 E4.37890 ; perimeter
G1 X191.123 Y145.793 E4.43283 ; perimeter
G1 X190.328 Y145.653 E4.48676 ; perimeter
G1 X189.586 Y145.333 E4.54070 ; perimeter
G1 X188.939 Y144.851 E4.59463 ; perimeter
G1 X188.420 Y144.232 E4.64856 ; perimeter
G1 X188.058 Y143.511 E4.70250 ; perimeter
G1 X187.871 Y142.725 E4.75643 ; perimeter
G1 X187.871 Y141.918 E4.81036 ; perimeter
G1 X188.058 Y141.133 E4.86430 ; perimeter
G1 X188.420 Y140.411 E4.91823 ; perimeter
G1 X188.939 Y139.793 E4.97216 ; perimeter
G1 X189.588 Y139.309 E5.02626 ; perimeter
G1 X190.385 Y138.981 E5.08380 ; perimeter
G1 X191.064 Y138.861 E5.12986 ; perimeter
G1 X191.316 Y138.500 F6000.000 ; move inwards before travel
G1 E3.12986 F4800.00000 ; retract
G92 E0 ; reset extrusion distance
G1 Z0.800 F6000.000 ; lift Z
G1 X195.720 Y143.477 F6000.000 ; move to first perimeter point
G1 Z0.300 F6000.000 ; restore layer Z
G1 E2.00000 F4800.00000 ; unretract
G1 X195.985 Y143.524 E2.01801 F1800.000 ; perimeter
G1 X195.985 Y148.607 E2.35756 ; perimeter
G1 X187.044 Y148.607 E2.95489 ; perimeter
G1 X187.044 Y144.430 E3.23393 ; perimeter
G1 X187.291 Y144.371 E3.25091 ; perimeter
G1 X187.519 Y144.825 E3.28484 ; perimeter
G1 X188.199 Y145.635 E3.35550 ; perimeter
G1 X189.047 Y146.267 E3.42616 ; perimeter
G1 X190.018 Y146.686 E3.49682 ; perimeter
G1 X191.060 Y146.870 E3.56749 ; perimeter
G1 X192.116 Y146.808 E3.63815 ; perimeter
G1 X193.129 Y146.505 E3.70881 ; perimeter
G1 X194.045 Y145.976 E3.77947 ; perimeter
G1 X194.815 Y145.250 E3.85014 ; perimeter
G1 X195.396 Y144.366 E3.92080 ; perimeter
G1 X195.699 Y143.534 E3.97999 ; perimeter
G1 E1.97999 F4800.00000 ; retract
G92 E0 ; reset extrusion distance
G1 Z0.800 F6000.000 ; lift Z
G1 X187.044 Y139.294 F6000.000 ; move to first perimeter point
G1 Z0.300 F6000.000 ; restore layer Z
G1 E2.00000 F4800.00000 ; unretract
G1 X159.715 Y139.294 E3.82571 F1800.000 ; perimeter
G1 X159.715 Y136.177 E4.03394 ; perimeter
G1 X176.139 Y136.177 E5.13115 ; perimeter
G1 X176.139 Y120.658 E6.16787 ; perimeter
G1 X176.358 Y120.585 E6.18332 ; perimeter
G1 X176.987 Y121.418 E6.25308 ; perimeter
G1 X177.857 Y122.211 E6.33170 ; perimeter
G1 X178.857 Y122.830 E6.41031 ; perimeter
G1 X179.955 Y123.255 E6.48893 ; perimeter
G1 X181.112 Y123.472 E6.56755 ; perimeter
G1 X182.288 Y123.472 E6.64617 ; perimeter
G1 X183.445 Y123.255 E6.72478 ; perimeter
G1 X184.543 Y122.830 E6.80340 ; perimeter
G1 X185.543 Y122.211 E6.88202 ; perimeter
G1 X186.413 Y121.418 E6.96064 ; perimeter
G1 X186.769 Y120.946 E7.00012 ; perimeter
G1 X186.988 Y121.020 E7.01557 ; perimeter
G1 X186.988 Y136.177 E8.02813 ; perimeter
G1 X195.985 Y136.177 E8.62919 ; perimeter
G1 X195.985 Y141.119 E8.95938 ; perimeter
G1 X195.720 Y141.166 E8.97740 ; perimeter
G1 X195.396 Y140.277 E9.04060 ; perimeter
G1 X194.815 Y139.393 E9.11126 ; perimeter
G1 X194.045 Y138.668 E9.18193 ; perimeter
G1 X193.129 Y138.139 E9.25259 ; perimeter
G1 X192.116 Y137.835 E9.32325 ; perimeter
G1 X191.060 Y137.774 E9.39391 ; perimeter
G1 X190.084 Y137.946 E9.46014 ; perimeter
G1 X189.056 Y138.370 E9.53440 ; perimeter
G1 X188.199 Y139.008 E9.60581 ; perimeter
G1 X187.519 Y139.818 E9.67648 ; perimeter
G1 X187.291 Y140.272 E9.71041 ; perimeter
G1 X187.044 Y140.214 E9.72739 ; perimeter
G1 X187.044 Y139.354 E9.78485 ; perimeter
G1 E7.78485 F4800.00000 ; retract
G92 E0 ; reset extrusion distance
G1 Z0.800 F6000.000 ; lift Z
G1 X72.558 Y142.322 F6000.000 ; move to first perimeter point
G1 Z0.300 F6000.000 ; restore layer Z
G1 E2.00000 F4800.00000 ; unretract
G1 X72.426 Y143.327 E2.06772 F1800.000 ; perimeter
G1 X72.038 Y144.263 E2.13544 ; perimeter
G1 X71.421 Y145.068 E2.20316 ; perimeter
G1 X70.617 Y145.685 E2.27088 ; perimeter
G1 X69.680 Y146.073 E2.33860 ; perimeter
G1 X68.675 Y146.205 E2.40632 ; perimeter
G1 X67.670 Y146.073 E2.47404 ; perimeter
G1 X66.733 Y145.685 E2.54176 ; perimeter
G1 X65.929 Y145.068 E2.60948 ; perimeter
G1 X65.312 Y144.263 E2.67720 ; perimeter
G1 X64.924 Y143.327 E2.74492 ; perimeter
G1 X64.792 Y142.322 E2.81264 ; perimeter
G1 X64.924 Y141.317 E2.88036 ; perimeter
G1 X65.312 Y140.380 E2.94807 ; perimeter
G1 X65.929 Y139.576 E3.01579 ; perimeter
G1 X66.733 Y138.959 E3.08351 ; perimeter
G1 X67.670 Y138.571 E3.15123 ; perimeter
G1 X68.614 Y138.447 E3.21484 ; perimeter
G1 X69.668 Y138.566 E3.28573 ; perimeter
G1 X70.617 Y138.959 E3.35429 ; perimeter
G1 X71.421 Y139.576 E3.42201 ; perimeter
G1 X72.038 Y140.380 E3.48973 ; perimeter
G1 X72.426 Y141.317 E3.55745 ; perimeter
G1 X72.550 Y142.262 E3.62116 ; perimeter
G1 X72.018 Y142.322 F6000.000 ; move to first perimeter point
G1 X71.904 Y143.187 E3.67946 F1800.000 ; perimeter
G1 X71.570 Y143.993 E3.73776 ; perimeter
G1 X71.039 Y144.686 E3.79606 ; perimeter
G1 X70.346 Y145.217 E3.85436 ; perimeter
G1 X69.540 Y145.551 E3.91265 ; perimeter
G1 X68.675 Y145.665 E3.97095 ; perimeter
G1 X67.810 Y145.551 E4.02925 ; perimeter
G1 X67.004 Y145.217 E4.08755 ; perimeter
G1 X66.311 Y144.686 E4.14584 ; perimeter
G1 X65.780 Y143.993 E4.20414 ; perimeter
G1 X65.446 Y143.187 E4.26244 ; perimeter
G1 X65.332 Y142.322 E4.32074 ; perimeter
G1 X65.446 Y141.457 E4.37904 ; perimeter
G1 X65.780 Y140.650 E4.43733 ; perimeter
G1 X66.311 Y139.958 E4.49563 ; perimeter
G1 X67.004 Y139.427 E4.55393 ; perimeter
G1 X67.810 Y139.093 E4.61223 ; perimeter
G1 X68.619 Y138.986 E4.66674 ; perimeter
G1 X69.533 Y139.090 E4.72821 ; perimeter
G1 X70.346 Y139.427 E4.78702 ; perimeter
G1 X71.039 Y139.958 E4.84532 ; perimeter
G1 X71.570 Y140.650 E4.90362 ; perimeter
G1 X71.904 Y141.457 E4.96192 ; perimeter
G1 X72.010 Y142.262 E5.01621 ; perimeter
G1 X71.478 Y142.322 F6000.000 ; move to first perimeter point
G1 X71.382 Y143.047 E5.06508 F1800.000 ; perimeter
G1 X71.102 Y143.723 E5.11396 ; perimeter
G1 X70.657 Y144.303 E5.16283 ; perimeter
G1 X70.076 Y144.749 E5.21171 ; perimeter
G1 X69.400 Y145.029 E5.26059 ; perimeter
G1 X68.675 Y145.124 E5.30946 ; perimeter
G1 X67.950 Y145.029 E5.35834 ; perimeter
G1 X67.274 Y144.749 E5.40722 ; perimeter
