; generated by Slic3r 1.2.9 on 2018-10-22 at 18:01:48

; external perimeters extrusion width = 0.30mm
; perimeters extrusion width = 0.30mm
; infill extrusion width = 0.60mm
; solid infill extrusion width = 0.60mm
; top infill extrusion width = 0.45mm

M107 ; disable fan
M190 S55 ; set bed temperature
M104 S195 ; set temperature
G28 ; home all axes
G1 Z5 F5000 ; lift nozzle

M109 S195 ; wait for temperature to be reached
G21 ; set units to millimeters
G90 ; use absolute coordinates
M82 ; use absolute distances for extrusion
G92 E0 ; reset extrusion distance
G1 E-2.00000 F4800.00000 ; retract
G92 E0 ; reset extrusion distance
G1 Z0.500 F6000.000 ; lift Z
G1 X102.802 Y62.882 F6000.000 ; move to first skirt point
G1 Z0.300 F6000.000 ; restore layer Z
G1 E2.00000 F4800.00000 ; unretract
G1 X103.921 Y61.335 E2.12755 F1800.000 ; skirt
G1 X105.571 Y60.375 E2.25511 ; skirt
G1 X107.013 Y60.143 E2.35267 ; skirt
G1 X116.513 Y60.143 E2.98733 ; skirt
G1 X118.381 Y60.539 E3.11488 ; skirt
G1 X119.747 Y61.469 E3.22527 ; skirt
G1 X146.460 Y87.796 E5.73088 ; skirt
G1 X147.675 Y89.879 E5.89200 ; skirt
G1 X157.436 Y126.138 E8.40050 ; skirt
G1 X157.594 Y127.335 E8.48120 ; skirt
G1 X157.594 Y137.988 E9.19285 ; skirt
G1 X157.291 Y139.630 E9.30439 ; skirt
G1 X147.531 Y165.219 E11.13401 ; skirt
G1 X146.748 Y166.547 E11.23701 ; skirt
G1 X120.034 Y198.220 E14.00503 ; skirt
G1 X118.528 Y199.393 E14.13259 ; skirt
G1 X116.513 Y199.857 E14.27072 ; skirt
G1 X107.013 Y199.857 E14.90537 ; skirt
G1 X105.145 Y199.461 E15.03292 ; skirt
G1 X103.598 Y198.342 E15.16047 ; skirt
G1 X102.638 Y196.692 E15.28802 ; skirt
G1 X102.406 Y195.250 E15.38559 ; skirt
G1 X102.406 Y64.750 E24.10370 ; skirt
G1 X102.789 Y62.941 E24.22724 ; skirt
G1 X103.337 Y63.000 F6000.000 ; move to first skirt point
G1 X104.445 Y61.590 E24.34707 F1800.000 ; skirt
G1 X106.052 Y60.794 E24.46689 ; skirt
G1 X107.013 Y60.679 E24.53152 ; skirt
G1 X116.513 Y60.679 E25.16617 ; skirt
G1 X118.262 Y61.074 E25.28600 ; skirt
G1 X119.371 Y61.850 E25.37639 ; skirt
G1 X146.084 Y88.177 E27.88200 ; skirt
G1 X147.157 Y90.019 E28.02440 ; skirt
G1 X156.918 Y126.277 E30.53289 ; skirt
G1 X157.058 Y127.335 E30.60421 ; skirt
G1 X157.058 Y137.988 E31.31586 ; skirt
G1 X156.791 Y139.439 E31.41443 ; skirt
G1 X147.030 Y165.028 E33.24406 ; skirt
G1 X146.338 Y166.202 E33.33508 ; skirt
G1 X119.625 Y197.875 E36.10310 ; skirt
G1 X118.195 Y198.957 E36.22292 ; skirt
G1 X116.513 Y199.321 E36.33790 ; skirt
G1 X107.013 Y199.321 E36.97255 ; skirt
G1 X105.263 Y198.926 E37.09237 ; skirt
G1 X103.853 Y197.818 E37.21219 ; skirt
G1 X103.057 Y196.211 E37.33202 ; skirt
G1 X102.942 Y195.250 E37.39665 ; skirt
G1 X102.942 Y64.750 E46.11476 ; skirt
G1 X103.323 Y63.059 E46.23057 ; skirt
G1 X103.872 Y63.127 F6000.000 ; move to first skirt point
G1 X104.967 Y61.867 E46.34213 F1800.000 ; skirt
G1 X107.013 Y61.214 E46.48560 ; skirt
G1 X116.513 Y61.214 E47.12026 ; skirt
G1 X118.136 Y61.609 E47.23181 ; skirt
G1 X118.995 Y62.232 E47.30271 ; skirt
G1 X145.708 Y88.559 E49.80832 ; skirt
G1 X146.640 Y90.158 E49.93198 ; skirt
G1 X156.401 Y126.416 E52.44047 ; skirt
G1 X156.523 Y127.335 E52.50241 ; skirt
G1 X156.523 Y137.988 E53.21406 ; skirt
G1 X156.291 Y139.248 E53.29966 ; skirt
G1 X146.530 Y164.837 E55.12929 ; skirt
G1 X145.929 Y165.856 E55.20834 ; skirt
G1 X119.216 Y197.529 E57.97636 ; skirt
G1 X117.868 Y198.516 E58.08792 ; skirt
G1 X116.513 Y198.786 E58.18023 ; skirt
G1 X107.013 Y198.786 E58.81488 ; skirt
G1 X105.390 Y198.391 E58.92643 ; skirt
G1 X104.130 Y197.296 E59.03799 ; skirt
G1 X103.477 Y195.250 E59.18147 ; skirt
G1 X103.477 Y64.750 E67.89957 ; skirt
G1 X103.857 Y63.186 E68.00712 ; skirt
G1 E66.00712 F4800.00000 ; retract
G92 E0 ; reset extrusion distance
G1 Z0.800 F6000.000 ; lift Z
G1 X128.327 Y164.536 F6000.000 ; move to first perimeter point
G1 Z0.300 F6000.000 ; restore layer Z
G1 E2.00000 F4800.00000 ; unretract
G1 X122.070 Y164.536 E2.41804 F1800.000 ; perimeter
G1 X122.070 Y94.778 E7.07822 ; perimeter
G1 X128.327 Y94.778 E7.49625 ; perimeter
G1 X128.327 Y164.476 E12.15242 ; perimeter
G1 X128.863 Y165.071 F6000.000 ; move to first perimeter point
G1 X121.534 Y165.071 E12.64203 F1800.000 ; perimeter
G1 X121.534 Y94.242 E17.37377 ; perimeter
G1 X128.863 Y94.242 E17.86337 ; perimeter
G1 X128.863 Y165.011 E22.59111 ; perimeter
G1 X129.399 Y165.607 F6000.000 ; move to first perimeter point
G1 X120.999 Y165.607 E23.15227 F1800.000 ; perimeter
G1 X120.999 Y93.707 E27.95558 ; perimeter
G1 X129.399 Y93.707 E28.51675 ; perimeter
G1 X129.399 Y165.547 E33.31605 ; perimeter
G1 X129.052 Y165.407 F6000.000 ; move inwards before travel
G1 X122.659 Y164.214 F6000.000 ; move to first infill point
G1 X122.391 Y163.947 E33.34154 F1800.000 ; infill
G1 X122.391 Y163.182 E33.39313 ; infill
G1 X123.424 Y164.214 E33.49159 ; infill
G1 X124.188 Y164.214 E33.54319 ; infill
G1 X122.391 Y162.417 E33.71462 ; infill
G1 X122.391 Y161.652 E33.76622 ; infill
G1 X124.953 Y164.214 E34.01062 ; infill
G1 X125.718 Y164.214 E34.06222 ; infill
G1 X122.391 Y160.887 E34.37959 ; infill
G1 X122.391 Y160.122 E34.43119 ; infill
G1 X126.483 Y164.214 E34.82154 ; infill
G1 X127.248 Y164.214 E34.87314 ; infill
G1 X122.391 Y159.357 E35.33645 ; infill
G1 X122.391 Y158.593 E35.38805 ; infill
G1 X127.989 Y164.190 E35.92209 ; infill
G1 X128.006 Y163.442 E35.97259 ; infill
G1 X122.391 Y157.828 E36.50819 ; infill
G1 X122.391 Y157.063 E36.55979 ; infill
G1 X128.006 Y162.677 E37.09540 ; infill
G1 X128.006 Y161.912 E37.14700 ; infill
G1 X122.391 Y156.298 E37.68260 ; infill
G1 X122.391 Y155.533 E37.73420 ; infill
G1 X128.006 Y161.147 E38.26981 ; infill
G1 X128.006 Y160.382 E38.32140 ; infill
G1 X122.391 Y154.768 E38.85701 ; infill
G1 X122.391 Y154.003 E38.90861 ; infill
G1 X128.006 Y159.617 E39.44421 ; infill
G1 X128.006 Y158.853 E39.49581 ; infill
G1 X122.391 Y153.238 E40.03142 ; infill
G1 X122.391 Y152.473 E40.08302 ; infill
G1 X128.006 Y158.088 E40.61862 ; infill
G1 X128.006 Y157.323 E40.67022 ; infill
G1 X122.391 Y151.709 E41.20583 ; infill
G1 X122.391 Y150.944 E41.25742 ; infill
G1 X128.006 Y156.558 E41.79303 ; infill
G1 X128.006 Y155.793 E41.84463 ; infill
G1 X122.391 Y150.179 E42.38023 ; infill
G1 X122.391 Y149.414 E42.43183 ; infill
G1 X128.006 Y155.028 E42.96744 ; infill
G1 X128.006 Y154.263 E43.01904 ; infill
G1 X122.391 Y148.649 E43.55464 ; infill
G1 X122.391 Y147.884 E43.60624 ; infill
G1 X128.006 Y153.498 E44.14185 ; infill
G1 X128.006 Y152.734 E44.19344 ; infill
G1 X122.391 Y147.119 E44.72905 ; infill
G1 X122.391 Y146.354 E44.78065 ; infill
G1 X128.006 Y151.969 E45.31625 ; infill
G1 X128.006 Y151.204 E45.36785 ; infill
G1 X122.391 Y145.589 E45.90346 ; infill
G1 X122.391 Y144.825 E45.95506 ; infill
G1 X128.006 Y150.439 E46.49066 ; infill
G1 X128.006 Y149.674 E46.54226 ; infill
G1 X122.391 Y144.060 E47.07787 ; infill
G1 X122.391 Y143.295 E47.12946 ; infill
G1 X128.006 Y148.909 E47.66507 ; infill
G1 X128.006 Y148.144 E47.71667 ; infill
G1 X122.391 Y142.530 E48.25227 ; infill
G1 X122.391 Y141.765 E48.30387 ; infill
G1 X128.006 Y147.379 E48.83948 ; infill
G1 X128.006 Y146.614 E48.89108 ; infill
G1 X122.391 Y141.000 E49.42668 ; infill
G1 X122.391 Y140.235 E49.47828 ; infill
G1 X128.006 Y145.850 E50.01389 ; infill
G1 X128.006 Y145.085 E50.06548 ; infill
G1 X122.391 Y139.470 E50.60109 ; infill
G1 X122.391 Y138.705 E50.65269 ; infill
G1 X128.006 Y144.320 E51.18829 ; infill
G1 X128.006 Y143.555 E51.23989 ; infill
G1 X122.391 Y137.941 E51.77550 ; infill
G1 X122.391 Y137.176 E51.82710 ; infill
G1 X128.006 Y142.790 E52.36270 ; infill
G1 X128.006 Y142.025 E52.41430 ; infill
G1 X122.391 Y136.411 E52.94990 ; infill
G1 X122.391 Y135.646 E53.00150 ; infill
G1 X128.006 Y141.260 E53.53711 ; infill
G1 X128.006 Y140.495 E53.58871 ; infill
G1 X122.391 Y134.881 E54.12431 ; infill
G1 X122.391 Y134.116 E54.17591 ; infill
G1 X128.006 Y139.730 E54.71152 ; infill
G1 X128.006 Y138.966 E54.76311 ; infill
G1 X122.391 Y133.351 E55.29872 ; infill
G1 X122.391 Y132.586 E55.35032 ; infill
G1 X128.006 Y138.201 E55.88592 ; infill
G1 X128.006 Y137.436 E55.93752 ; infill
G1 X122.391 Y131.822 E56.47313 ; infill
G1 X122.391 Y131.057 E56.52473 ; infill
G1 X128.006 Y136.671 E57.06033 ; infill
G1 X128.006 Y135.906 E57.11193 ; infill
G1 X122.391 Y130.292 E57.64754 ; infill
G1 X122.391 Y129.527 E57.69913 ; infill
G1 X128.006 Y135.141 E58.23474 ; infill
G1 X128.006 Y134.376 E58.28634 ; infill
G1 X122.391 Y128.762 E58.82194 ; infill
G1 X122.391 Y127.997 E58.87354 ; infill
G1 X128.006 Y133.611 E59.40915 ; infill
G1 X128.006 Y132.846 E59.46075 ; infill
G1 X122.391 Y127.232 E59.99635 ; infill
G1 X122.391 Y126.467 E60.04795 ; infill
G1 X128.006 Y132.082 E60.58356 ; infill
G1 X128.006 Y131.317 E60.63515 ; infill
G1 X122.391 Y125.702 E61.17076 ; infill
G1 X122.391 Y124.938 E61.22236 ; infill
G1 X128.006 Y130.552 E61.75796 ; infill
G1 X128.006 Y129.787 E61.80956 ; infill
G1 X122.391 Y124.173 E62.34517 ; infill
G1 X122.391 Y123.408 E62.39677 ; infill
G1 X128.006 Y129.022 E62.93237 ; infill
G1 X128.006 Y128.257 E62.98397 ; infill
G1 X122.391 Y122.643 E63.51958 ; infill
G1 X122.391 Y121.878 E63.57117 ; infill
G1 X128.006 Y127.492 E64.10678 ; infill
G1 X128.006 Y126.727 E64.15838 ; infill
G1 X122.391 Y121.113 E64.69398 ; infill
G1 X122.391 Y120.348 E64.74558 ; infill
G1 X128.006 Y125.962 E65.28119 ; infill
G1 X128.006 Y125.198 E65.33279 ; infill
G1 X122.391 Y119.583 E65.86839 ; infill
G1 X122.391 Y118.818 E65.91999 ; infill
G1 X128.006 Y124.433 E66.45560 ; infill
G1 X128.006 Y123.668 E66.50719 ; infill
G1 X122.391 Y118.054 E67.04280 ; infill
G1 X122.391 Y117.289 E67.09440 ; infill
G1 X128.006 Y122.903 E67.63000 ; infill
G1 X128.006 Y122.138 E67.68160 ; infill
G1 X122.391 Y116.524 E68.21721 ; infill
G1 X122.391 Y115.759 E68.26881 ; infill
G1 X128.006 Y121.373 E68.80441 ; infill
G1 X128.006 Y120.608 E68.85601 ; infill
G1 X122.391 Y114.994 E69.39161 ; infill
G1 X122.391 Y114.229 E69.44321 ; infill
G1 X128.006 Y119.843 E69.97882 ; infill
G1 X128.006 Y119.078 E70.03042 ; infill
G1 X122.391 Y113.464 E70.56602 ; infill
G1 X122.391 Y112.699 E70.61762 ; infill
G1 X128.006 Y118.314 E71.15323 ; infill
G1 X128.006 Y117.549 E71.20482 ; infill
G1 X122.391 Y111.934 E71.74043 ; infill
G1 X122.391 Y111.170 E71.79203 ; infill
G1 X128.006 Y116.784 E72.32763 ; infill
G1 X128.006 Y116.019 E72.37923 ; infill
G1 X122.391 Y110.405 E72.91484 ; infill
G1 X122.391 Y109.640 E72.96644 ; infill
G1 X128.006 Y115.254 E73.50204 ; infill
G1 X128.006 Y114.489 E73.55364 ; infill
G1 X122.391 Y108.875 E74.08925 ; infill
G1 X122.391 Y108.110 E74.14084 ; infill
G1 X128.006 Y113.724 E74.67645 ; infill
G1 X128.006 Y112.959 E74.72805 ; infill
G1 X122.391 Y107.345 E75.26365 ; infill
G1 X122.391 Y106.580 E75.31525 ; infill
G1 X128.006 Y112.194 E75.85086 ; infill
G1 X128.006 Y111.430 E75.90246 ; infill
G1 X122.391 Y105.815 E76.43806 ; infill
G1 X122.391 Y105.050 E76.48966 ; infill
G1 X128.006 Y110.665 E77.02527 ; infill
G1 X128.006 Y109.900 E77.07686 ; infill
G1 X122.391 Y104.286 E77.61247 ; infill
G1 X122.391 Y103.521 E77.66407 ; infill
G1 X128.006 Y109.135 E78.19967 ; infill
G1 X128.006 Y108.370 E78.25127 ; infill
G1 X122.391 Y102.756 E78.78688 ; infill
G1 X122.391 Y101.991 E78.83848 ; infill
G1 X128.006 Y107.605 E79.37408 ; infill
G1 X128.006 Y106.840 E79.42568 ; infill
G1 X122.391 Y101.226 E79.96128 ; infill
G1 X122.391 Y100.461 E80.01288 ; infill
G1 X128.006 Y106.075 E80.54849 ; infill
G1 X128.006 Y105.310 E80.60009 ; infill
G1 X122.391 Y99.696 E81.13569 ; infill
G1 X122.391 Y98.931 E81.18729 ; infill
G1 X128.006 Y104.546 E81.72290 ; infill
G1 X128.006 Y103.781 E81.77449 ; infill
G1 X122.391 Y98.166 E82.31010 ; infill
G1 X122.391 Y97.402 E82.36170 ; infill
G1 X128.006 Y103.016 E82.89730 ; infill
G1 X128.006 Y102.251 E82.94890 ; infill
G1 X122.391 Y96.637 E83.48451 ; infill
G1 X122.391 Y95.872 E83.53611 ; infill
G1 X128.006 Y101.486 E84.07171 ; infill
G1 X128.006 Y100.721 E84.12331 ; infill
G1 X122.408 Y95.123 E84.65735 ; infill
G1 X123.149 Y95.100 E84.70738 ; infill
G1 X128.006 Y99.956 E85.17070 ; infill
G1 X128.006 Y99.191 E85.22230 ; infill
G1 X123.914 Y95.100 E85.61265 ; infill
G1 X124.679 Y95.100 E85.66425 ; infill
G1 X128.006 Y98.426 E85.98163 ; infill
G1 X128.006 Y97.662 E86.03323 ; infill
G1 X125.444 Y95.100 E86.27764 ; infill
G1 X126.209 Y95.100 E86.32924 ; infill
G1 X128.006 Y96.897 E86.50067 ; infill
G1 X128.006 Y96.132 E86.55227 ; infill
G1 X126.974 Y95.100 E86.65074 ; infill
G1 X127.738 Y95.100 E86.70234 ; infill
G1 X128.006 Y95.367 E86.72783 ; infill
G1 E84.72783 F4800.00000 ; retract
G92 E0 ; reset extrusion distance
G1 Z0.800 F6000.000 ; lift Z
G1 Z0.300 F6000.000 ; move to next layer (1)
G1 Z0.800 F6000.000 ; lift Z
G1 X146.109 Y128.727 F6000.000 ; move to first perimeter point
G1 Z0.300 F6000.000 ; restore layer Z
G1 E2.00000 F4800.00000 ; unretract
G1 X146.849 Y128.440 E2.05303 F1800.000 ; perimeter
G1 X147.629 Y128.294 E2.10605 ; perimeter
G1 X148.423 Y128.294 E2.15908 ; perimeter
G1 X149.203 Y128.440 E2.21211 ; perimeter
G1 X149.943 Y128.727 E2.26513 ; perimeter
G1 X150.618 Y129.144 E2.31816 ; perimeter
G1 X151.205 Y129.679 E2.37119 ; perimeter
G1 X151.683 Y130.313 E2.42421 ; perimeter
G1 X152.037 Y131.023 E2.47724 ; perimeter
G1 X152.254 Y131.787 E2.53026 ; perimeter
G1 X152.327 Y132.577 E2.58329 ; perimeter
G1 X152.254 Y133.367 E2.63632 ; perimeter
G1 X152.037 Y134.131 E2.68934 ; perimeter
G1 X151.683 Y134.841 E2.74237 ; perimeter
G1 X151.205 Y135.475 E2.79540 ; perimeter
G1 X150.618 Y136.009 E2.84842 ; perimeter
G1 X149.943 Y136.427 E2.90145 ; perimeter
G1 X149.203 Y136.714 E2.95448 ; perimeter
G1 X148.423 Y136.860 E3.00750 ; perimeter
G1 X147.629 Y136.860 E3.06053 ; perimeter
G1 X146.849 Y136.714 E3.11356 ; perimeter
G1 X146.109 Y136.427 E3.16658 ; perimeter
G1 X145.434 Y136.009 E3.21961 ; perimeter
G1 X144.847 Y135.475 E3.27264 ; perimeter
G1 X144.369 Y134.841 E3.32566 ; perimeter
G1 X144.015 Y134.131 E3.37869 ; perimeter
G1 X143.798 Y133.367 E3.43171 ; perimeter
G1 X143.730 Y132.635 E3.48087 ; perimeter
G1 X143.798 Y131.788 E3.53758 ; perimeter
G1 X144.015 Y131.023 E3.59074 ; perimeter
G1 X144.369 Y130.313 E3.64376 ; perimeter
G1 X144.847 Y129.679 E3.69679 ; perimeter
G1 X145.434 Y129.144 E3.74981 ; perimeter
G1 X146.058 Y128.758 E3.79883 ; perimeter
G1 X146.146 Y128.328 F6000.000 ; move inwards before travel
G1 E1.79883 F4800.00000 ; retract
G92 E0 ; reset extrusion distance
G1 Z0.800 F6000.000 ; lift Z
G1 X150.440 Y128.404 F6000.000 ; move to first perimeter point
G1 Z0.300 F6000.000 ; restore layer Z
G1 E2.00000 F4800.00000 ; unretract
G1 X150.507 Y128.171 E2.01621 F1800.000 ; perimeter
G1 X152.152 Y128.171 E2.12608 ; perimeter
G1 X152.152 Y129.680 E2.22691 ; perimeter
G1 X151.932 Y129.754 E2.24236 ; perimeter
G1 X151.602 Y129.317 E2.27893 ; perimeter
G1 X150.942 Y128.715 E2.33858 ; perimeter
G1 X150.491 Y128.436 E2.37402 ; perimeter
G1 E0.37402 F4800.00000 ; retract
G92 E0 ; reset extrusion distance
G1 Z0.800 F6000.000 ; lift Z
G1 X152.152 Y135.474 F6000.000 ; move to first perimeter point
G1 Z0.300 F6000.000 ; restore layer Z
G1 E2.00000 F4800.00000 ; unretract
G1 X152.152 Y137.152 E2.11214 F1800.000 ; perimeter
G1 X150.233 Y137.152 E2.24029 ; perimeter
G1 X150.167 Y136.919 E2.25651 ; perimeter
G1 X150.942 Y136.439 E2.31745 ; perimeter
G1 X151.602 Y135.837 E2.37711 ; perimeter
G1 X151.932 Y135.400 E2.41368 ; perimeter
G1 X152.095 Y135.455 E2.42512 ; perimeter
G1 E0.42512 F4800.00000 ; retract
G92 E0 ; reset extrusion distance
G1 Z0.800 F6000.000 ; lift Z
G1 X141.855 Y136.617 F6000.000 ; move to first perimeter point
G1 Z0.300 F6000.000 ; restore layer Z
G1 E2.00000 F4800.00000 ; unretract
G1 X141.855 Y162.206 E3.70948 F1800.000 ; perimeter
