; generated by Slic3r 1.2.9 on 2018-10-10 at 15:19:48

; external perimeters extrusion width = 0.30mm
; perimeters extrusion width = 0.30mm
; infill extrusion width = 0.60mm
; solid infill extrusion width = 0.60mm
; top infill extrusion width = 0.45mm

M107 ; disable fan
M190 S55 ; set bed temperature
M104 S195 ; set temperature
G28 ; home all axes
G1 Z5 F5000 ; lift nozzle

M109 S195 ; wait for temperature to be reached
G21 ; set units to millimeters
G90 ; use absolute coordinates
M82 ; use absolute distances for extrusion
G92 E0 ; reset extrusion distance
G1 E-2.00000 F4800.00000 ; retract
G92 E0 ; reset extrusion distance
G1 Z0.500 F6000.000 ; lift Z
G1 X107.908 Y122.229 F6000.000 ; move to first skirt point
G1 Z0.300 F6000.000 ; restore layer Z
G1 E2.00000 F4800.00000 ; unretract
G1 X109.558 Y121.268 E2.12755 F1800.000 ; skirt
G1 X111.000 Y121.037 E2.22512 ; skirt
G1 X198.501 Y121.037 E8.07069 ; skirt
G1 X198.815 Y121.047 E8.09165 ; skirt
G1 X199.807 Y121.216 E8.15889 ; skirt
G1 X200.255 Y121.365 E8.19039 ; skirt
G1 X201.701 Y122.221 E8.30269 ; skirt
G1 X201.812 Y122.317 E8.31248 ; skirt
G1 X202.682 Y123.336 E8.40195 ; skirt
G1 X203.187 Y124.398 E8.48051 ; skirt
G1 X203.423 Y125.390 E8.54867 ; skirt
G1 X203.463 Y126.000 E8.58950 ; skirt
G1 X203.463 Y184.000 E12.46421 ; skirt
G1 X203.423 Y184.610 E12.50505 ; skirt
G1 X203.230 Y185.470 E12.56395 ; skirt
G1 X203.187 Y185.603 E12.57325 ; skirt
G1 X202.681 Y186.665 E12.65187 ; skirt
G1 X201.812 Y187.682 E12.74126 ; skirt
G1 X201.701 Y187.779 E12.75108 ; skirt
G1 X200.255 Y188.635 E12.86337 ; skirt
G1 X199.803 Y188.786 E12.89513 ; skirt
G1 X198.815 Y188.953 E12.96213 ; skirt
G1 X198.501 Y188.963 E12.98306 ; skirt
G1 X111.000 Y188.963 E18.82863 ; skirt
G1 X109.132 Y188.567 E18.95619 ; skirt
G1 X107.585 Y187.448 E19.08374 ; skirt
G1 X106.625 Y185.798 E19.21129 ; skirt
G1 X106.393 Y184.356 E19.30886 ; skirt
G1 X106.393 Y125.644 E23.23118 ; skirt
G1 X106.789 Y123.776 E23.35873 ; skirt
G1 X107.873 Y122.277 E23.48227 ; skirt
G1 X108.432 Y122.484 F6000.000 ; move to first skirt point
G1 X110.039 Y121.687 E23.60210 F1800.000 ; skirt
G1 X111.000 Y121.572 E23.66673 ; skirt
G1 X198.501 Y121.572 E29.51230 ; skirt
G1 X198.784 Y121.582 E29.53116 ; skirt
G1 X199.661 Y121.731 E29.59059 ; skirt
G1 X200.070 Y121.868 E29.61946 ; skirt
G1 X201.349 Y122.625 E29.71870 ; skirt
G1 X201.459 Y122.721 E29.72849 ; skirt
G1 X202.228 Y123.621 E29.80756 ; skirt
G1 X202.678 Y124.564 E29.87739 ; skirt
G1 X202.892 Y125.457 E29.93870 ; skirt
G1 X202.928 Y126.000 E29.97507 ; skirt
G1 X202.928 Y184.000 E33.84978 ; skirt
G1 X202.892 Y184.543 E33.88616 ; skirt
G1 X202.721 Y185.304 E33.93821 ; skirt
G1 X202.678 Y185.436 E33.94751 ; skirt
G1 X202.228 Y186.380 E34.01738 ; skirt
G1 X201.459 Y187.279 E34.09638 ; skirt
G1 X201.349 Y187.376 E34.10619 ; skirt
G1 X200.070 Y188.132 E34.20543 ; skirt
G1 X199.657 Y188.270 E34.23453 ; skirt
G1 X198.783 Y188.418 E34.29374 ; skirt
G1 X198.501 Y188.428 E34.31258 ; skirt
G1 X111.000 Y188.428 E40.15815 ; skirt
G1 X109.250 Y188.032 E40.27798 ; skirt
G1 X107.840 Y186.924 E40.39780 ; skirt
G1 X107.044 Y185.317 E40.51762 ; skirt
G1 X106.929 Y184.356 E40.58225 ; skirt
G1 X106.929 Y125.644 E44.50457 ; skirt
G1 X107.324 Y123.894 E44.62439 ; skirt
G1 X108.395 Y122.531 E44.74021 ; skirt
G1 X108.954 Y122.760 F6000.000 ; move to first skirt point
G1 X111.000 Y122.108 E44.88368 F1800.000 ; skirt
G1 X198.501 Y122.108 E50.72926 ; skirt
G1 X198.752 Y122.117 E50.74602 ; skirt
G1 X199.514 Y122.246 E50.79763 ; skirt
G1 X199.886 Y122.371 E50.82387 ; skirt
G1 X200.997 Y123.028 E50.91006 ; skirt
G1 X201.107 Y123.124 E50.91984 ; skirt
G1 X201.802 Y123.949 E50.99192 ; skirt
G1 X202.169 Y124.731 E51.04959 ; skirt
G1 X202.212 Y124.863 E51.05887 ; skirt
G1 X202.360 Y125.523 E51.10409 ; skirt
G1 X202.392 Y126.000 E51.13600 ; skirt
G1 X202.392 Y184.000 E55.01071 ; skirt
G1 X202.360 Y184.477 E55.04263 ; skirt
G1 X202.212 Y185.137 E55.08784 ; skirt
G1 X202.169 Y185.269 E55.09713 ; skirt
G1 X201.774 Y186.095 E55.15826 ; skirt
G1 X201.107 Y186.876 E55.22687 ; skirt
G1 X200.996 Y186.972 E55.23668 ; skirt
G1 X199.886 Y187.629 E55.32286 ; skirt
G1 X199.511 Y187.755 E55.34930 ; skirt
G1 X198.752 Y187.883 E55.40072 ; skirt
G1 X198.501 Y187.892 E55.41747 ; skirt
G1 X111.000 Y187.892 E61.26304 ; skirt
G1 X109.377 Y187.498 E61.37460 ; skirt
G1 X108.117 Y186.402 E61.48616 ; skirt
G1 X107.464 Y184.356 E61.62963 ; skirt
G1 X107.464 Y125.644 E65.55195 ; skirt
G1 X107.859 Y124.021 E65.66351 ; skirt
G1 X108.914 Y122.806 E65.77106 ; skirt
G1 E63.77106 F4800.00000 ; retract
G92 E0 ; reset extrusion distance
G1 Z0.800 F6000.000 ; lift Z
G1 X192.407 Y178.051 F6000.000 ; move to first perimeter point
G1 Z0.300 F6000.000 ; restore layer Z
G1 E2.00000 F4800.00000 ; unretract
G1 X117.450 Y178.050 E7.00755 F1800.000 ; perimeter
G1 X117.449 Y132.093 E10.07774 ; perimeter
G1 X192.407 Y132.093 E15.08530 ; perimeter
G1 X192.407 Y177.991 E18.15150 ; perimeter
G1 X191.871 Y177.515 F6000.000 ; move to first perimeter point
G1 X117.985 Y177.515 E23.08748 F1800.000 ; perimeter
G1 X117.985 Y132.629 E26.08611 ; perimeter
G1 X191.871 Y132.629 E31.02210 ; perimeter
G1 X191.871 Y177.455 E34.01673 ; perimeter
G1 X191.336 Y176.979 F6000.000 ; move to first perimeter point
G1 X118.521 Y176.979 E38.88115 F1800.000 ; perimeter
G1 X118.521 Y133.164 E41.80821 ; perimeter
G1 X191.336 Y133.164 E46.67265 ; perimeter
G1 X191.336 Y176.919 E49.59571 ; perimeter
G1 X190.800 Y176.444 F6000.000 ; move to first perimeter point
G1 X119.056 Y176.444 E54.38857 F1800.000 ; perimeter
G1 X119.056 Y133.700 E57.24407 ; perimeter
G1 X190.800 Y133.700 E62.03693 ; perimeter
G1 X190.800 Y176.384 E64.88844 ; perimeter
G1 X190.800 Y176.844 F6000.000 ; move inwards before travel
G1 X196.949 Y182.449 F6000.000 ; move to first perimeter point
G1 X112.907 Y182.449 E70.50293 F1800.000 ; perimeter
G1 X112.907 Y127.551 E74.17047 ; perimeter
G1 X196.949 Y127.553 E79.78497 ; perimeter
G1 X196.949 Y182.389 E83.44834 ; perimeter
G1 X197.485 Y182.985 F6000.000 ; move to first perimeter point
G1 X112.371 Y182.985 E89.13440 F1800.000 ; perimeter
G1 X112.371 Y127.015 E92.87351 ; perimeter
G1 X197.485 Y127.017 E98.55957 ; perimeter
G1 X197.485 Y182.925 E102.29450 ; perimeter
G1 X198.021 Y183.521 F6000.000 ; move to first perimeter point
G1 X111.836 Y183.521 E108.05213 F1800.000 ; perimeter
G1 X111.836 Y126.479 E111.86280 ; perimeter
G1 X198.021 Y126.482 E117.62043 ; perimeter
G1 X198.021 Y183.461 E121.42692 ; perimeter
G1 X198.556 Y184.056 F6000.000 ; move to first perimeter point
G1 X111.300 Y184.056 E127.25611 F1800.000 ; perimeter
G1 X111.300 Y125.944 E131.13835 ; perimeter
G1 X198.556 Y125.946 E136.96754 ; perimeter
G1 X198.556 Y183.996 E140.84560 ; perimeter
G1 X198.210 Y183.856 F6000.000 ; move inwards before travel
G1 X192.728 Y132.576 F6000.000 ; move to first infill point
G1 X196.628 Y136.475 E141.21403 F1800.000 ; infill
G1 X196.628 Y137.233 E141.26465 ; infill
G1 X192.728 Y133.333 E141.63308 ; infill
G1 X192.728 Y134.091 E141.68369 ; infill
G1 X196.628 Y137.990 E142.05213 ; infill
G1 X196.628 Y138.748 E142.10274 ; infill
G1 X192.728 Y134.848 E142.47118 ; infill
G1 X192.728 Y135.606 E142.52179 ; infill
G1 X196.628 Y139.505 E142.89023 ; infill
G1 X196.628 Y140.263 E142.94084 ; infill
G1 X192.728 Y136.364 E143.30927 ; infill
G1 X192.728 Y137.121 E143.35989 ; infill
G1 X196.628 Y141.020 E143.72832 ; infill
G1 X196.628 Y141.778 E143.77894 ; infill
G1 X192.728 Y137.879 E144.14737 ; infill
G1 X192.728 Y138.636 E144.19799 ; infill
G1 X196.628 Y142.536 E144.56642 ; infill
G1 X196.628 Y143.293 E144.61703 ; infill
G1 X192.728 Y139.394 E144.98547 ; infill
G1 X192.728 Y140.151 E145.03608 ; infill
G1 X196.628 Y144.051 E145.40452 ; infill
G1 X196.628 Y144.808 E145.45513 ; infill
G1 X192.728 Y140.909 E145.82356 ; infill
G1 X192.728 Y141.666 E145.87418 ; infill
G1 X196.628 Y145.566 E146.24261 ; infill
G1 X196.628 Y146.323 E146.29323 ; infill
G1 X192.728 Y142.424 E146.66166 ; infill
G1 X192.728 Y143.182 E146.71228 ; infill
G1 X196.628 Y147.081 E147.08071 ; infill
G1 X196.628 Y147.838 E147.13132 ; infill
G1 X192.728 Y143.939 E147.49976 ; infill
G1 X192.728 Y144.697 E147.55037 ; infill
G1 X196.628 Y148.596 E147.91881 ; infill
G1 X196.628 Y149.354 E147.96942 ; infill
G1 X192.728 Y145.454 E148.33786 ; infill
G1 X192.728 Y146.212 E148.38847 ; infill
G1 X196.628 Y150.111 E148.75690 ; infill
G1 X196.628 Y150.869 E148.80752 ; infill
G1 X192.728 Y146.969 E149.17595 ; infill
G1 X192.728 Y147.727 E149.22657 ; infill
G1 X196.628 Y151.626 E149.59500 ; infill
G1 X196.628 Y152.384 E149.64562 ; infill
G1 X192.728 Y148.484 E150.01405 ; infill
G1 X192.728 Y149.242 E150.06466 ; infill
G1 X196.628 Y153.141 E150.43310 ; infill
G1 X196.628 Y153.899 E150.48371 ; infill
G1 X192.728 Y150.000 E150.85215 ; infill
G1 X192.728 Y150.757 E150.90276 ; infill
G1 X196.628 Y154.656 E151.27120 ; infill
G1 X196.628 Y155.414 E151.32181 ; infill
G1 X192.728 Y151.515 E151.69024 ; infill
G1 X192.728 Y152.272 E151.74086 ; infill
G1 X196.628 Y156.172 E152.10929 ; infill
G1 X196.628 Y156.929 E152.15991 ; infill
G1 X192.728 Y153.030 E152.52834 ; infill
G1 X192.728 Y153.787 E152.57896 ; infill
G1 X196.628 Y157.687 E152.94739 ; infill
G1 X196.628 Y158.444 E152.99800 ; infill
G1 X192.728 Y154.545 E153.36644 ; infill
G1 X192.728 Y155.303 E153.41705 ; infill
G1 X196.628 Y159.202 E153.78549 ; infill
G1 X196.628 Y159.959 E153.83610 ; infill
G1 X192.728 Y156.060 E154.20454 ; infill
G1 X192.728 Y156.818 E154.25515 ; infill
G1 X196.628 Y160.717 E154.62358 ; infill
G1 X196.628 Y161.475 E154.67420 ; infill
G1 X192.728 Y157.575 E155.04263 ; infill
G1 X192.728 Y158.333 E155.09325 ; infill
G1 X196.628 Y162.232 E155.46168 ; infill
G1 X196.628 Y162.990 E155.51230 ; infill
G1 X192.728 Y159.090 E155.88073 ; infill
G1 X192.728 Y159.848 E155.93134 ; infill
G1 X196.628 Y163.747 E156.29978 ; infill
G1 X196.628 Y164.505 E156.35039 ; infill
G1 X192.728 Y160.605 E156.71883 ; infill
G1 X192.728 Y161.363 E156.76944 ; infill
G1 X196.628 Y165.262 E157.13787 ; infill
G1 X196.628 Y166.020 E157.18849 ; infill
G1 X192.728 Y162.121 E157.55692 ; infill
G1 X192.728 Y162.878 E157.60754 ; infill
G1 X196.628 Y166.777 E157.97597 ; infill
G1 X196.628 Y167.535 E158.02659 ; infill
G1 X192.728 Y163.636 E158.39502 ; infill
G1 X192.728 Y164.393 E158.44563 ; infill
G1 X196.628 Y168.293 E158.81407 ; infill
G1 X196.628 Y169.050 E158.86468 ; infill
G1 X192.728 Y165.151 E159.23312 ; infill
G1 X192.728 Y165.908 E159.28373 ; infill
G1 X196.628 Y169.808 E159.65217 ; infill
G1 X196.628 Y170.565 E159.70278 ; infill
G1 X192.728 Y166.666 E160.07121 ; infill
G1 X192.728 Y167.423 E160.12183 ; infill
G1 X196.628 Y171.323 E160.49026 ; infill
G1 X196.628 Y172.080 E160.54088 ; infill
G1 X192.728 Y168.181 E160.90931 ; infill
G1 X192.728 Y168.939 E160.95993 ; infill
G1 X196.628 Y172.838 E161.32836 ; infill
G1 X196.628 Y173.595 E161.37897 ; infill
G1 X192.728 Y169.696 E161.74741 ; infill
G1 X192.728 Y170.454 E161.79802 ; infill
G1 X196.628 Y174.353 E162.16646 ; infill
G1 X196.628 Y175.111 E162.21707 ; infill
G1 X192.728 Y171.211 E162.58551 ; infill
G1 X192.728 Y171.969 E162.63612 ; infill
G1 X196.628 Y175.868 E163.00455 ; infill
G1 X196.628 Y176.626 E163.05517 ; infill
G1 X192.728 Y172.726 E163.42360 ; infill
G1 X192.728 Y173.484 E163.47422 ; infill
G1 X196.628 Y177.383 E163.84265 ; infill
G1 X196.628 Y178.141 E163.89327 ; infill
G1 X192.728 Y174.241 E164.26170 ; infill
G1 X192.728 Y174.999 E164.31231 ; infill
G1 X196.628 Y178.898 E164.68075 ; infill
G1 X196.628 Y179.656 E164.73136 ; infill
G1 X192.728 Y175.757 E165.09980 ; infill
G1 X192.728 Y176.514 E165.15041 ; infill
G1 X196.628 Y180.413 E165.51885 ; infill
G1 X196.628 Y181.171 E165.56946 ; infill
G1 X192.728 Y177.272 E165.93789 ; infill
G1 X192.728 Y178.029 E165.98851 ; infill
G1 X196.628 Y181.929 E166.35694 ; infill
G1 X196.069 Y182.128 E166.39655 ; infill
G1 X192.314 Y178.372 E166.75141 ; infill
G1 X191.556 Y178.372 E166.80202 ; infill
G1 X195.312 Y182.128 E167.15688 ; infill
G1 X194.554 Y182.128 E167.20749 ; infill
G1 X190.799 Y178.372 E167.56235 ; infill
G1 X190.041 Y178.372 E167.61296 ; infill
G1 X193.797 Y182.128 E167.96782 ; infill
G1 X193.039 Y182.128 E168.01843 ; infill
G1 X189.284 Y178.372 E168.37329 ; infill
G1 X188.526 Y178.372 E168.42391 ; infill
G1 X192.282 Y182.128 E168.77876 ; infill
G1 X191.524 Y182.128 E168.82938 ; infill
G1 X187.768 Y178.372 E169.18424 ; infill
G1 X187.011 Y178.372 E169.23485 ; infill
G1 X190.767 Y182.128 E169.58971 ; infill
G1 X190.009 Y182.128 E169.64032 ; infill
G1 X186.253 Y178.372 E169.99518 ; infill
G1 X185.496 Y178.372 E170.04579 ; infill
G1 X189.251 Y182.128 E170.40065 ; infill
G1 X188.494 Y182.128 E170.45127 ; infill
G1 X184.738 Y178.372 E170.80612 ; infill
G1 X183.981 Y178.372 E170.85674 ; infill
G1 X187.736 Y182.128 E171.21160 ; infill
G1 X186.979 Y182.128 E171.26221 ; infill
G1 X183.223 Y178.372 E171.61707 ; infill
G1 X182.466 Y178.372 E171.66769 ; infill
G1 X186.221 Y182.128 E172.02254 ; infill
G1 X185.464 Y182.128 E172.07316 ; infill
G1 X181.708 Y178.372 E172.42802 ; infill
G1 X180.950 Y178.372 E172.47863 ; infill
G1 X184.706 Y182.128 E172.83349 ; infill
G1 X183.949 Y182.128 E172.88410 ; infill
G1 X180.193 Y178.372 E173.23896 ; infill
G1 X179.435 Y178.372 E173.28958 ; infill
G1 X183.191 Y182.128 E173.64444 ; infill
G1 X182.433 Y182.128 E173.69505 ; infill
G1 X178.678 Y178.372 E174.04991 ; infill
G1 X177.920 Y178.372 E174.10053 ; infill
G1 X181.676 Y182.128 E174.45539 ; infill
G1 X180.918 Y182.128 E174.50600 ; infill
G1 X177.163 Y178.372 E174.86086 ; infill
G1 X176.405 Y178.372 E174.91147 ; infill
G1 X180.161 Y182.128 E175.26634 ; infill
G1 X179.403 Y182.128 E175.31695 ; infill
G1 X175.648 Y178.372 E175.67181 ; infill
G1 X174.890 Y178.372 E175.72242 ; infill
G1 X178.646 Y182.128 E176.07728 ; infill
G1 X177.888 Y182.128 E176.12790 ; infill
G1 X174.132 Y178.372 E176.48276 ; infill
G1 X173.375 Y178.372 E176.53337 ; infill
G1 X177.131 Y182.128 E176.88823 ; infill
G1 X176.373 Y182.128 E176.93885 ; infill
G1 X172.617 Y178.372 E177.29371 ; infill
G1 X171.860 Y178.372 E177.34432 ; infill
G1 X175.615 Y182.128 E177.69919 ; infill
G1 X174.858 Y182.128 E177.74980 ; infill
G1 X171.102 Y178.372 E178.10466 ; infill
G1 X170.345 Y178.372 E178.15528 ; infill
G1 X174.100 Y182.128 E178.51014 ; infill
G1 X173.343 Y182.128 E178.56075 ; infill
G1 X169.587 Y178.372 E178.91561 ; infill
G1 X168.829 Y178.372 E178.96623 ; infill
G1 X172.585 Y182.128 E179.32109 ; infill
G1 X171.828 Y182.128 E179.37170 ; infill
G1 X168.072 Y178.372 E179.72657 ; infill
G1 X167.314 Y178.372 E179.77718 ; infill
G1 X171.070 Y182.128 E180.13204 ; infill
G1 X170.312 Y182.128 E180.18266 ; infill
G1 X166.557 Y178.372 E180.53752 ; infill
G1 X165.799 Y178.372 E180.58813 ; infill
G1 X169.555 Y182.128 E180.94300 ; infill
G1 X168.797 Y182.128 E180.99361 ; infill
G1 X165.042 Y178.372 E181.34847 ; infill
G1 X164.284 Y178.372 E181.39909 ; infill
G1 X168.040 Y182.128 E181.75395 ; infill
G1 X167.282 Y182.128 E181.80456 ; infill
G1 X163.527 Y178.372 E182.15943 ; infill
G1 X162.769 Y178.372 E182.21004 ; infill
G1 X166.525 Y182.128 E182.56490 ; infill
G1 X165.767 Y182.128 E182.61552 ; infill
G1 X162.011 Y178.372 E182.97038 ; infill
G1 X161.254 Y178.372 E183.02100 ; infill
G1 X165.010 Y182.128 E183.37586 ; infill
G1 X164.252 Y182.128 E183.42647 ; infill
G1 X160.496 Y178.372 E183.78134 ; infill
G1 X159.739 Y178.372 E183.83195 ; infill
G1 X163.494 Y182.128 E184.18682 ; infill
G1 X162.737 Y182.128 E184.23743 ; infill
G1 X158.981 Y178.372 E184.59229 ; infill
G1 X158.224 Y178.372 E184.64291 ; infill
G1 X161.979 Y182.128 E184.99777 ; infill
