; generated by Slic3r 1.2.9 on 2018-10-22 at 21:56:17

; external perimeters extrusion width = 0.30mm
; perimeters extrusion width = 0.30mm
; infill extrusion width = 0.60mm
; solid infill extrusion width = 0.60mm
; top infill extrusion width = 0.45mm

M107 ; disable fan
M190 S60 ; set bed temperature
M104 S240 ; set temperature
G28 ; home all axes
G1 Z5 F5000 ; lift nozzle

M109 S240 ; wait for temperature to be reached
G21 ; set units to millimeters
G90 ; use absolute coordinates
M82 ; use absolute distances for extrusion
G92 E0 ; reset extrusion distance
G1 E-2.00000 F4800.00000 ; retract
G92 E0 ; reset extrusion distance
G1 Z0.500 F6000.000 ; lift Z
G1 X63.511 Y90.156 F6000.000 ; move to first skirt point
G1 Z0.300 F6000.000 ; restore layer Z
G1 E2.00000 F4800.00000 ; unretract
G1 X63.752 Y90.045 E2.01766 F1800.000 ; skirt
G1 X64.781 Y89.711 E2.08998 ; skirt
G1 X65.691 Y89.621 E2.15108 ; skirt
G1 X194.309 Y89.621 E10.74340 ; skirt
G1 X195.219 Y89.711 E10.80449 ; skirt
G1 X196.248 Y90.045 E10.87680 ; skirt
G1 X196.489 Y90.156 E10.89448 ; skirt
G1 X198.265 Y91.599 E11.04737 ; skirt
G1 X198.454 Y91.855 E11.06862 ; skirt
G1 X199.133 Y93.172 E11.16760 ; skirt
G1 X199.332 Y94.081 E11.22982 ; skirt
G1 X199.378 Y94.746 E11.27432 ; skirt
G1 X199.378 Y165.254 E15.98463 ; skirt
G1 X199.332 Y165.919 E16.02913 ; skirt
G1 X199.133 Y166.827 E16.09126 ; skirt
G1 X198.454 Y168.145 E16.19033 ; skirt
G1 X198.265 Y168.401 E16.21159 ; skirt
G1 X196.488 Y169.844 E16.36448 ; skirt
G1 X196.248 Y169.955 E16.38214 ; skirt
G1 X195.218 Y170.289 E16.45448 ; skirt
G1 X194.309 Y170.379 E16.51555 ; skirt
G1 X65.691 Y170.379 E25.10787 ; skirt
G1 X64.782 Y170.289 E25.16890 ; skirt
G1 X63.752 Y169.955 E25.24128 ; skirt
G1 X63.512 Y169.844 E25.25894 ; skirt
G1 X61.735 Y168.401 E25.41184 ; skirt
G1 X61.546 Y168.145 E25.43308 ; skirt
G1 X60.867 Y166.827 E25.53215 ; skirt
G1 X60.668 Y165.919 E25.59427 ; skirt
G1 X60.622 Y165.254 E25.63879 ; skirt
G1 X60.622 Y94.746 E30.34909 ; skirt
G1 X60.668 Y94.081 E30.39362 ; skirt
G1 X60.867 Y93.173 E30.45569 ; skirt
G1 X61.546 Y91.855 E30.55481 ; skirt
G1 X61.735 Y91.599 E30.57605 ; skirt
G1 X63.465 Y90.194 E30.72493 ; skirt
G1 X63.735 Y90.642 F6000.000 ; move to first skirt point
G1 X63.976 Y90.532 E30.74259 F1800.000 ; skirt
G1 X64.886 Y90.237 E30.80650 ; skirt
G1 X65.691 Y90.156 E30.86061 ; skirt
G1 X194.309 Y90.156 E39.45293 ; skirt
G1 X195.114 Y90.237 E39.50703 ; skirt
G1 X196.024 Y90.532 E39.57092 ; skirt
G1 X196.265 Y90.642 E39.58860 ; skirt
G1 X197.834 Y91.918 E39.72372 ; skirt
G1 X198.024 Y92.174 E39.74497 ; skirt
G1 X198.624 Y93.338 E39.83252 ; skirt
G1 X198.800 Y94.143 E39.88751 ; skirt
G1 X198.842 Y94.746 E39.92793 ; skirt
G1 X198.842 Y165.254 E44.63823 ; skirt
G1 X198.800 Y165.857 E44.67865 ; skirt
G1 X198.624 Y166.660 E44.73356 ; skirt
G1 X198.024 Y167.827 E44.82119 ; skirt
G1 X197.834 Y168.082 E44.84245 ; skirt
G1 X196.264 Y169.358 E44.97756 ; skirt
G1 X196.024 Y169.468 E44.99522 ; skirt
G1 X195.114 Y169.763 E45.05915 ; skirt
G1 X194.309 Y169.844 E45.11323 ; skirt
G1 X65.691 Y169.844 E53.70555 ; skirt
G1 X64.886 Y169.763 E53.75960 ; skirt
G1 X63.976 Y169.468 E53.82356 ; skirt
G1 X63.735 Y169.358 E53.84122 ; skirt
G1 X62.166 Y168.082 E53.97634 ; skirt
G1 X61.976 Y167.827 E53.99759 ; skirt
G1 X61.376 Y166.661 E54.08521 ; skirt
G1 X61.200 Y165.858 E54.14012 ; skirt
G1 X61.158 Y165.254 E54.18055 ; skirt
G1 X61.158 Y94.746 E58.89085 ; skirt
G1 X61.200 Y94.142 E58.93129 ; skirt
G1 X61.376 Y93.340 E58.98615 ; skirt
G1 X61.976 Y92.173 E59.07382 ; skirt
G1 X62.166 Y91.918 E59.09506 ; skirt
G1 X63.689 Y90.680 E59.22617 ; skirt
G1 X63.959 Y91.129 F6000.000 ; move to first skirt point
G1 X64.199 Y91.019 E59.24383 F1800.000 ; skirt
G1 X64.990 Y90.762 E59.29933 ; skirt
G1 X65.691 Y90.692 E59.34644 ; skirt
G1 X194.309 Y90.692 E67.93876 ; skirt
G1 X195.010 Y90.762 E67.98587 ; skirt
G1 X195.800 Y91.018 E68.04136 ; skirt
G1 X196.041 Y91.129 E68.05903 ; skirt
G1 X197.404 Y92.237 E68.17637 ; skirt
G1 X197.593 Y92.492 E68.19762 ; skirt
G1 X198.115 Y93.505 E68.27375 ; skirt
G1 X198.268 Y94.204 E68.32150 ; skirt
G1 X198.307 Y94.746 E68.35784 ; skirt
G1 X198.307 Y165.254 E73.06814 ; skirt
G1 X198.268 Y165.796 E73.10448 ; skirt
G1 X198.115 Y166.494 E73.15216 ; skirt
G1 X197.593 Y167.508 E73.22836 ; skirt
G1 X197.404 Y167.763 E73.24961 ; skirt
G1 X196.041 Y168.871 E73.36695 ; skirt
G1 X195.800 Y168.982 E73.38461 ; skirt
G1 X195.010 Y169.238 E73.44013 ; skirt
G1 X194.309 Y169.308 E73.48722 ; skirt
G1 X65.691 Y169.308 E82.07954 ; skirt
G1 X64.990 Y169.238 E82.12660 ; skirt
G1 X64.199 Y168.982 E82.18215 ; skirt
G1 X63.959 Y168.871 E82.19981 ; skirt
G1 X62.596 Y167.763 E82.31715 ; skirt
G1 X62.407 Y167.508 E82.33839 ; skirt
G1 X61.885 Y166.494 E82.41458 ; skirt
G1 X61.732 Y165.797 E82.46226 ; skirt
G1 X61.693 Y165.254 E82.49861 ; skirt
G1 X61.693 Y94.746 E87.20891 ; skirt
G1 X61.732 Y94.203 E87.24526 ; skirt
G1 X61.885 Y93.507 E87.29291 ; skirt
G1 X62.407 Y92.492 E87.36914 ; skirt
G1 X62.596 Y92.237 E87.39038 ; skirt
G1 X63.913 Y91.167 E87.50371 ; skirt
G1 E85.50371 F4800.00000 ; retract
G92 E0 ; reset extrusion distance
G1 Z0.800 F6000.000 ; lift Z
G1 X72.379 Y158.621 F6000.000 ; move to first perimeter point
G1 Z0.300 F6000.000 ; restore layer Z
G1 E2.00000 F4800.00000 ; unretract
G1 X72.379 Y101.379 E5.82411 F1800.000 ; perimeter
G1 X187.621 Y101.379 E13.52293 ; perimeter
G1 X187.621 Y158.621 E17.34703 ; perimeter
G1 X72.439 Y158.621 E25.04185 ; perimeter
G1 X72.914 Y158.086 F6000.000 ; move to first perimeter point
G1 X72.914 Y101.914 E28.79439 F1800.000 ; perimeter
G1 X187.086 Y101.914 E36.42165 ; perimeter
G1 X187.086 Y158.086 E40.17419 ; perimeter
G1 X72.974 Y158.086 E47.79744 ; perimeter
G1 X73.450 Y157.550 F6000.000 ; move to first perimeter point
G1 X73.450 Y102.450 E51.47842 F1800.000 ; perimeter
G1 X186.550 Y102.450 E59.03411 ; perimeter
G1 X186.550 Y157.550 E62.71509 ; perimeter
G1 X73.510 Y157.550 E70.26677 ; perimeter
G1 X73.050 Y157.550 F6000.000 ; move inwards before travel
G1 X66.600 Y164.401 F6000.000 ; move to first perimeter point
G1 X66.600 Y95.600 E74.86304 F1800.000 ; perimeter
G1 X193.400 Y95.599 E83.33395 ; perimeter
G1 X193.400 Y164.401 E87.93032 ; perimeter
G1 X66.660 Y164.401 E96.39722 ; perimeter
G1 X66.064 Y164.937 F6000.000 ; move to first perimeter point
G1 X66.064 Y95.065 E101.06505 F1800.000 ; perimeter
G1 X193.936 Y95.063 E109.60753 ; perimeter
G1 X193.936 Y164.937 E114.27547 ; perimeter
G1 X66.124 Y164.937 E122.81394 ; perimeter
G1 X65.536 Y165.288 F6000.000 ; move to first perimeter point
G1 X65.529 Y94.765 E127.52522 F1800.000 ; perimeter
G1 X65.536 Y94.712 E127.52880 ; perimeter
G1 X65.633 Y94.581 E127.53969 ; perimeter
G1 X65.746 Y94.529 E127.54801 ; perimeter
G1 X194.245 Y94.528 E136.13243 ; perimeter
G1 X194.368 Y94.583 E136.14147 ; perimeter
G1 X194.464 Y94.712 E136.15223 ; perimeter
G1 X194.471 Y165.235 E140.86351 ; perimeter
G1 X194.464 Y165.288 E140.86710 ; perimeter
G1 X194.368 Y165.417 E140.87786 ; perimeter
G1 X194.245 Y165.472 E140.88691 ; perimeter
G1 X65.755 Y165.472 E149.47070 ; perimeter
G1 X65.632 Y165.417 E149.47974 ; perimeter
G1 X65.571 Y165.336 E149.48650 ; perimeter
G1 X65.832 Y165.019 F6000.000 ; move inwards before travel
G1 X66.922 Y163.053 F6000.000 ; move to first infill point
G1 X67.949 Y164.080 E149.58384 F1800.000 ; infill
G1 X68.709 Y164.080 E149.63477 ; infill
G1 X66.922 Y162.293 E149.80414 ; infill
G1 X66.922 Y161.533 E149.85507 ; infill
G1 X69.469 Y164.080 E150.09646 ; infill
G1 X70.228 Y164.080 E150.14739 ; infill
G1 X66.922 Y160.773 E150.46082 ; infill
G1 X66.922 Y160.013 E150.51175 ; infill
G1 X70.988 Y164.080 E150.89720 ; infill
G1 X71.748 Y164.080 E150.94813 ; infill
G1 X66.922 Y159.253 E151.40561 ; infill
G1 X66.922 Y158.493 E151.45654 ; infill
G1 X72.508 Y164.080 E151.98605 ; infill
G1 X73.268 Y164.080 E152.03698 ; infill
G1 X66.922 Y157.733 E152.63851 ; infill
G1 X66.922 Y156.973 E152.68944 ; infill
G1 X74.028 Y164.080 E153.36300 ; infill
G1 X74.788 Y164.080 E153.41393 ; infill
G1 X66.922 Y156.213 E154.15952 ; infill
G1 X66.922 Y155.453 E154.21045 ; infill
G1 X75.548 Y164.080 E155.02807 ; infill
G1 X76.308 Y164.080 E155.07900 ; infill
G1 X66.922 Y154.693 E155.96864 ; infill
G1 X66.922 Y153.933 E156.01957 ; infill
G1 X77.068 Y164.080 E156.98125 ; infill
G1 X77.828 Y164.080 E157.03218 ; infill
G1 X72.691 Y158.943 E157.51904 ; infill
G1 X73.451 Y158.943 E157.56997 ; infill
G1 X78.588 Y164.080 E158.05684 ; infill
G1 X79.348 Y164.080 E158.10777 ; infill
G1 X74.211 Y158.943 E158.59463 ; infill
G1 X74.971 Y158.943 E158.64556 ; infill
G1 X80.108 Y164.080 E159.13243 ; infill
G1 X80.867 Y164.080 E159.18336 ; infill
G1 X75.731 Y158.943 E159.67022 ; infill
G1 X76.491 Y158.943 E159.72115 ; infill
G1 X81.627 Y164.080 E160.20802 ; infill
G1 X82.387 Y164.080 E160.25895 ; infill
G1 X77.251 Y158.943 E160.74581 ; infill
G1 X78.011 Y158.943 E160.79675 ; infill
G1 X83.147 Y164.080 E161.28361 ; infill
G1 X83.907 Y164.080 E161.33454 ; infill
G1 X78.771 Y158.943 E161.82141 ; infill
G1 X79.530 Y158.943 E161.87234 ; infill
G1 X84.667 Y164.080 E162.35920 ; infill
G1 X85.427 Y164.080 E162.41013 ; infill
G1 X80.290 Y158.943 E162.89700 ; infill
G1 X81.050 Y158.943 E162.94793 ; infill
G1 X86.187 Y164.080 E163.43479 ; infill
G1 X86.947 Y164.080 E163.48572 ; infill
G1 X81.810 Y158.943 E163.97259 ; infill
G1 X82.570 Y158.943 E164.02352 ; infill
G1 X87.707 Y164.080 E164.51038 ; infill
G1 X88.467 Y164.080 E164.56132 ; infill
G1 X83.330 Y158.943 E165.04818 ; infill
G1 X84.090 Y158.943 E165.09911 ; infill
G1 X89.227 Y164.080 E165.58598 ; infill
G1 X89.987 Y164.080 E165.63691 ; infill
G1 X84.850 Y158.943 E166.12377 ; infill
G1 X85.610 Y158.943 E166.17470 ; infill
G1 X90.747 Y164.080 E166.66157 ; infill
G1 X91.506 Y164.080 E166.71250 ; infill
G1 X86.370 Y158.943 E167.19936 ; infill
G1 X87.130 Y158.943 E167.25029 ; infill
G1 X92.266 Y164.080 E167.73716 ; infill
G1 X93.026 Y164.080 E167.78809 ; infill
G1 X87.890 Y158.943 E168.27495 ; infill
G1 X88.650 Y158.943 E168.32588 ; infill
G1 X93.786 Y164.080 E168.81275 ; infill
G1 X94.546 Y164.080 E168.86368 ; infill
G1 X89.409 Y158.943 E169.35054 ; infill
G1 X90.169 Y158.943 E169.40148 ; infill
G1 X95.306 Y164.080 E169.88834 ; infill
G1 X96.066 Y164.080 E169.93927 ; infill
G1 X90.929 Y158.943 E170.42614 ; infill
G1 X91.689 Y158.943 E170.47707 ; infill
G1 X96.826 Y164.080 E170.96393 ; infill
G1 X97.586 Y164.080 E171.01486 ; infill
G1 X92.449 Y158.943 E171.50173 ; infill
G1 X93.209 Y158.943 E171.55266 ; infill
G1 X98.346 Y164.080 E172.03952 ; infill
G1 X99.106 Y164.080 E172.09045 ; infill
G1 X93.969 Y158.943 E172.57732 ; infill
G1 X94.729 Y158.943 E172.62825 ; infill
G1 X99.866 Y164.080 E173.11511 ; infill
G1 X100.626 Y164.080 E173.16604 ; infill
G1 X95.489 Y158.943 E173.65291 ; infill
G1 X96.249 Y158.943 E173.70384 ; infill
G1 X101.385 Y164.080 E174.19070 ; infill
G1 X102.145 Y164.080 E174.24164 ; infill
G1 X97.009 Y158.943 E174.72850 ; infill
G1 X97.769 Y158.943 E174.77943 ; infill
G1 X102.905 Y164.080 E175.26630 ; infill
G1 X103.665 Y164.080 E175.31723 ; infill
G1 X98.529 Y158.943 E175.80409 ; infill
G1 X99.289 Y158.943 E175.85502 ; infill
G1 X104.425 Y164.080 E176.34189 ; infill
G1 X105.185 Y164.080 E176.39282 ; infill
G1 X100.048 Y158.943 E176.87968 ; infill
G1 X100.808 Y158.943 E176.93061 ; infill
G1 X105.945 Y164.080 E177.41748 ; infill
G1 X106.705 Y164.080 E177.46841 ; infill
G1 X101.568 Y158.943 E177.95527 ; infill
G1 X102.328 Y158.943 E178.00621 ; infill
G1 X107.465 Y164.080 E178.49307 ; infill
G1 X108.225 Y164.080 E178.54400 ; infill
G1 X103.088 Y158.943 E179.03087 ; infill
G1 X103.848 Y158.943 E179.08180 ; infill
G1 X108.985 Y164.080 E179.56866 ; infill
G1 X109.745 Y164.080 E179.61959 ; infill
G1 X104.608 Y158.943 E180.10646 ; infill
G1 X105.368 Y158.943 E180.15739 ; infill
G1 X110.505 Y164.080 E180.64425 ; infill
G1 X111.265 Y164.080 E180.69518 ; infill
G1 X106.128 Y158.943 E181.18205 ; infill
G1 X106.888 Y158.943 E181.23298 ; infill
G1 X112.024 Y164.080 E181.71984 ; infill
G1 X112.784 Y164.080 E181.77077 ; infill
G1 X107.648 Y158.943 E182.25764 ; infill
G1 X108.408 Y158.943 E182.30857 ; infill
G1 X113.544 Y164.080 E182.79543 ; infill
G1 X114.304 Y164.080 E182.84637 ; infill
G1 X109.168 Y158.943 E183.33323 ; infill
G1 X109.928 Y158.943 E183.38416 ; infill
G1 X115.064 Y164.080 E183.87103 ; infill
G1 X115.824 Y164.080 E183.92196 ; infill
G1 X110.687 Y158.943 E184.40882 ; infill
G1 X111.447 Y158.943 E184.45975 ; infill
G1 X116.584 Y164.080 E184.94662 ; infill
G1 X117.344 Y164.080 E184.99755 ; infill
G1 X112.207 Y158.943 E185.48441 ; infill
G1 X112.967 Y158.943 E185.53534 ; infill
G1 X118.104 Y164.080 E186.02221 ; infill
G1 X118.864 Y164.080 E186.07314 ; infill
G1 X113.727 Y158.943 E186.56000 ; infill
G1 X114.487 Y158.943 E186.61093 ; infill
G1 X119.624 Y164.080 E187.09780 ; infill
G1 X120.384 Y164.080 E187.14873 ; infill
G1 X115.247 Y158.943 E187.63559 ; infill
G1 X116.007 Y158.943 E187.68653 ; infill
G1 X121.144 Y164.080 E188.17339 ; infill
G1 X121.904 Y164.080 E188.22432 ; infill
G1 X116.767 Y158.943 E188.71119 ; infill
G1 X117.527 Y158.943 E188.76212 ; infill
G1 X122.663 Y164.080 E189.24898 ; infill
G1 X123.423 Y164.080 E189.29991 ; infill
G1 X118.287 Y158.943 E189.78678 ; infill
G1 X119.047 Y158.943 E189.83771 ; infill
G1 X124.183 Y164.080 E190.32457 ; infill
G1 X124.943 Y164.080 E190.37550 ; infill
G1 X119.807 Y158.943 E190.86237 ; infill
G1 X120.566 Y158.943 E190.91330 ; infill
G1 X125.703 Y164.080 E191.40016 ; infill
G1 X126.463 Y164.080 E191.45110 ; infill
G1 X121.326 Y158.943 E191.93796 ; infill
G1 X122.086 Y158.943 E191.98889 ; infill
G1 X127.223 Y164.080 E192.47576 ; infill
G1 X127.983 Y164.080 E192.52669 ; infill
G1 X122.846 Y158.943 E193.01355 ; infill
G1 X123.606 Y158.943 E193.06448 ; infill
G1 X128.743 Y164.080 E193.55135 ; infill
G1 X129.503 Y164.080 E193.60228 ; infill
G1 X124.366 Y158.943 E194.08914 ; infill
G1 X125.126 Y158.943 E194.14007 ; infill
G1 X130.263 Y164.080 E194.62694 ; infill
G1 X131.023 Y164.080 E194.67787 ; infill
G1 X125.886 Y158.943 E195.16473 ; infill
G1 X126.646 Y158.943 E195.21566 ; infill
G1 X131.783 Y164.080 E195.70253 ; infill
G1 X132.542 Y164.080 E195.75346 ; infill
G1 X127.406 Y158.943 E196.24032 ; infill
G1 X128.166 Y158.943 E196.29126 ; infill
G1 X133.302 Y164.080 E196.77812 ; infill
G1 X134.062 Y164.080 E196.82905 ; infill
G1 X128.926 Y158.943 E197.31592 ; infill
G1 X129.686 Y158.943 E197.36685 ; infill
G1 X134.822 Y164.080 E197.85371 ; infill
G1 X135.582 Y164.080 E197.90464 ; infill
G1 X130.446 Y158.943 E198.39151 ; infill
G1 X131.205 Y158.943 E198.44244 ; infill
G1 X136.342 Y164.080 E198.92930 ; infill
G1 X137.102 Y164.080 E198.98023 ; infill
G1 X131.965 Y158.943 E199.46710 ; infill
G1 X132.725 Y158.943 E199.51803 ; infill
G1 X137.862 Y164.080 E200.00489 ; infill
G1 X138.622 Y164.080 E200.05583 ; infill
G1 X133.485 Y158.943 E200.54269 ; infill
G1 X134.245 Y158.943 E200.59362 ; infill
G1 X139.382 Y164.080 E201.08049 ; infill
G1 X140.142 Y164.080 E201.13142 ; infill
G1 X135.005 Y158.943 E201.61828 ; infill
G1 X135.765 Y158.943 E201.66921 ; infill
G1 X140.902 Y164.080 E202.15608 ; infill
G1 X141.662 Y164.080 E202.20701 ; infill
G1 X136.525 Y158.943 E202.69387 ; infill
G1 X137.285 Y158.943 E202.74480 ; infill
G1 X142.422 Y164.080 E203.23167 ; infill
G1 X143.181 Y164.080 E203.28260 ; infill
G1 X138.045 Y158.943 E203.76946 ; infill
G1 X138.805 Y158.943 E203.82040 ; infill
G1 X143.941 Y164.080 E204.30726 ; infill
G1 X144.701 Y164.080 E204.35819 ; infill
G1 X139.565 Y158.943 E204.84506 ; infill
G1 X140.325 Y158.943 E204.89599 ; infill
G1 X145.461 Y164.080 E205.38285 ; infill
