; generated by Slic3r 1.2.9 on 2018-10-23 at 09:18:44

; external perimeters extrusion width = 0.30mm
; perimeters extrusion width = 0.30mm
; infill extrusion width = 0.60mm
; solid infill extrusion width = 0.60mm
; top infill extrusion width = 0.45mm

M107 ; disable fan
M190 S60 ; set bed temperature
M104 S240 ; set temperature
G28 ; home all axes
G1 Z5 F5000 ; lift nozzle

M109 S240 ; wait for temperature to be reached
G21 ; set units to millimeters
G90 ; use absolute coordinates
M82 ; use absolute distances for extrusion
G92 E0 ; reset extrusion distance
G1 E-2.00000 F4800.00000 ; retract
G92 E0 ; reset extrusion distance
G1 Z0.500 F6000.000 ; lift Z
G1 X124.806 Y124.563 F6000.000 ; move to first skirt point
G1 Z0.300 F6000.000 ; restore layer Z
G1 E2.00000 F4800.00000 ; unretract
G1 X125.208 Y124.172 E2.03746 F600.000 ; skirt
G1 X125.901 Y123.614 E2.09685 ; skirt
G1 X126.368 Y123.304 E2.13432 ; skirt
G1 X127.064 Y122.924 E2.18728 ; skirt
G1 X127.577 Y122.699 E2.22475 ; skirt
G1 X128.421 Y122.418 E2.28414 ; skirt
G1 X128.966 Y122.291 E2.32157 ; skirt
G1 X129.521 Y122.203 E2.35908 ; skirt
G1 X130.312 Y122.146 E2.41205 ; skirt
G1 X132.193 Y122.475 E2.53960 ; skirt
G1 X133.779 Y123.538 E2.66715 ; skirt
G1 X134.732 Y124.987 E2.78303 ; skirt
G1 X137.030 Y130.535 E3.18421 ; skirt
G1 X137.379 Y132.412 E3.31177 ; skirt
G1 X136.938 Y134.270 E3.43932 ; skirt
G1 X135.913 Y135.670 E3.55522 ; skirt
G1 X135.495 Y136.043 E3.59268 ; skirt
G1 X134.860 Y136.518 E3.64563 ; skirt
G1 X134.096 Y136.972 E3.70504 ; skirt
G1 X133.375 Y137.301 E3.75798 ; skirt
G1 X132.531 Y137.582 E3.81740 ; skirt
G1 X131.979 Y137.710 E3.85527 ; skirt
G1 X131.200 Y137.822 E3.90781 ; skirt
G1 X130.312 Y137.854 E3.96722 ; skirt
G1 X129.521 Y137.797 E4.02016 ; skirt
G1 X128.967 Y137.709 E4.05763 ; skirt
G1 X128.105 Y137.489 E4.11703 ; skirt
G1 X127.577 Y137.301 E4.15450 ; skirt
G1 X126.856 Y136.972 E4.20745 ; skirt
G1 X126.092 Y136.518 E4.26685 ; skirt
G1 X125.632 Y136.184 E4.30478 ; skirt
G1 X125.039 Y135.670 E4.35727 ; skirt
G1 X124.433 Y135.019 E4.41667 ; skirt
G1 X124.090 Y134.575 E4.45414 ; skirt
G1 X123.662 Y133.908 E4.50709 ; skirt
G1 X123.264 Y133.113 E4.56647 ; skirt
G1 X122.986 Y132.370 E4.61945 ; skirt
G1 X122.767 Y131.509 E4.67881 ; skirt
G1 X122.679 Y130.955 E4.71632 ; skirt
G1 X122.622 Y130.164 E4.76927 ; skirt
G1 X122.654 Y129.276 E4.82868 ; skirt
G1 X122.767 Y128.491 E4.88162 ; skirt
G1 X122.986 Y127.630 E4.94099 ; skirt
G1 X123.175 Y127.101 E4.97849 ; skirt
G1 X123.403 Y126.582 E5.01640 ; skirt
G1 X123.780 Y125.892 E5.06891 ; skirt
G1 X124.287 Y125.162 E5.12831 ; skirt
G1 X124.765 Y124.607 E5.17726 ; skirt
G1 X125.198 Y124.928 F6000.000 ; move to first skirt point
G1 X125.573 Y124.564 E5.21217 F600.000 ; skirt
G1 X126.206 Y124.054 E5.26645 ; skirt
G1 X126.641 Y123.765 E5.30137 ; skirt
G1 X127.303 Y123.403 E5.35177 ; skirt
G1 X127.782 Y123.194 E5.38668 ; skirt
G1 X128.553 Y122.937 E5.44097 ; skirt
G1 X129.068 Y122.817 E5.47631 ; skirt
G1 X129.809 Y122.710 E5.52629 ; skirt
G1 X130.331 Y122.681 E5.56121 ; skirt
G1 X132.093 Y123.014 E5.68103 ; skirt
G1 X133.542 Y124.071 E5.80086 ; skirt
G1 X134.237 Y125.192 E5.88895 ; skirt
G1 X136.535 Y130.740 E6.29013 ; skirt
G1 X136.840 Y132.508 E6.40996 ; skirt
G1 X136.355 Y134.235 E6.52978 ; skirt
G1 X135.548 Y135.278 E6.61789 ; skirt
G1 X135.159 Y135.626 E6.65280 ; skirt
G1 X134.555 Y136.078 E6.70319 ; skirt
G1 X133.856 Y136.493 E6.75750 ; skirt
G1 X133.170 Y136.806 E6.80789 ; skirt
G1 X132.398 Y137.063 E6.86220 ; skirt
G1 X131.883 Y137.183 E6.89753 ; skirt
G1 X131.143 Y137.290 E6.94750 ; skirt
G1 X130.331 Y137.319 E7.00180 ; skirt
G1 X129.578 Y137.265 E7.05219 ; skirt
G1 X129.062 Y137.182 E7.08711 ; skirt
G1 X128.553 Y137.063 E7.12201 ; skirt
G1 X127.782 Y136.806 E7.17632 ; skirt
G1 X127.096 Y136.493 E7.22671 ; skirt
G1 X126.397 Y136.078 E7.28101 ; skirt
G1 X125.969 Y135.768 E7.31637 ; skirt
G1 X125.404 Y135.278 E7.36632 ; skirt
G1 X124.850 Y134.683 E7.42061 ; skirt
G1 X124.530 Y134.270 E7.45553 ; skirt
G1 X124.122 Y133.635 E7.50592 ; skirt
G1 X123.758 Y132.908 E7.56021 ; skirt
G1 X123.495 Y132.201 E7.61062 ; skirt
G1 X123.294 Y131.414 E7.66489 ; skirt
G1 X123.211 Y130.898 E7.69984 ; skirt
G1 X123.157 Y130.145 E7.75023 ; skirt
G1 X123.186 Y129.333 E7.80453 ; skirt
G1 X123.294 Y128.586 E7.85493 ; skirt
G1 X123.495 Y127.799 E7.90919 ; skirt
G1 X123.670 Y127.306 E7.94414 ; skirt
G1 X123.882 Y126.822 E7.97949 ; skirt
G1 X124.241 Y126.165 E8.02944 ; skirt
G1 X124.704 Y125.498 E8.08375 ; skirt
G1 X125.157 Y124.972 E8.13013 ; skirt
G1 X125.590 Y125.293 F6000.000 ; move to first skirt point
G1 X125.938 Y124.956 E8.16249 F600.000 ; skirt
G1 X126.512 Y124.494 E8.21167 ; skirt
G1 X126.921 Y124.222 E8.24451 ; skirt
G1 X127.543 Y123.882 E8.29188 ; skirt
G1 X127.987 Y123.688 E8.32424 ; skirt
G1 X128.686 Y123.456 E8.37342 ; skirt
G1 X129.164 Y123.344 E8.40625 ; skirt
G1 X129.866 Y123.243 E8.45363 ; skirt
G1 X130.350 Y123.217 E8.48600 ; skirt
G1 X131.986 Y123.553 E8.59755 ; skirt
G1 X133.285 Y124.602 E8.70911 ; skirt
G1 X133.742 Y125.397 E8.77038 ; skirt
G1 X136.041 Y130.945 E9.17156 ; skirt
G1 X136.297 Y132.595 E9.28312 ; skirt
G1 X135.768 Y134.179 E9.39467 ; skirt
G1 X135.183 Y134.886 E9.45596 ; skirt
G1 X134.823 Y135.209 E9.48831 ; skirt
G1 X134.249 Y135.638 E9.53615 ; skirt
G1 X133.616 Y136.014 E9.58535 ; skirt
G1 X132.965 Y136.312 E9.63319 ; skirt
G1 X132.508 Y136.473 E9.66554 ; skirt
G1 X131.795 Y136.655 E9.71470 ; skirt
G1 X131.316 Y136.732 E9.74710 ; skirt
G1 X130.602 Y136.783 E9.79494 ; skirt
G1 X129.866 Y136.757 E9.84413 ; skirt
G1 X129.386 Y136.696 E9.87649 ; skirt
G1 X128.686 Y136.544 E9.92433 ; skirt
G1 X127.987 Y136.312 E9.97353 ; skirt
G1 X127.336 Y136.014 E10.02137 ; skirt
G1 X126.702 Y135.638 E10.07056 ; skirt
G1 X126.305 Y135.351 E10.10337 ; skirt
G1 X125.769 Y134.886 E10.15076 ; skirt
G1 X125.267 Y134.347 E10.19995 ; skirt
G1 X124.970 Y133.964 E10.23231 ; skirt
G1 X124.583 Y133.362 E10.28015 ; skirt
G1 X124.253 Y132.703 E10.32933 ; skirt
G1 X124.003 Y132.032 E10.37719 ; skirt
G1 X123.821 Y131.319 E10.42636 ; skirt
G1 X123.744 Y130.840 E10.45875 ; skirt
G1 X123.693 Y130.126 E10.50658 ; skirt
G1 X123.719 Y129.390 E10.55578 ; skirt
G1 X123.780 Y128.910 E10.58814 ; skirt
G1 X123.932 Y128.210 E10.63598 ; skirt
G1 X124.164 Y127.511 E10.68518 ; skirt
G1 X124.462 Y126.860 E10.73301 ; skirt
G1 X124.701 Y126.439 E10.76537 ; skirt
G1 X125.121 Y125.834 E10.81457 ; skirt
G1 X125.549 Y125.337 E10.85840 ; skirt
G1 E8.85840 F4800.00000 ; retract
G92 E0 ; reset extrusion distance
G1 Z0.800 F6000.000 ; lift Z
G1 X132.344 Y132.292 F6000.000 ; move to first perimeter point
G1 Z0.300 F6000.000 ; restore layer Z
G1 E2.00000 F4800.00000 ; unretract
G1 X132.075 Y132.478 E2.02184 F600.000 ; perimeter
G1 X131.696 Y132.685 E2.05067 ; perimeter
G1 X131.512 Y132.762 E2.06402 ; perimeter
G1 X131.098 Y132.883 E2.09285 ; perimeter
G1 X130.901 Y132.919 E2.10620 ; perimeter
G1 X130.476 Y132.949 E2.13467 ; perimeter
G1 X130.051 Y132.919 E2.16312 ; perimeter
G1 X129.848 Y132.882 E2.17693 ; perimeter
G1 X129.445 Y132.763 E2.20496 ; perimeter
G1 X129.058 Y132.586 E2.23343 ; perimeter
G1 X128.707 Y132.360 E2.26127 ; perimeter
G1 X128.387 Y132.082 E2.28965 ; perimeter
G1 X128.250 Y131.936 E2.30301 ; perimeter
G1 X127.995 Y131.594 E2.33148 ; perimeter
G1 X127.791 Y131.220 E2.35995 ; perimeter
G1 X127.714 Y131.036 E2.37330 ; perimeter
G1 X127.593 Y130.622 E2.40213 ; perimeter
G1 X127.557 Y130.425 E2.41548 ; perimeter
G1 X127.526 Y129.995 E2.44431 ; perimeter
G1 X127.533 Y129.795 E2.45766 ; perimeter
G1 X127.594 Y129.373 E2.48613 ; perimeter
G1 X127.713 Y128.969 E2.51424 ; perimeter
G1 X127.887 Y128.587 E2.54235 ; perimeter
G1 X128.115 Y128.233 E2.57046 ; perimeter
G1 X128.394 Y127.911 E2.59893 ; perimeter
G1 X128.540 Y127.774 E2.61229 ; perimeter
G1 X128.881 Y127.519 E2.64076 ; perimeter
G1 X129.251 Y127.317 E2.66887 ; perimeter
G1 X129.645 Y127.170 E2.69698 ; perimeter
G1 X130.176 Y127.055 E2.73327 ; perimeter
G1 X130.176 Y127.472 E2.76116 ; perimeter
G1 X129.840 Y127.530 E2.78393 ; perimeter
G1 X129.611 Y127.601 E2.79991 ; perimeter
G1 X129.235 Y127.772 E2.82755 ; perimeter
G1 X129.032 Y127.898 E2.84353 ; perimeter
G1 X128.711 Y128.159 E2.87116 ; perimeter
G1 X128.546 Y128.333 E2.88715 ; perimeter
G1 X128.302 Y128.666 E2.91478 ; perimeter
G1 X128.187 Y128.876 E2.93077 ; perimeter
G1 X128.035 Y129.261 E2.95840 ; perimeter
G1 X127.976 Y129.493 E2.97438 ; perimeter
G1 X127.927 Y129.904 E3.00202 ; perimeter
G1 X127.930 Y130.143 E3.01800 ; perimeter
G1 X127.986 Y130.553 E3.04563 ; perimeter
G1 X128.049 Y130.784 E3.06162 ; perimeter
G1 X128.210 Y131.172 E3.08968 ; perimeter
G1 X128.447 Y131.546 E3.11933 ; perimeter
G1 X128.729 Y131.858 E3.14737 ; perimeter
G1 X128.903 Y132.008 E3.16276 ; perimeter
G1 X129.262 Y132.244 E3.19142 ; perimeter
G1 X129.670 Y132.420 E3.22109 ; perimeter
G1 X130.084 Y132.521 E3.24956 ; perimeter
G1 X130.512 Y132.550 E3.27822 ; perimeter
G1 X130.751 Y132.535 E3.29422 ; perimeter
G1 X131.157 Y132.458 E3.32185 ; perimeter
G1 X131.384 Y132.383 E3.33783 ; perimeter
G1 X131.758 Y132.205 E3.36547 ; perimeter
G1 X132.061 Y132.009 E3.38959 ; perimeter
G1 X132.301 Y132.250 E3.41232 ; perimeter
G1 X132.020 Y132.339 F6000.000 ; move inwards before travel
M106 S255 ; enable fan
M104 S235 ; set temperature
M140 S55 ; wait for bed temperature to be reached
G1 E1.41232 F4800.00000 ; retract
G92 E0 ; reset extrusion distance
G1 Z0.800 F6000.000 ; lift Z
G1 X132.172 Y132.271 F6000.000 ; move to first perimeter point
G1 Z0.500 F6000.000 ; restore layer Z
G1 E2.00000 F4800.00000 ; unretract
G1 X131.829 Y132.499 E2.00879 F600.000 ; perimeter
G1 X131.469 Y132.663 E2.01724 ; perimeter
G1 X131.073 Y132.779 E2.02607 ; perimeter
G1 X130.888 Y132.812 E2.03010 ; perimeter
G1 X130.476 Y132.842 E2.03892 ; perimeter
G1 X130.064 Y132.812 E2.04774 ; perimeter
G1 X129.879 Y132.779 E2.05177 ; perimeter
G1 X129.483 Y132.663 E2.06059 ; perimeter
G1 X129.107 Y132.491 E2.06942 ; perimeter
G1 X128.939 Y132.391 E2.07360 ; perimeter
G1 X128.778 Y132.280 E2.07778 ; perimeter
G1 X128.461 Y132.005 E2.08676 ; perimeter
G1 X128.333 Y131.867 E2.09079 ; perimeter
G1 X128.086 Y131.537 E2.09959 ; perimeter
G1 X127.884 Y131.164 E2.10865 ; perimeter
G1 X127.747 Y130.794 E2.11709 ; perimeter
G1 X127.699 Y130.605 E2.12126 ; perimeter
G1 X127.662 Y130.395 E2.12583 ; perimeter
G1 X127.634 Y130.000 E2.13428 ; perimeter
G1 X127.664 Y129.588 E2.14311 ; perimeter
G1 X127.697 Y129.403 E2.14714 ; perimeter
G1 X127.813 Y129.007 E2.15596 ; perimeter
G1 X127.982 Y128.638 E2.16463 ; perimeter
G1 X128.204 Y128.292 E2.17343 ; perimeter
G1 X128.335 Y128.132 E2.17784 ; perimeter
G1 X128.615 Y127.852 E2.18629 ; perimeter
G1 X128.940 Y127.609 E2.19497 ; perimeter
G1 X129.295 Y127.415 E2.20363 ; perimeter
G1 X129.675 Y127.273 E2.21230 ; perimeter
G1 X130.069 Y127.188 E2.22091 ; perimeter
G1 X130.069 Y127.381 E2.22506 ; perimeter
G1 X129.822 Y127.424 E2.23042 ; perimeter
G1 X129.566 Y127.503 E2.23614 ; perimeter
G1 X129.190 Y127.674 E2.24497 ; perimeter
G1 X128.963 Y127.815 E2.25069 ; perimeter
G1 X128.642 Y128.076 E2.25952 ; perimeter
G1 X128.458 Y128.271 E2.26524 ; perimeter
G1 X128.214 Y128.604 E2.27408 ; perimeter
G1 X128.086 Y128.839 E2.27980 ; perimeter
G1 X127.934 Y129.223 E2.28863 ; perimeter
G1 X127.869 Y129.483 E2.29435 ; perimeter
G1 X127.820 Y129.893 E2.30318 ; perimeter
G1 X127.823 Y130.161 E2.30890 ; perimeter
G1 X127.880 Y130.570 E2.31773 ; perimeter
G1 X127.951 Y130.828 E2.32346 ; perimeter
G1 X128.113 Y131.218 E2.33247 ; perimeter
G1 X128.369 Y131.620 E2.34267 ; perimeter
G1 X128.651 Y131.932 E2.35166 ; perimeter
G1 X128.835 Y132.091 E2.35686 ; perimeter
G1 X129.208 Y132.337 E2.36641 ; perimeter
G1 X129.647 Y132.525 E2.37662 ; perimeter
G1 X130.064 Y132.626 E2.38579 ; perimeter
G1 X130.509 Y132.658 E2.39533 ; perimeter
G1 X130.777 Y132.640 E2.40106 ; perimeter
G1 X131.182 Y132.562 E2.40989 ; perimeter
G1 X131.436 Y132.478 E2.41561 ; perimeter
G1 X131.809 Y132.299 E2.42445 ; perimeter
G1 X132.045 Y132.145 E2.43048 ; perimeter
G1 X132.129 Y132.229 E2.43302 ; perimeter
G1 X132.563 Y132.299 F6000.000 ; move to first perimeter point
G1 X132.150 Y132.609 E2.44406 F600.000 ; perimeter
G1 X131.948 Y132.727 E2.44907 ; perimeter
G1 X131.559 Y132.904 E2.45819 ; perimeter
G1 X131.132 Y133.030 E2.46770 ; perimeter
G1 X130.920 Y133.068 E2.47232 ; perimeter
G1 X130.476 Y133.100 E2.48183 ; perimeter
G1 X130.032 Y133.068 E2.49134 ; perimeter
G1 X129.820 Y133.030 E2.49596 ; perimeter
G1 X129.393 Y132.904 E2.50547 ; perimeter
G1 X128.988 Y132.719 E2.51498 ; perimeter
G1 X128.800 Y132.608 E2.51965 ; perimeter
G1 X128.620 Y132.483 E2.52433 ; perimeter
G1 X128.282 Y132.190 E2.53389 ; perimeter
G1 X128.135 Y132.032 E2.53851 ; perimeter
G1 X127.869 Y131.676 E2.54801 ; perimeter
G1 X127.649 Y131.271 E2.55786 ; perimeter
G1 X127.501 Y130.871 E2.56698 ; perimeter
G1 X127.447 Y130.659 E2.57165 ; perimeter
G1 X127.406 Y130.426 E2.57671 ; perimeter
G1 X127.376 Y130.000 E2.58584 ; perimeter
G1 X127.408 Y129.556 E2.59535 ; perimeter
G1 X127.446 Y129.344 E2.59997 ; perimeter
G1 X127.572 Y128.917 E2.60948 ; perimeter
G1 X127.755 Y128.515 E2.61893 ; perimeter
G1 X127.996 Y128.141 E2.62843 ; perimeter
G1 X128.144 Y127.959 E2.63344 ; perimeter
G1 X128.446 Y127.658 E2.64257 ; perimeter
G1 X128.800 Y127.392 E2.65202 ; perimeter
G1 X129.188 Y127.180 E2.66148 ; perimeter
G1 X129.603 Y127.026 E2.67093 ; perimeter
G1 X130.035 Y126.932 E2.68038 ; perimeter
G1 X130.326 Y126.911 E2.68662 ; perimeter
G1 X130.326 Y127.607 E2.70149 ; perimeter
G1 X129.882 Y127.675 E2.71110 ; perimeter
G1 X129.658 Y127.744 E2.71611 ; perimeter
G1 X129.312 Y127.901 E2.72424 ; perimeter
G1 X129.112 Y128.025 E2.72926 ; perimeter
G1 X128.817 Y128.265 E2.73738 ; perimeter
G1 X128.656 Y128.435 E2.74240 ; perimeter
G1 X128.432 Y128.742 E2.75052 ; perimeter
G1 X128.319 Y128.948 E2.75554 ; perimeter
G1 X128.180 Y129.302 E2.76367 ; perimeter
G1 X128.123 Y129.529 E2.76868 ; perimeter
G1 X128.078 Y129.907 E2.77681 ; perimeter
G1 X128.080 Y130.142 E2.78182 ; perimeter
G1 X128.132 Y130.518 E2.78995 ; perimeter
G1 X128.194 Y130.744 E2.79497 ; perimeter
G1 X128.341 Y131.098 E2.80316 ; perimeter
G1 X128.574 Y131.464 E2.81241 ; perimeter
G1 X128.831 Y131.748 E2.82060 ; perimeter
G1 X128.991 Y131.885 E2.82511 ; perimeter
G1 X129.330 Y132.110 E2.83381 ; perimeter
G1 X129.728 Y132.281 E2.84307 ; perimeter
G1 X130.104 Y132.371 E2.85132 ; perimeter
G1 X130.509 Y132.400 E2.86002 ; perimeter
G1 X130.744 Y132.385 E2.86504 ; perimeter
G1 X131.117 Y132.313 E2.87317 ; perimeter
G1 X131.340 Y132.239 E2.87818 ; perimeter
G1 X131.683 Y132.075 E2.88631 ; perimeter
G1 X131.879 Y131.947 E2.89133 ; perimeter
G1 X132.059 Y131.795 E2.89635 ; perimeter
G1 X132.521 Y132.257 E2.91033 ; perimeter
G1 X132.169 Y132.366 F6000.000 ; move inwards before travel
G1 E0.91033 F4800.00000 ; retract
G92 E0 ; reset extrusion distance
G1 Z1.000 F6000.000 ; lift Z
G1 X132.177 Y132.277 F6000.000 ; move to first perimeter point
G1 Z0.700 F6000.000 ; restore layer Z
G1 E2.00000 F4800.00000 ; unretract
G1 X132.020 Y132.387 E2.00410 F600.000 ; perimeter
G1 X131.632 Y132.595 E2.01351 ; perimeter
G1 X131.270 Y132.729 E2.02176 ; perimeter
G1 X131.080 Y132.778 E2.02595 ; perimeter
G1 X130.888 Y132.812 E2.03014 ; perimeter
G1 X130.476 Y132.842 E2.03896 ; perimeter
G1 X130.064 Y132.812 E2.04778 ; perimeter
G1 X129.879 Y132.779 E2.05181 ; perimeter
G1 X129.483 Y132.663 E2.06063 ; perimeter
G1 X129.107 Y132.491 E2.06946 ; perimeter
G1 X128.939 Y132.391 E2.07364 ; perimeter
G1 X128.778 Y132.280 E2.07782 ; perimeter
G1 X128.466 Y132.010 E2.08664 ; perimeter
G1 X128.201 Y131.703 E2.09531 ; perimeter
