; generated by Slic3r 1.2.9 on 2018-10-24 at 14:54:48

; external perimeters extrusion width = 0.30mm
; perimeters extrusion width = 0.30mm
; infill extrusion width = 0.60mm
; solid infill extrusion width = 0.60mm
; top infill extrusion width = 0.45mm

M107 ; disable fan
M190 S60 ; set bed temperature
M104 S240 ; set temperature
G28 ; home all axes
G1 Z5 F5000 ; lift nozzle

M109 S240 ; wait for temperature to be reached
G21 ; set units to millimeters
G90 ; use absolute coordinates
M82 ; use absolute distances for extrusion
G92 E0 ; reset extrusion distance
G1 E-2.00000 F4800.00000 ; retract
G92 E0 ; reset extrusion distance
G1 Z0.500 F6000.000 ; lift Z
G1 X115.408 Y119.335 F6000.000 ; move to first skirt point
G1 Z0.300 F6000.000 ; restore layer Z
G1 E2.00000 F4800.00000 ; unretract
G1 X117.058 Y118.375 E2.12755 F1800.000 ; skirt
G1 X118.500 Y118.143 E2.22512 ; skirt
G1 X141.500 Y118.143 E3.76165 ; skirt
G1 X143.368 Y118.539 E3.88920 ; skirt
G1 X144.915 Y119.658 E4.01675 ; skirt
G1 X145.875 Y121.308 E4.14430 ; skirt
G1 X146.107 Y122.750 E4.24187 ; skirt
G1 X146.107 Y137.250 E5.21055 ; skirt
G1 X145.711 Y139.118 E5.33810 ; skirt
G1 X144.592 Y140.665 E5.46566 ; skirt
G1 X142.942 Y141.625 E5.59321 ; skirt
G1 X141.500 Y141.857 E5.69078 ; skirt
G1 X118.500 Y141.857 E7.22730 ; skirt
G1 X116.632 Y141.461 E7.35486 ; skirt
G1 X115.085 Y140.342 E7.48241 ; skirt
G1 X114.125 Y138.692 E7.60996 ; skirt
G1 X113.893 Y137.250 E7.70753 ; skirt
G1 X113.893 Y122.750 E8.67621 ; skirt
G1 X114.289 Y120.882 E8.80376 ; skirt
G1 X115.373 Y119.384 E8.92730 ; skirt
G1 X115.932 Y119.590 F6000.000 ; move to first skirt point
G1 X117.539 Y118.794 E9.04713 F1800.000 ; skirt
G1 X118.500 Y118.679 E9.11176 ; skirt
G1 X141.500 Y118.679 E10.64829 ; skirt
G1 X143.250 Y119.074 E10.76811 ; skirt
G1 X144.660 Y120.182 E10.88793 ; skirt
G1 X145.456 Y121.789 E11.00775 ; skirt
G1 X145.571 Y122.750 E11.07239 ; skirt
G1 X145.571 Y137.250 E12.04107 ; skirt
G1 X145.176 Y139.000 E12.16089 ; skirt
G1 X144.068 Y140.410 E12.28071 ; skirt
G1 X142.461 Y141.206 E12.40053 ; skirt
G1 X141.500 Y141.321 E12.46517 ; skirt
G1 X118.500 Y141.321 E14.00169 ; skirt
G1 X116.750 Y140.926 E14.12151 ; skirt
G1 X115.340 Y139.818 E14.24133 ; skirt
G1 X114.544 Y138.211 E14.36116 ; skirt
G1 X114.429 Y137.250 E14.42579 ; skirt
G1 X114.429 Y122.750 E15.39447 ; skirt
G1 X114.824 Y121.000 E15.51429 ; skirt
G1 X115.895 Y119.638 E15.63011 ; skirt
G1 X116.454 Y119.867 F6000.000 ; move to first skirt point
G1 X118.500 Y119.214 E15.77358 F1800.000 ; skirt
G1 X141.500 Y119.214 E17.31011 ; skirt
G1 X143.123 Y119.609 E17.42166 ; skirt
G1 X144.383 Y120.704 E17.53322 ; skirt
G1 X145.036 Y122.750 E17.67670 ; skirt
G1 X145.036 Y137.250 E18.64537 ; skirt
G1 X144.641 Y138.873 E18.75693 ; skirt
G1 X143.546 Y140.133 E18.86849 ; skirt
G1 X141.500 Y140.786 E19.01196 ; skirt
G1 X118.500 Y140.786 E20.54849 ; skirt
G1 X116.877 Y140.391 E20.66004 ; skirt
G1 X115.617 Y139.296 E20.77160 ; skirt
G1 X114.964 Y137.250 E20.91508 ; skirt
G1 X114.964 Y122.750 E21.88376 ; skirt
G1 X115.359 Y121.127 E21.99531 ; skirt
G1 X116.414 Y119.912 E22.10286 ; skirt
G1 E20.10286 F4800.00000 ; retract
G92 E0 ; reset extrusion distance
G1 Z0.800 F6000.000 ; lift Z
G1 X138.871 Y133.121 F6000.000 ; move to first perimeter point
G1 Z0.300 F6000.000 ; restore layer Z
G1 E2.00000 F4800.00000 ; unretract
G1 X132.871 Y133.121 E2.40083 F1800.000 ; perimeter
G1 X132.871 Y134.621 E2.50104 ; perimeter
G1 X127.129 Y134.621 E2.88467 ; perimeter
G1 X127.129 Y133.121 E2.98488 ; perimeter
G1 X121.129 Y133.121 E3.38571 ; perimeter
G1 X121.129 Y125.379 E3.90295 ; perimeter
G1 X138.871 Y125.379 E5.08824 ; perimeter
G1 X138.871 Y133.061 E5.60147 ; perimeter
G1 X138.336 Y132.586 F6000.000 ; move to first perimeter point
G1 X132.336 Y132.586 E6.00231 F1800.000 ; perimeter
G1 X132.336 Y134.086 E6.10251 ; perimeter
G1 X127.664 Y134.086 E6.41458 ; perimeter
G1 X127.664 Y132.586 E6.51479 ; perimeter
G1 X121.664 Y132.586 E6.91562 ; perimeter
G1 X121.664 Y125.914 E7.36129 ; perimeter
G1 X138.336 Y125.914 E8.47502 ; perimeter
G1 X138.336 Y132.526 E8.91669 ; perimeter
G1 X137.800 Y132.050 F6000.000 ; move to first perimeter point
G1 X131.800 Y132.050 E9.31752 F1800.000 ; perimeter
G1 X131.800 Y133.550 E9.41773 ; perimeter
G1 X128.200 Y133.550 E9.65823 ; perimeter
G1 X128.200 Y132.050 E9.75844 ; perimeter
G1 X122.200 Y132.050 E10.15927 ; perimeter
G1 X122.200 Y126.450 E10.53338 ; perimeter
G1 X137.800 Y126.450 E11.57554 ; perimeter
G1 X137.800 Y131.990 E11.94565 ; perimeter
G1 X137.800 Y132.450 F6000.000 ; move inwards before travel
G1 X140.129 Y135.879 F6000.000 ; move to first perimeter point
G1 X119.871 Y135.879 E13.29896 F1800.000 ; perimeter
G1 X119.871 Y124.121 E14.08442 ; perimeter
G1 X140.129 Y124.121 E15.43774 ; perimeter
G1 X140.129 Y135.819 E16.21919 ; perimeter
G1 X140.664 Y136.414 F6000.000 ; move to first perimeter point
G1 X119.336 Y136.414 E17.64407 F1800.000 ; perimeter
G1 X119.336 Y123.586 E18.50110 ; perimeter
G1 X140.664 Y123.586 E19.92598 ; perimeter
G1 X140.664 Y136.354 E20.77900 ; perimeter
G1 X141.200 Y136.950 F6000.000 ; move to first perimeter point
G1 X118.800 Y136.950 E22.27544 F1800.000 ; perimeter
G1 X118.800 Y123.050 E23.20404 ; perimeter
G1 X141.200 Y123.050 E24.70048 ; perimeter
G1 X141.200 Y136.890 E25.62507 ; perimeter
G1 X140.854 Y136.750 F6000.000 ; move inwards before travel
G1 X139.807 Y133.978 F6000.000 ; move to first infill point
G1 X139.540 Y133.711 E25.65059 F1800.000 ; infill
G1 X138.774 Y133.711 E25.70232 ; infill
G1 X139.807 Y134.744 E25.80100 ; infill
G1 X139.807 Y135.510 E25.85273 ; infill
G1 X137.740 Y133.443 E26.05014 ; infill
G1 X136.975 Y133.443 E26.10187 ; infill
G1 X139.089 Y135.557 E26.30382 ; infill
G1 X138.323 Y135.557 E26.35555 ; infill
G1 X136.209 Y133.443 E26.55751 ; infill
G1 X135.443 Y133.443 E26.60923 ; infill
G1 X137.557 Y135.557 E26.81119 ; infill
G1 X136.791 Y135.557 E26.86291 ; infill
G1 X134.677 Y133.443 E27.06487 ; infill
G1 X133.911 Y133.443 E27.11660 ; infill
G1 X136.025 Y135.557 E27.31855 ; infill
G1 X135.260 Y135.557 E27.37028 ; infill
G1 X133.193 Y133.490 E27.56769 ; infill
G1 X133.461 Y134.524 E27.63981 ; infill
G1 X134.494 Y135.557 E27.73849 ; infill
G1 X133.728 Y135.557 E27.79022 ; infill
G1 X133.461 Y135.290 E27.81575 ; infill
G1 X133.139 Y135.250 F6000.000 ; move to first infill point
G1 X126.861 Y135.250 E28.70498 F1800.000 ; infill
G1 X126.807 Y133.710 F6000.000 ; move to first infill point
G1 X126.540 Y133.443 E28.73229 F1800.000 ; infill
G1 X125.720 Y133.443 E28.79150 ; infill
G1 X126.606 Y134.328 E28.88200 ; infill
G1 X126.539 Y135.081 E28.93661 ; infill
G1 X124.901 Y133.443 E29.10404 ; infill
G1 X124.082 Y133.443 E29.16326 ; infill
G1 X126.196 Y135.557 E29.37934 ; infill
G1 X125.377 Y135.557 E29.43855 ; infill
G1 X123.262 Y133.443 E29.65463 ; infill
G1 X122.443 Y133.443 E29.71385 ; infill
G1 X124.557 Y135.557 E29.92992 ; infill
G1 X123.738 Y135.557 E29.98914 ; infill
G1 X121.623 Y133.443 E30.20522 ; infill
G1 X121.072 Y133.711 E30.24953 ; infill
G1 X122.918 Y135.557 E30.43824 ; infill
G1 X122.099 Y135.557 E30.49745 ; infill
G1 X120.252 Y133.711 E30.68616 ; infill
G1 X120.193 Y134.470 E30.74124 ; infill
G1 X121.280 Y135.557 E30.85230 ; infill
G1 X120.460 Y135.557 E30.91151 ; infill
G1 X120.193 Y135.290 E30.93882 ; infill
G1 X120.500 Y133.389 F6000.000 ; move to first infill point
G1 X120.500 Y125.111 E32.11134 F1800.000 ; infill
G1 X120.562 Y124.812 E32.15459 ; infill
G1 X120.861 Y124.750 E32.19784 ; infill
G1 X139.139 Y124.750 E34.78677 ; infill
G1 X139.438 Y124.812 E34.83002 ; infill
G1 X139.500 Y125.111 E34.87327 ; infill
G1 X139.500 Y133.389 E36.04578 ; infill
M106 S255 ; enable fan
M104 S235 ; set temperature
M140 S55 ; wait for bed temperature to be reached
G1 E34.04578 F4800.00000 ; retract
G92 E0 ; reset extrusion distance
G1 Z0.800 F6000.000 ; lift Z
G1 X138.164 Y132.414 F6000.000 ; move to first perimeter point
G1 Z0.500 F6000.000 ; restore layer Z
G1 E2.00000 F4800.00000 ; unretract
G1 X132.164 Y132.414 E2.12826 F1737.378 ; perimeter
G1 X132.164 Y133.914 E2.16032 ; perimeter
G1 X127.836 Y133.914 E2.25285 ; perimeter
G1 X127.836 Y132.414 E2.28491 ; perimeter
G1 X121.836 Y132.414 E2.41317 ; perimeter
G1 X121.836 Y126.086 E2.54844 ; perimeter
G1 X138.164 Y126.086 E2.89748 ; perimeter
G1 X138.164 Y132.354 E3.03147 ; perimeter
G1 X137.907 Y132.157 F6000.000 ; move to first perimeter point
G1 X131.907 Y132.157 E3.15973 F1737.378 ; perimeter
G1 X131.907 Y133.657 E3.19180 ; perimeter
G1 X128.093 Y133.657 E3.27333 ; perimeter
G1 X128.093 Y132.157 E3.30539 ; perimeter
G1 X122.093 Y132.157 E3.43365 ; perimeter
G1 X122.093 Y126.343 E3.55794 ; perimeter
G1 X137.907 Y126.343 E3.89598 ; perimeter
G1 X137.907 Y132.097 E4.01899 ; perimeter
G1 X137.650 Y131.900 F6000.000 ; move to first perimeter point
G1 X131.650 Y131.900 E4.14724 F1737.378 ; perimeter
G1 X131.650 Y133.400 E4.17931 ; perimeter
G1 X128.350 Y133.400 E4.24985 ; perimeter
G1 X128.350 Y131.900 E4.28191 ; perimeter
G1 X122.350 Y131.900 E4.41017 ; perimeter
G1 X122.350 Y126.600 E4.52347 ; perimeter
G1 X137.650 Y126.600 E4.85052 ; perimeter
G1 X137.650 Y131.840 E4.96253 ; perimeter
G1 X137.650 Y132.300 F6000.000 ; move inwards before travel
G1 X140.836 Y136.586 F6000.000 ; move to first perimeter point
G1 X119.164 Y136.586 E5.42579 F1737.378 ; perimeter
G1 X119.164 Y123.414 E5.70735 ; perimeter
G1 X140.836 Y123.414 E6.17061 ; perimeter
G1 X140.836 Y136.526 E6.45089 ; perimeter
G1 X141.093 Y136.843 F6000.000 ; move to first perimeter point
G1 X118.907 Y136.843 E6.92514 F1737.378 ; perimeter
G1 X118.907 Y123.157 E7.21770 ; perimeter
G1 X141.093 Y123.157 E7.69195 ; perimeter
G1 X141.093 Y136.783 E7.98321 ; perimeter
G1 X141.350 Y137.100 F6000.000 ; move to first perimeter point
G1 X118.650 Y137.100 E8.46846 F1737.378 ; perimeter
G1 X118.650 Y122.900 E8.77200 ; perimeter
G1 X141.350 Y122.900 E9.25724 ; perimeter
G1 X141.350 Y137.040 E9.55950 ; perimeter
G1 X141.004 Y136.900 F6000.000 ; move inwards before travel
G1 X140.352 Y136.378 F6000.000 ; move to first infill point
G1 X140.628 Y136.102 E9.57781 F2481.968 ; infill
G1 X140.628 Y135.305 E9.61512 ; infill
G1 X139.555 Y136.378 E9.68620 ; infill
G1 X138.758 Y136.378 E9.72351 ; infill
G1 X140.628 Y134.508 E9.84736 ; infill
G1 X140.628 Y133.712 E9.88468 ; infill
G1 X137.962 Y136.378 E10.06130 ; infill
G1 X137.165 Y136.378 E10.09862 ; infill
G1 X140.628 Y132.915 E10.32801 ; infill
G1 X140.628 Y132.118 E10.36532 ; infill
G1 X136.368 Y136.378 E10.64749 ; infill
G1 X135.572 Y136.378 E10.68481 ; infill
G1 X140.628 Y131.322 E11.01974 ; infill
G1 X140.628 Y130.525 E11.05706 ; infill
G1 X134.775 Y136.378 E11.44477 ; infill
G1 X133.978 Y136.378 E11.48208 ; infill
G1 X137.734 Y132.622 E11.73089 ; infill
G1 X136.938 Y132.622 E11.76820 ; infill
G1 X133.182 Y136.378 E12.01701 ; infill
G1 X132.385 Y136.378 E12.05433 ; infill
G1 X136.141 Y132.622 E12.30313 ; infill
G1 X135.345 Y132.622 E12.34045 ; infill
G1 X131.588 Y136.378 E12.58926 ; infill
G1 X130.792 Y136.378 E12.62657 ; infill
G1 X134.548 Y132.622 E12.87538 ; infill
G1 X133.751 Y132.622 E12.91269 ; infill
G1 X129.995 Y136.378 E13.16150 ; infill
G1 X129.199 Y136.378 E13.19882 ; infill
G1 X131.455 Y134.122 E13.34826 ; infill
G1 X130.658 Y134.122 E13.38558 ; infill
G1 X128.402 Y136.378 E13.53502 ; infill
G1 X127.605 Y136.378 E13.57234 ; infill
G1 X129.861 Y134.122 E13.72178 ; infill
G1 X129.065 Y134.122 E13.75910 ; infill
G1 X126.809 Y136.378 E13.90854 ; infill
G1 X126.012 Y136.378 E13.94586 ; infill
G1 X128.268 Y134.122 E14.09530 ; infill
G1 X127.628 Y133.965 E14.12616 ; infill
G1 X125.215 Y136.378 E14.28599 ; infill
G1 X124.419 Y136.378 E14.32330 ; infill
G1 X127.628 Y133.169 E14.53590 ; infill
G1 X127.378 Y132.622 E14.56405 ; infill
G1 X123.622 Y136.378 E14.81286 ; infill
G1 X122.825 Y136.378 E14.85018 ; infill
G1 X126.581 Y132.622 E15.09898 ; infill
G1 X125.785 Y132.622 E15.13630 ; infill
G1 X122.029 Y136.378 E15.38511 ; infill
G1 X121.232 Y136.378 E15.42242 ; infill
G1 X124.988 Y132.622 E15.67123 ; infill
G1 X124.191 Y132.622 E15.70855 ; infill
G1 X120.435 Y136.378 E15.95735 ; infill
G1 X119.639 Y136.378 E15.99467 ; infill
G1 X123.395 Y132.622 E16.24347 ; infill
G1 X122.598 Y132.622 E16.28079 ; infill
G1 X119.372 Y135.848 E16.49449 ; infill
G1 X119.372 Y135.051 E16.53181 ; infill
G1 X121.801 Y132.622 E16.69274 ; infill
G1 X121.628 Y131.999 E16.72304 ; infill
G1 X119.372 Y134.255 E16.87249 ; infill
G1 X119.372 Y133.458 E16.90980 ; infill
G1 X121.628 Y131.202 E17.05925 ; infill
G1 X121.628 Y130.405 E17.09656 ; infill
G1 X119.372 Y132.661 E17.24601 ; infill
G1 X119.372 Y131.865 E17.28332 ; infill
G1 X121.628 Y129.609 E17.43277 ; infill
G1 X121.628 Y128.812 E17.47008 ; infill
G1 X119.372 Y131.068 E17.61953 ; infill
G1 X119.372 Y130.272 E17.65684 ; infill
G1 X121.628 Y128.015 E17.80628 ; infill
G1 X121.628 Y127.219 E17.84360 ; infill
G1 X119.372 Y129.475 E17.99304 ; infill
G1 X119.372 Y128.678 E18.03036 ; infill
G1 X121.628 Y126.422 E18.17980 ; infill
G1 X122.172 Y125.878 F6000.000 ; move to first infill point
G1 X124.428 Y123.622 E18.32925 F2481.968 ; infill
G1 X123.632 Y123.622 E18.36656 ; infill
G1 X119.372 Y127.882 E18.64873 ; infill
G1 X119.372 Y127.085 E18.68604 ; infill
G1 X122.835 Y123.622 E18.91543 ; infill
G1 X122.038 Y123.622 E18.95275 ; infill
G1 X119.372 Y126.288 E19.12937 ; infill
G1 X119.372 Y125.492 E19.16668 ; infill
G1 X121.242 Y123.622 E19.29053 ; infill
G1 X120.445 Y123.622 E19.32784 ; infill
G1 X119.372 Y124.695 E19.39892 ; infill
G1 X119.372 Y123.898 E19.43623 ; infill
G1 X119.648 Y123.622 E19.45454 ; infill
G1 X122.969 Y125.878 F6000.000 ; move to first infill point
G1 X125.225 Y123.622 E19.60398 F2481.968 ; infill
G1 X126.022 Y123.622 E19.64130 ; infill
G1 X123.765 Y125.878 E19.79074 ; infill
G1 X124.562 Y125.878 E19.82806 ; infill
G1 X126.818 Y123.622 E19.97750 ; infill
G1 X127.615 Y123.622 E20.01482 ; infill
G1 X125.359 Y125.878 E20.16426 ; infill
G1 X126.155 Y125.878 E20.20158 ; infill
G1 X128.411 Y123.622 E20.35102 ; infill
G1 X129.208 Y123.622 E20.38834 ; infill
G1 X126.952 Y125.878 E20.53778 ; infill
G1 X127.749 Y125.878 E20.57509 ; infill
G1 X130.005 Y123.622 E20.72454 ; infill
G1 X130.801 Y123.622 E20.76185 ; infill
G1 X128.545 Y125.878 E20.91130 ; infill
G1 X129.342 Y125.878 E20.94861 ; infill
G1 X131.598 Y123.622 E21.09806 ; infill
G1 X132.395 Y123.622 E21.13537 ; infill
G1 X130.139 Y125.878 E21.28482 ; infill
G1 X130.935 Y125.878 E21.32213 ; infill
G1 X133.191 Y123.622 E21.47158 ; infill
G1 X133.988 Y123.622 E21.50889 ; infill
G1 X131.732 Y125.878 E21.65834 ; infill
G1 X132.529 Y125.878 E21.69565 ; infill
G1 X134.785 Y123.622 E21.84510 ; infill
G1 X135.581 Y123.622 E21.88241 ; infill
G1 X133.325 Y125.878 E22.03186 ; infill
G1 X134.122 Y125.878 E22.06917 ; infill
G1 X136.378 Y123.622 E22.21862 ; infill
G1 X137.175 Y123.622 E22.25593 ; infill
G1 X134.919 Y125.878 E22.40538 ; infill
G1 X135.715 Y125.878 E22.44269 ; infill
G1 X137.971 Y123.622 E22.59214 ; infill
G1 X138.768 Y123.622 E22.62945 ; infill
G1 X136.512 Y125.878 E22.77890 ; infill
G1 X137.309 Y125.878 E22.81621 ; infill
G1 X139.565 Y123.622 E22.96566 ; infill
G1 X140.361 Y123.622 E23.00297 ; infill
G1 X138.105 Y125.878 E23.15242 ; infill
G1 X138.372 Y126.408 F6000.000 ; move to first infill point
G1 X140.628 Y124.152 E23.30186 F2481.968 ; infill
G1 X140.628 Y124.949 E23.33917 ; infill
G1 X138.372 Y127.205 E23.48862 ; infill
G1 X138.372 Y128.001 E23.52593 ; infill
G1 X140.628 Y125.745 E23.67538 ; infill
G1 X140.628 Y126.542 E23.71269 ; infill
G1 X138.372 Y128.798 E23.86214 ; infill
G1 X138.372 Y129.595 E23.89945 ; infill
G1 X140.628 Y127.338 E24.04890 ; infill
