; generated by Slic3r 1.2.9 on 2018-10-22 at 21:15:25

; external perimeters extrusion width = 0.30mm
; perimeters extrusion width = 0.30mm
; infill extrusion width = 0.60mm
; solid infill extrusion width = 0.60mm
; top infill extrusion width = 0.45mm

M107 ; disable fan
M190 S60 ; set bed temperature
M104 S245 ; set temperature
G28 ; home all axes
G1 Z5 F5000 ; lift nozzle

M109 S245 ; wait for temperature to be reached
G21 ; set units to millimeters
G90 ; use absolute coordinates
M82 ; use absolute distances for extrusion
G92 E0 ; reset extrusion distance
G1 E-2.00000 F4800.00000 ; retract
G92 E0 ; reset extrusion distance
G1 Z0.500 F6000.000 ; lift Z
G1 X118.021 Y115.774 F6000.000 ; move to first skirt point
G1 Z0.300 F6000.000 ; restore layer Z
G1 E2.00000 F4800.00000 ; unretract
G1 X118.408 Y115.432 E2.03457 F1409.331 ; skirt
G1 X118.796 Y115.155 E2.06638 ; skirt
G1 X119.102 Y114.974 E2.09011 ; skirt
G1 X122.307 Y113.251 E2.33322 ; skirt
G1 X122.810 Y113.046 E2.36952 ; skirt
G1 X123.324 Y112.894 E2.40530 ; skirt
G1 X123.839 Y112.795 E2.44033 ; skirt
G1 X124.372 Y112.747 E2.47612 ; skirt
G1 X137.663 Y112.743 E3.36401 ; skirt
G1 X138.280 Y112.780 E3.40529 ; skirt
G1 X138.685 Y112.847 E3.43276 ; skirt
G1 X139.302 Y113.017 E3.47549 ; skirt
G1 X139.937 Y113.288 E3.52164 ; skirt
G1 X140.350 Y113.527 E3.55350 ; skirt
G1 X140.752 Y113.817 E3.58661 ; skirt
G1 X141.144 Y114.169 E3.62180 ; skirt
G1 X141.750 Y114.870 E3.68369 ; skirt
G1 X142.392 Y115.749 E3.75644 ; skirt
G1 X142.645 Y116.140 E3.78753 ; skirt
G1 X143.031 Y116.802 E3.83878 ; skirt
G1 X143.452 Y117.640 E3.90138 ; skirt
G1 X143.866 Y118.646 E3.97409 ; skirt
G1 X144.111 Y119.379 E4.02572 ; skirt
G1 X144.238 Y119.828 E4.05686 ; skirt
G1 X144.474 Y120.890 E4.12955 ; skirt
G1 X144.589 Y121.648 E4.18080 ; skirt
G1 X144.639 Y122.118 E4.21234 ; skirt
G1 X144.690 Y123.186 E4.28378 ; skirt
G1 X144.689 Y139.164 E5.35120 ; skirt
G1 X144.665 Y139.786 E5.39276 ; skirt
G1 X144.596 Y140.557 E5.44446 ; skirt
G1 X144.454 Y141.476 E5.50658 ; skirt
G1 X144.250 Y142.384 E5.56876 ; skirt
G1 X143.984 Y143.276 E5.63095 ; skirt
G1 X143.715 Y143.976 E5.68106 ; skirt
G1 X143.434 Y144.514 E5.72157 ; skirt
G1 X143.022 Y145.115 E5.77026 ; skirt
G1 X142.623 Y145.570 E5.81074 ; skirt
G1 X142.081 Y146.057 E5.85942 ; skirt
G1 X141.745 Y146.302 E5.88717 ; skirt
G1 X141.418 Y146.506 E5.91290 ; skirt
G1 X141.082 Y146.685 E5.93837 ; skirt
G1 X140.591 Y146.897 E5.97411 ; skirt
G1 X140.197 Y147.029 E6.00186 ; skirt
G1 X139.827 Y147.124 E6.02737 ; skirt
G1 X139.444 Y147.195 E6.05336 ; skirt
G1 X138.917 Y147.249 E6.08880 ; skirt
G1 X121.761 Y147.251 E7.23488 ; skirt
G1 X121.154 Y147.188 E7.27566 ; skirt
G1 X120.587 Y147.068 E7.31437 ; skirt
G1 X120.040 Y146.891 E7.35279 ; skirt
G1 X119.505 Y146.655 E7.39187 ; skirt
G1 X118.879 Y146.286 E7.44042 ; skirt
G1 X118.419 Y145.937 E7.47898 ; skirt
G1 X117.997 Y145.543 E7.51753 ; skirt
G1 X117.619 Y145.108 E7.55606 ; skirt
G1 X117.373 Y144.768 E7.58406 ; skirt
G1 X117.093 Y144.303 E7.62032 ; skirt
G1 X116.909 Y143.927 E7.64832 ; skirt
G1 X116.702 Y143.388 E7.68686 ; skirt
G1 X115.488 Y138.968 E7.99311 ; skirt
G1 X115.400 Y138.569 E8.02036 ; skirt
G1 X115.330 Y138.046 E8.05565 ; skirt
G1 X115.310 Y137.564 E8.08787 ; skirt
G1 X115.310 Y121.834 E9.13870 ; skirt
G1 X115.346 Y121.273 E9.17624 ; skirt
G1 X115.438 Y120.719 E9.21376 ; skirt
G1 X115.585 Y120.177 E9.25128 ; skirt
G1 X115.786 Y119.653 E9.28879 ; skirt
G1 X117.186 Y116.874 E9.49665 ; skirt
G1 X117.401 Y116.522 E9.52421 ; skirt
G1 X117.685 Y116.140 E9.55601 ; skirt
G1 X117.980 Y115.819 E9.58516 ; skirt
G1 X118.395 Y116.157 F6000.000 ; move to first skirt point
G1 X118.742 Y115.851 E9.61604 F1409.331 ; skirt
G1 X119.084 Y115.606 E9.64414 ; skirt
G1 X119.356 Y115.445 E9.66528 ; skirt
G1 X122.532 Y113.737 E9.90617 ; skirt
G1 X122.986 Y113.552 E9.93892 ; skirt
G1 X123.449 Y113.415 E9.97119 ; skirt
G1 X123.913 Y113.325 E10.00273 ; skirt
G1 X124.391 Y113.282 E10.03482 ; skirt
G1 X137.663 Y113.278 E10.92144 ; skirt
G1 X138.201 Y113.310 E10.95744 ; skirt
G1 X138.578 Y113.372 E10.98300 ; skirt
G1 X139.128 Y113.523 E11.02108 ; skirt
G1 X139.691 Y113.764 E11.06200 ; skirt
G1 X140.059 Y113.976 E11.09035 ; skirt
G1 X140.417 Y114.235 E11.11991 ; skirt
G1 X140.764 Y114.546 E11.15101 ; skirt
G1 X141.334 Y115.207 E11.20936 ; skirt
G1 X141.944 Y116.042 E11.27841 ; skirt
G1 X142.187 Y116.418 E11.30828 ; skirt
G1 X142.564 Y117.064 E11.35830 ; skirt
G1 X142.968 Y117.869 E11.41845 ; skirt
G1 X143.361 Y118.825 E11.48747 ; skirt
G1 X143.600 Y119.540 E11.53787 ; skirt
G1 X143.722 Y119.971 E11.56779 ; skirt
G1 X143.946 Y120.979 E11.63680 ; skirt
G1 X144.058 Y121.720 E11.68682 ; skirt
G1 X144.106 Y122.171 E11.71713 ; skirt
G1 X144.155 Y123.186 E11.78503 ; skirt
G1 X144.155 Y138.853 E12.83168 ; skirt
G1 X144.139 Y139.607 E12.88208 ; skirt
G1 X144.096 Y140.193 E12.92128 ; skirt
G1 X143.981 Y141.079 E12.98101 ; skirt
G1 X143.805 Y141.956 E13.04074 ; skirt
G1 X143.569 Y142.818 E13.10047 ; skirt
G1 X143.283 Y143.629 E13.15792 ; skirt
G1 X142.973 Y144.241 E13.20375 ; skirt
G1 X142.602 Y144.782 E13.24757 ; skirt
G1 X142.239 Y145.197 E13.28440 ; skirt
G1 X141.751 Y145.635 E13.32821 ; skirt
G1 X141.444 Y145.858 E13.35353 ; skirt
G1 X141.149 Y146.043 E13.37680 ; skirt
G1 X140.845 Y146.205 E13.39983 ; skirt
G1 X140.403 Y146.395 E13.43195 ; skirt
G1 X140.044 Y146.516 E13.45726 ; skirt
G1 X139.709 Y146.602 E13.48034 ; skirt
G1 X139.364 Y146.666 E13.50383 ; skirt
G1 X138.889 Y146.714 E13.53568 ; skirt
G1 X121.789 Y146.716 E14.67809 ; skirt
G1 X121.236 Y146.659 E14.71519 ; skirt
G1 X120.724 Y146.550 E14.75016 ; skirt
G1 X120.229 Y146.390 E14.78495 ; skirt
G1 X119.745 Y146.176 E14.82029 ; skirt
G1 X119.181 Y145.844 E14.86400 ; skirt
G1 X118.765 Y145.529 E14.89887 ; skirt
G1 X118.384 Y145.172 E14.93374 ; skirt
G1 X118.041 Y144.779 E14.96859 ; skirt
G1 X117.817 Y144.469 E14.99413 ; skirt
G1 X117.566 Y144.051 E15.02671 ; skirt
G1 X117.398 Y143.708 E15.05226 ; skirt
G1 X117.211 Y143.221 E15.08712 ; skirt
G1 X116.007 Y138.835 E15.39092 ; skirt
G1 X115.927 Y138.472 E15.41578 ; skirt
G1 X115.864 Y138.001 E15.44749 ; skirt
G1 X115.845 Y137.564 E15.47674 ; skirt
G1 X115.846 Y121.843 E16.52696 ; skirt
G1 X115.878 Y121.336 E16.56091 ; skirt
G1 X115.961 Y120.835 E16.59485 ; skirt
G1 X116.094 Y120.345 E16.62878 ; skirt
G1 X116.289 Y119.840 E16.66494 ; skirt
G1 X117.655 Y117.133 E16.86751 ; skirt
G1 X117.846 Y116.819 E16.89202 ; skirt
G1 X118.098 Y116.482 E16.92012 ; skirt
G1 X118.355 Y116.201 E16.94558 ; skirt
G1 X118.770 Y116.539 F6000.000 ; move to first skirt point
G1 X119.075 Y116.270 E16.97276 F1409.331 ; skirt
G1 X119.373 Y116.058 E16.99717 ; skirt
G1 X119.611 Y115.916 E17.01570 ; skirt
G1 X122.652 Y114.274 E17.24656 ; skirt
G1 X123.060 Y114.095 E17.27636 ; skirt
G1 X123.466 Y113.963 E17.30488 ; skirt
G1 X123.880 Y113.872 E17.33316 ; skirt
G1 X124.394 Y113.818 E17.36771 ; skirt
G1 X137.663 Y113.814 E18.25412 ; skirt
G1 X138.030 Y113.831 E18.27865 ; skirt
G1 X138.471 Y113.897 E18.30848 ; skirt
G1 X138.935 Y114.023 E18.34061 ; skirt
G1 X139.445 Y114.240 E18.37762 ; skirt
G1 X139.767 Y114.425 E18.40244 ; skirt
G1 X140.083 Y114.653 E18.42847 ; skirt
G1 X140.384 Y114.923 E18.45547 ; skirt
G1 X140.919 Y115.545 E18.51027 ; skirt
G1 X141.496 Y116.335 E18.57565 ; skirt
G1 X141.729 Y116.695 E18.60428 ; skirt
G1 X142.097 Y117.326 E18.65309 ; skirt
G1 X142.483 Y118.098 E18.71076 ; skirt
G1 X142.856 Y119.003 E18.77611 ; skirt
G1 X142.997 Y119.408 E18.80475 ; skirt
G1 X143.204 Y120.108 E18.85354 ; skirt
G1 X143.396 Y120.950 E18.91123 ; skirt
G1 X143.542 Y121.917 E18.97657 ; skirt
G1 X143.583 Y122.344 E19.00522 ; skirt
G1 X143.618 Y123.079 E19.05439 ; skirt
G1 X143.619 Y138.851 E20.10804 ; skirt
G1 X143.604 Y139.587 E20.15721 ; skirt
G1 X143.564 Y140.136 E20.19396 ; skirt
G1 X143.453 Y140.986 E20.25124 ; skirt
G1 X143.285 Y141.826 E20.30851 ; skirt
G1 X143.059 Y142.654 E20.36579 ; skirt
G1 X142.789 Y143.422 E20.42021 ; skirt
G1 X142.512 Y143.969 E20.46120 ; skirt
G1 X142.182 Y144.450 E20.50015 ; skirt
G1 X141.854 Y144.824 E20.53333 ; skirt
G1 X141.421 Y145.213 E20.57227 ; skirt
G1 X140.880 Y145.580 E20.61593 ; skirt
G1 X140.607 Y145.724 E20.63653 ; skirt
G1 X140.216 Y145.894 E20.66503 ; skirt
G1 X139.592 Y146.079 E20.70852 ; skirt
G1 X139.170 Y146.152 E20.73714 ; skirt
G1 X138.828 Y146.181 E20.76005 ; skirt
G1 X121.938 Y146.185 E21.88840 ; skirt
G1 X121.472 Y146.151 E21.91959 ; skirt
G1 X121.013 Y146.070 E21.95078 ; skirt
G1 X120.450 Y145.901 E21.99004 ; skirt
G1 X120.021 Y145.716 E22.02122 ; skirt
G1 X119.585 Y145.469 E22.05471 ; skirt
G1 X119.204 Y145.196 E22.08598 ; skirt
G1 X118.771 Y144.802 E22.12515 ; skirt
G1 X118.464 Y144.450 E22.15633 ; skirt
G1 X118.261 Y144.170 E22.17941 ; skirt
G1 X118.039 Y143.799 E22.20831 ; skirt
G1 X117.886 Y143.489 E22.23140 ; skirt
G1 X117.720 Y143.053 E22.26258 ; skirt
G1 X116.526 Y138.703 E22.56394 ; skirt
G1 X116.454 Y138.374 E22.58641 ; skirt
G1 X116.398 Y137.957 E22.61453 ; skirt
G1 X116.381 Y137.564 E22.64082 ; skirt
G1 X116.381 Y121.853 E23.69042 ; skirt
G1 X116.410 Y121.399 E23.72079 ; skirt
G1 X116.484 Y120.951 E23.75114 ; skirt
G1 X116.603 Y120.512 E23.78149 ; skirt
G1 X116.778 Y120.057 E23.81406 ; skirt
G1 X118.124 Y117.391 E24.01357 ; skirt
G1 X118.292 Y117.117 E24.03504 ; skirt
G1 X118.510 Y116.824 E24.05944 ; skirt
G1 X118.730 Y116.584 E24.08121 ; skirt
G1 E22.08121 F4800.00000 ; retract
G92 E0 ; reset extrusion distance
G1 Z0.800 F6000.000 ; lift Z
G1 X123.034 Y142.351 F6000.000 ; move to first perimeter point
G1 Z0.300 F6000.000 ; restore layer Z
G1 E2.00000 F4800.00000 ; unretract
G1 X122.053 Y142.351 E2.06553 F1409.331 ; perimeter
G1 X121.839 Y142.321 E2.08001 ; perimeter
G1 X121.712 Y142.271 E2.08908 ; perimeter
G1 X121.572 Y142.175 E2.10043 ; perimeter
G1 X121.461 Y142.050 E2.11160 ; perimeter
G1 X121.381 Y141.900 E2.12296 ; perimeter
G1 X120.477 Y138.608 E2.35105 ; perimeter
G1 X120.679 Y138.481 E2.36700 ; perimeter
G1 X121.012 Y138.771 E2.39649 ; perimeter
G1 X121.241 Y138.886 E2.41363 ; perimeter
G1 X121.970 Y139.616 E2.48255 ; perimeter
G1 X121.982 Y140.815 E2.56269 ; perimeter
G1 X122.080 Y141.182 E2.58805 ; perimeter
G1 X122.261 Y141.508 E2.61297 ; perimeter
G1 X122.442 Y141.716 E2.63138 ; perimeter
G1 X122.652 Y141.887 E2.64945 ; perimeter
G1 X122.891 Y142.019 E2.66768 ; perimeter
G1 X123.077 Y142.080 E2.68078 ; perimeter
G1 X123.044 Y142.291 E2.69511 ; perimeter
G1 X122.699 Y142.133 F6000.000 ; move inwards before travel
G1 X120.428 Y138.284 F6000.000 ; move to first perimeter point
G1 X120.323 Y137.642 E2.73860 F1409.331 ; perimeter
G1 X120.336 Y137.443 E2.75193 ; perimeter
G1 X120.372 Y137.294 E2.76218 ; perimeter
G1 X120.597 Y136.773 E2.80006 ; perimeter
G1 X120.863 Y136.614 F6000.000 ; move to first perimeter point
G1 X120.696 Y136.450 E2.81574 F1409.331 ; perimeter
G1 X121.454 Y134.951 E2.92795 ; perimeter
G1 X121.969 Y134.951 E2.96239 ; perimeter
G1 X121.969 Y135.686 E3.01149 ; perimeter
G1 X121.239 Y136.417 E3.08048 ; perimeter
G1 X120.916 Y136.586 E3.10483 ; perimeter
G1 X120.824 Y136.383 F6000.000 ; move inwards before travel
G1 E1.10483 F4800.00000 ; retract
G92 E0 ; reset extrusion distance
G1 Z0.800 F6000.000 ; lift Z
G1 X124.327 Y134.533 F6000.000 ; move to first perimeter point
G1 Z0.300 F6000.000 ; restore layer Z
G1 E2.00000 F4800.00000 ; unretract
G1 X124.232 Y133.457 E2.07216 F1409.331 ; perimeter
G1 X124.344 Y133.371 E2.08159 ; perimeter
G1 X124.478 Y133.316 E2.09125 ; perimeter
G1 X124.598 Y133.302 E2.09932 ; perimeter
G1 X124.854 Y133.610 E2.12609 ; perimeter
G1 X125.204 Y134.088 E2.16565 ; perimeter
G1 X125.517 Y134.606 E2.20608 ; perimeter
G1 X125.324 Y134.784 E2.22364 ; perimeter
G1 X125.110 Y134.629 E2.24130 ; perimeter
G1 X124.836 Y134.535 E2.26064 ; perimeter
G1 X124.622 Y134.517 E2.27497 ; perimeter
G1 X124.387 Y134.530 E2.29071 ; perimeter
G1 X124.500 Y134.172 F6000.000 ; move inwards before travel
G1 X125.608 Y134.930 F6000.000 ; move to first perimeter point
G1 X126.016 Y135.852 E2.35804 F1409.331 ; perimeter
G1 X126.247 Y136.527 E2.40570 ; perimeter
G1 X126.394 Y137.095 E2.44493 ; perimeter
G1 X126.480 Y137.535 E2.47487 ; perimeter
G1 X126.554 Y138.086 E2.51200 ; perimeter
G1 X126.595 Y138.695 E2.55276 ; perimeter
G1 X126.586 Y139.426 E2.60159 ; perimeter
G1 X126.491 Y140.308 E2.66087 ; perimeter
G1 X126.304 Y141.247 E2.72485 ; perimeter
G1 X126.049 Y141.451 F6000.000 ; move to first perimeter point
G1 X126.290 Y141.580 E2.74312 F1409.331 ; perimeter
G1 X126.172 Y141.924 E2.76745 ; perimeter
G1 X126.065 Y142.099 E2.78113 ; perimeter
G1 X125.892 Y142.248 E2.79643 ; perimeter
G1 X125.786 Y142.301 E2.80436 ; perimeter
G1 X125.674 Y142.334 E2.81212 ; perimeter
G1 X125.515 Y142.351 E2.82284 ; perimeter
G1 X125.242 Y142.351 E2.84106 ; perimeter
G1 X125.198 Y142.081 E2.85931 ; perimeter
G1 X125.376 Y142.021 E2.87189 ; perimeter
G1 X125.724 Y141.810 E2.89906 ; perimeter
G1 X125.918 Y141.623 E2.91706 ; perimeter
G1 X126.012 Y141.499 E2.92748 ; perimeter
G1 X126.181 Y141.690 F6000.000 ; move inwards before travel
G1 X124.921 Y142.247 F6000.000 ; move to first perimeter point
G1 X123.354 Y142.251 E3.03218 F1409.331 ; perimeter
G1 X122.307 Y142.115 F6000.000 ; move to first infill point
G1 X121.935 Y141.852 E3.09664 F1409.331 ; infill
G1 X121.858 Y141.773 E3.11233 ; infill
G1 X121.658 Y141.301 E3.18488 ; infill
G1 X121.558 Y140.943 F6000.000 ; move to first infill point
G1 X121.406 Y139.853 E3.34084 F1409.331 ; infill
G1 X121.083 Y139.296 E3.43204 ; infill
G1 E1.43204 F4800.00000 ; retract
G92 E0 ; reset extrusion distance
G1 Z0.800 F6000.000 ; lift Z
G1 X136.118 Y142.351 F6000.000 ; move to first perimeter point
G1 Z0.300 F6000.000 ; restore layer Z
G1 E2.00000 F4800.00000 ; unretract
G1 X135.137 Y142.351 E2.06553 F1409.331 ; perimeter
G1 X134.922 Y142.321 E2.08001 ; perimeter
G1 X134.796 Y142.271 E2.08908 ; perimeter
G1 X134.656 Y142.175 E2.10043 ; perimeter
G1 X134.544 Y142.050 E2.11160 ; perimeter
G1 X134.464 Y141.900 E2.12296 ; perimeter
G1 X133.561 Y138.608 E2.35105 ; perimeter
G1 X133.763 Y138.481 E2.36700 ; perimeter
G1 X134.095 Y138.771 E2.39649 ; perimeter
G1 X134.325 Y138.886 E2.41363 ; perimeter
G1 X135.054 Y139.616 E2.48255 ; perimeter
G1 X135.065 Y140.815 E2.56269 ; perimeter
G1 X135.164 Y141.182 E2.58805 ; perimeter
G1 X135.345 Y141.508 E2.61297 ; perimeter
G1 X135.525 Y141.716 E2.63138 ; perimeter
G1 X135.735 Y141.887 E2.64945 ; perimeter
G1 X135.974 Y142.019 E2.66768 ; perimeter
G1 X136.161 Y142.080 E2.68078 ; perimeter
G1 X136.127 Y142.291 E2.69511 ; perimeter
G1 X135.782 Y142.133 F6000.000 ; move inwards before travel
G1 X133.511 Y138.284 F6000.000 ; move to first perimeter point
G1 X133.407 Y137.642 E2.73860 F1409.331 ; perimeter
G1 X133.420 Y137.443 E2.75193 ; perimeter
G1 X133.456 Y137.294 E2.76218 ; perimeter
G1 X133.680 Y136.773 E2.80006 ; perimeter
G1 X133.947 Y136.614 F6000.000 ; move to first perimeter point
G1 X133.780 Y136.450 E2.81574 F1409.331 ; perimeter
G1 X134.537 Y134.951 E2.92795 ; perimeter
G1 X135.053 Y134.951 E2.96239 ; perimeter
G1 X135.053 Y135.686 E3.01149 ; perimeter
G1 X134.323 Y136.417 E3.08048 ; perimeter
G1 X134.000 Y136.586 E3.10483 ; perimeter
G1 X133.908 Y136.383 F6000.000 ; move inwards before travel
G1 E1.10483 F4800.00000 ; retract
G92 E0 ; reset extrusion distance
G1 Z0.800 F6000.000 ; lift Z
G1 X137.411 Y134.533 F6000.000 ; move to first perimeter point
G1 Z0.300 F6000.000 ; restore layer Z
G1 E2.00000 F4800.00000 ; unretract
G1 X137.316 Y133.457 E2.07216 F1409.331 ; perimeter
G1 X137.428 Y133.371 E2.08159 ; perimeter
G1 X137.562 Y133.316 E2.09125 ; perimeter
G1 X137.682 Y133.302 E2.09932 ; perimeter
