; generated by Slic3r 1.2.9 on 2018-10-23 at 16:46:32

; external perimeters extrusion width = 0.30mm
; perimeters extrusion width = 0.30mm
; infill extrusion width = 0.60mm
; solid infill extrusion width = 0.60mm
; top infill extrusion width = 0.45mm

M107 ; disable fan
M190 S60 ; set bed temperature
M104 S240 ; set temperature
G28 ; home all axes
G1 Z5 F5000 ; lift nozzle

M109 S240 ; wait for temperature to be reached
G21 ; set units to millimeters
G90 ; use absolute coordinates
M82 ; use absolute distances for extrusion
G92 E0 ; reset extrusion distance
G1 E-2.00000 F4800.00000 ; retract
G92 E0 ; reset extrusion distance
G1 Z0.500 F6000.000 ; lift Z
G1 X106.240 Y125.146 F6000.000 ; move to first skirt point
G1 Z0.300 F6000.000 ; restore layer Z
G1 E2.00000 F4800.00000 ; unretract
G1 X106.840 Y124.678 E2.05083 F1800.000 ; skirt
G1 X107.097 Y124.511 E2.07131 ; skirt
G1 X107.766 Y124.149 E2.12214 ; skirt
G1 X108.047 Y124.025 E2.14262 ; skirt
G1 X108.766 Y123.778 E2.19345 ; skirt
G1 X109.064 Y123.703 E2.21394 ; skirt
G1 X109.774 Y123.579 E2.26214 ; skirt
G1 X145.711 Y120.570 E4.67133 ; skirt
G1 X146.308 Y120.541 E4.71124 ; skirt
G1 X146.741 Y120.543 E4.74017 ; skirt
G1 X147.249 Y120.570 E4.77412 ; skirt
G1 X147.728 Y120.620 E4.80634 ; skirt
G1 X148.230 Y120.700 E4.84030 ; skirt
G1 X148.702 Y120.800 E4.87251 ; skirt
G1 X149.193 Y120.932 E4.90647 ; skirt
G1 X149.652 Y121.081 E4.93869 ; skirt
G1 X150.126 Y121.263 E4.97265 ; skirt
G1 X150.567 Y121.459 E5.00486 ; skirt
G1 X151.020 Y121.690 E5.03881 ; skirt
G1 X151.437 Y121.931 E5.07103 ; skirt
G1 X151.864 Y122.208 E5.10499 ; skirt
G1 X152.254 Y122.491 E5.13720 ; skirt
G1 X152.649 Y122.811 E5.17117 ; skirt
G1 X153.007 Y123.134 E5.20337 ; skirt
G1 X153.366 Y123.493 E5.23733 ; skirt
G1 X153.689 Y123.851 E5.26955 ; skirt
G1 X154.009 Y124.247 E5.30353 ; skirt
G1 X154.292 Y124.636 E5.33572 ; skirt
G1 X154.570 Y125.063 E5.36970 ; skirt
G1 X154.810 Y125.480 E5.40189 ; skirt
G1 X155.041 Y125.933 E5.43586 ; skirt
G1 X155.237 Y126.374 E5.46806 ; skirt
G1 X155.420 Y126.849 E5.50206 ; skirt
G1 X155.568 Y127.307 E5.53424 ; skirt
G1 X155.700 Y127.798 E5.56819 ; skirt
G1 X155.800 Y128.270 E5.60041 ; skirt
G1 X155.880 Y128.772 E5.63437 ; skirt
G1 X155.930 Y129.251 E5.66658 ; skirt
G1 X155.957 Y129.759 E5.70054 ; skirt
G1 X155.957 Y130.241 E5.73275 ; skirt
G1 X155.930 Y130.749 E5.76671 ; skirt
G1 X155.880 Y131.228 E5.79893 ; skirt
G1 X155.800 Y131.730 E5.83288 ; skirt
G1 X155.700 Y132.202 E5.86510 ; skirt
G1 X155.568 Y132.694 E5.89910 ; skirt
G1 X155.419 Y133.152 E5.93127 ; skirt
G1 X155.237 Y133.626 E5.96523 ; skirt
G1 X155.041 Y134.067 E5.99744 ; skirt
G1 X154.810 Y134.520 E6.03140 ; skirt
G1 X154.569 Y134.937 E6.06361 ; skirt
G1 X154.292 Y135.364 E6.09761 ; skirt
G1 X154.009 Y135.754 E6.12979 ; skirt
G1 X153.689 Y136.149 E6.16374 ; skirt
G1 X153.366 Y136.507 E6.19596 ; skirt
G1 X153.007 Y136.866 E6.22992 ; skirt
G1 X152.649 Y137.189 E6.26213 ; skirt
G1 X152.254 Y137.509 E6.29609 ; skirt
G1 X151.864 Y137.792 E6.32831 ; skirt
G1 X151.437 Y138.069 E6.36226 ; skirt
G1 X151.020 Y138.310 E6.39448 ; skirt
G1 X150.567 Y138.541 E6.42844 ; skirt
G1 X150.126 Y138.737 E6.46065 ; skirt
G1 X149.652 Y138.919 E6.49461 ; skirt
G1 X149.193 Y139.068 E6.52682 ; skirt
G1 X148.702 Y139.200 E6.56078 ; skirt
G1 X148.230 Y139.300 E6.59299 ; skirt
G1 X147.728 Y139.380 E6.62695 ; skirt
G1 X147.249 Y139.430 E6.65917 ; skirt
G1 X146.741 Y139.457 E6.69312 ; skirt
G1 X146.308 Y139.459 E6.72207 ; skirt
G1 X145.711 Y139.430 E6.76196 ; skirt
G1 X109.774 Y136.421 E9.17119 ; skirt
G1 X109.064 Y136.297 E9.21936 ; skirt
G1 X108.766 Y136.222 E9.23986 ; skirt
G1 X108.047 Y135.975 E9.29067 ; skirt
G1 X107.766 Y135.851 E9.31115 ; skirt
G1 X107.097 Y135.489 E9.36198 ; skirt
G1 X106.840 Y135.322 E9.38247 ; skirt
G1 X106.240 Y134.854 E9.43329 ; skirt
G1 X106.014 Y134.646 E9.45380 ; skirt
G1 X105.499 Y134.087 E9.50460 ; skirt
G1 X105.311 Y133.845 E9.52508 ; skirt
G1 X104.894 Y133.208 E9.57591 ; skirt
G1 X104.748 Y132.938 E9.59639 ; skirt
G1 X104.443 Y132.241 E9.64723 ; skirt
G1 X104.343 Y131.952 E9.66771 ; skirt
G1 X104.156 Y131.214 E9.71854 ; skirt
G1 X104.106 Y130.911 E9.73904 ; skirt
G1 X104.043 Y130.153 E9.78985 ; skirt
G1 X104.043 Y129.847 E9.81033 ; skirt
G1 X104.106 Y129.088 E9.86116 ; skirt
G1 X104.156 Y128.786 E9.88164 ; skirt
G1 X104.343 Y128.048 E9.93247 ; skirt
G1 X104.443 Y127.758 E9.95298 ; skirt
G1 X104.748 Y127.062 E10.00378 ; skirt
G1 X104.894 Y126.792 E10.02427 ; skirt
G1 X105.311 Y126.155 E10.07509 ; skirt
G1 X105.499 Y125.913 E10.09558 ; skirt
G1 X106.014 Y125.353 E10.14640 ; skirt
G1 X106.196 Y125.186 E10.16288 ; skirt
G1 X106.602 Y125.540 F6000.000 ; move to first skirt point
G1 X107.133 Y125.127 E10.20779 F1800.000 ; skirt
G1 X107.390 Y124.959 E10.22828 ; skirt
G1 X107.981 Y124.639 E10.27320 ; skirt
G1 X108.262 Y124.516 E10.29368 ; skirt
G1 X108.898 Y124.298 E10.33860 ; skirt
G1 X109.195 Y124.222 E10.35909 ; skirt
G1 X109.841 Y124.110 E10.40286 ; skirt
G1 X145.756 Y121.104 E12.81059 ; skirt
G1 X146.713 Y121.078 E12.87455 ; skirt
G1 X147.644 Y121.149 E12.93695 ; skirt
G1 X148.563 Y121.317 E12.99936 ; skirt
G1 X149.460 Y121.581 E13.06177 ; skirt
G1 X150.324 Y121.936 E13.12417 ; skirt
G1 X151.145 Y122.380 E13.18658 ; skirt
G1 X151.572 Y122.657 E13.22054 ; skirt
G1 X152.312 Y123.227 E13.28295 ; skirt
G1 X152.988 Y123.872 E13.34535 ; skirt
G1 X153.593 Y124.584 E13.40777 ; skirt
G1 X154.120 Y125.355 E13.47018 ; skirt
G1 X154.564 Y126.177 E13.53257 ; skirt
G1 X154.920 Y127.041 E13.59500 ; skirt
G1 X155.183 Y127.937 E13.65738 ; skirt
G1 X155.351 Y128.855 E13.71978 ; skirt
G1 X155.422 Y129.787 E13.78219 ; skirt
G1 X155.422 Y130.213 E13.81066 ; skirt
G1 X155.351 Y131.145 E13.87306 ; skirt
G1 X155.183 Y132.063 E13.93547 ; skirt
G1 X155.051 Y132.555 E13.96946 ; skirt
G1 X154.737 Y133.434 E14.03183 ; skirt
G1 X154.564 Y133.824 E14.06030 ; skirt
G1 X154.120 Y134.645 E14.12271 ; skirt
G1 X153.843 Y135.072 E14.15670 ; skirt
G1 X153.273 Y135.812 E14.21907 ; skirt
G1 X152.628 Y136.488 E14.28148 ; skirt
G1 X151.917 Y137.093 E14.34388 ; skirt
G1 X151.572 Y137.343 E14.37235 ; skirt
G1 X150.776 Y137.833 E14.43476 ; skirt
G1 X149.934 Y138.237 E14.49716 ; skirt
G1 X149.054 Y138.551 E14.55957 ; skirt
G1 X148.563 Y138.683 E14.59353 ; skirt
G1 X148.147 Y138.771 E14.62200 ; skirt
G1 X147.221 Y138.895 E14.68440 ; skirt
G1 X146.330 Y138.924 E14.74392 ; skirt
G1 X145.756 Y138.896 E14.78232 ; skirt
G1 X109.840 Y135.890 E17.19009 ; skirt
G1 X109.195 Y135.778 E17.23383 ; skirt
G1 X108.898 Y135.702 E17.25433 ; skirt
G1 X108.262 Y135.484 E17.29923 ; skirt
G1 X107.981 Y135.361 E17.31972 ; skirt
G1 X107.390 Y135.041 E17.36464 ; skirt
G1 X107.133 Y134.873 E17.38512 ; skirt
G1 X106.602 Y134.460 E17.43004 ; skirt
G1 X106.377 Y134.252 E17.45054 ; skirt
G1 X105.922 Y133.758 E17.49544 ; skirt
G1 X105.733 Y133.516 E17.51592 ; skirt
G1 X105.365 Y132.953 E17.56084 ; skirt
G1 X105.220 Y132.683 E17.58132 ; skirt
G1 X104.949 Y132.068 E17.62624 ; skirt
G1 X104.850 Y131.778 E17.64672 ; skirt
G1 X104.685 Y131.126 E17.69164 ; skirt
G1 X104.636 Y130.834 E17.71139 ; skirt
G1 X104.579 Y130.153 E17.75704 ; skirt
G1 X104.579 Y129.847 E17.77752 ; skirt
G1 X104.634 Y129.177 E17.82244 ; skirt
G1 X104.685 Y128.874 E17.84292 ; skirt
G1 X104.850 Y128.222 E17.88784 ; skirt
G1 X104.950 Y127.932 E17.90835 ; skirt
G1 X105.220 Y127.317 E17.95324 ; skirt
G1 X105.365 Y127.047 E17.97373 ; skirt
G1 X105.733 Y126.484 E18.01865 ; skirt
G1 X105.922 Y126.242 E18.03913 ; skirt
G1 X106.377 Y125.747 E18.08405 ; skirt
G1 X106.558 Y125.580 E18.10052 ; skirt
G1 X106.965 Y125.934 F6000.000 ; move to first skirt point
G1 X107.426 Y125.575 E18.13953 F1800.000 ; skirt
G1 X107.683 Y125.408 E18.16001 ; skirt
G1 X108.196 Y125.130 E18.19902 ; skirt
G1 X108.477 Y125.006 E18.21950 ; skirt
G1 X109.029 Y124.817 E18.25851 ; skirt
G1 X109.327 Y124.742 E18.27900 ; skirt
G1 X109.907 Y124.642 E18.31835 ; skirt
G1 X145.801 Y121.637 E20.72462 ; skirt
G1 X146.353 Y121.611 E20.76154 ; skirt
G1 X147.193 Y121.640 E20.81769 ; skirt
G1 X148.063 Y121.758 E20.87635 ; skirt
G1 X148.916 Y121.966 E20.93501 ; skirt
G1 X149.742 Y122.263 E20.99368 ; skirt
G1 X150.533 Y122.644 E21.05233 ; skirt
G1 X151.265 Y123.096 E21.10981 ; skirt
G1 X151.579 Y123.324 E21.13572 ; skirt
G1 X152.250 Y123.891 E21.19438 ; skirt
G1 X152.857 Y124.525 E21.25304 ; skirt
G1 X153.177 Y124.921 E21.28702 ; skirt
G1 X153.671 Y125.646 E21.34568 ; skirt
G1 X154.087 Y126.420 E21.40433 ; skirt
G1 X154.420 Y127.233 E21.46301 ; skirt
G1 X154.665 Y128.075 E21.52165 ; skirt
G1 X154.822 Y128.939 E21.58031 ; skirt
G1 X154.887 Y129.815 E21.63897 ; skirt
G1 X154.860 Y130.693 E21.69764 ; skirt
G1 X154.822 Y131.061 E21.72236 ; skirt
G1 X154.665 Y131.925 E21.78102 ; skirt
G1 X154.534 Y132.416 E21.81501 ; skirt
G1 X154.237 Y133.242 E21.87364 ; skirt
G1 X153.856 Y134.033 E21.93230 ; skirt
G1 X153.404 Y134.765 E21.98978 ; skirt
G1 X153.177 Y135.079 E22.01569 ; skirt
G1 X152.609 Y135.750 E22.07435 ; skirt
G1 X152.250 Y136.109 E22.10831 ; skirt
G1 X151.580 Y136.676 E22.16697 ; skirt
G1 X150.854 Y137.171 E22.22563 ; skirt
G1 X150.080 Y137.587 E22.28429 ; skirt
G1 X149.268 Y137.919 E22.34295 ; skirt
G1 X148.916 Y138.034 E22.36768 ; skirt
G1 X148.063 Y138.242 E22.42634 ; skirt
G1 X147.193 Y138.360 E22.48500 ; skirt
G1 X146.353 Y138.389 E22.54116 ; skirt
G1 X145.801 Y138.363 E22.57807 ; skirt
G1 X110.051 Y135.373 E24.97470 ; skirt
G1 X109.756 Y135.339 E24.99452 ; skirt
G1 X109.327 Y135.258 E25.02371 ; skirt
G1 X109.029 Y135.183 E25.04420 ; skirt
G1 X108.477 Y134.994 E25.08320 ; skirt
G1 X108.196 Y134.870 E25.10368 ; skirt
G1 X107.683 Y134.592 E25.14269 ; skirt
G1 X107.426 Y134.425 E25.16318 ; skirt
G1 X106.965 Y134.066 E25.20218 ; skirt
G1 X106.739 Y133.858 E25.22268 ; skirt
G1 X106.344 Y133.429 E25.26167 ; skirt
G1 X106.156 Y133.187 E25.28216 ; skirt
G1 X105.837 Y132.698 E25.32117 ; skirt
G1 X105.691 Y132.428 E25.34165 ; skirt
G1 X105.456 Y131.894 E25.38066 ; skirt
G1 X105.356 Y131.604 E25.40114 ; skirt
G1 X105.213 Y131.038 E25.44015 ; skirt
G1 X105.163 Y130.735 E25.46065 ; skirt
G1 X105.114 Y130.153 E25.49964 ; skirt
G1 X105.114 Y129.847 E25.52012 ; skirt
G1 X105.163 Y129.265 E25.55913 ; skirt
G1 X105.213 Y128.962 E25.57961 ; skirt
G1 X105.356 Y128.396 E25.61862 ; skirt
G1 X105.456 Y128.106 E25.63913 ; skirt
G1 X105.691 Y127.572 E25.67811 ; skirt
G1 X105.837 Y127.302 E25.69860 ; skirt
G1 X106.156 Y126.813 E25.73761 ; skirt
G1 X106.344 Y126.571 E25.75809 ; skirt
G1 X106.740 Y126.142 E25.79710 ; skirt
G1 X106.921 Y125.975 E25.81357 ; skirt
G1 E23.81357 F4800.00000 ; retract
G92 E0 ; reset extrusion distance
G1 Z0.800 F6000.000 ; lift Z
G1 X141.956 Y133.117 F6000.000 ; move to first perimeter point
G1 Z0.300 F6000.000 ; restore layer Z
G1 E2.00000 F4800.00000 ; unretract
G1 X139.916 Y132.947 E2.13671 F1800.000 ; perimeter
G1 X140.161 Y132.645 E2.16266 ; perimeter
G1 X140.456 Y132.181 E2.19937 ; perimeter
G1 X140.686 Y131.698 E2.23517 ; perimeter
G1 X140.870 Y131.155 E2.27341 ; perimeter
G1 X141.108 Y131.163 E2.28935 ; perimeter
G1 X141.253 Y131.705 E2.32682 ; perimeter
G1 X141.460 Y132.244 E2.36540 ; perimeter
G1 X141.715 Y132.743 E2.40285 ; perimeter
G1 X141.923 Y133.067 E2.42855 ; perimeter
G1 X141.106 Y128.846 F6000.000 ; move to first perimeter point
G1 X140.860 Y128.847 E2.44498 F1800.000 ; perimeter
G1 X140.779 Y128.553 E2.46531 ; perimeter
G1 X140.578 Y128.057 E2.50106 ; perimeter
G1 X140.327 Y127.602 E2.53581 ; perimeter
G1 X139.936 Y127.053 E2.58083 ; perimeter
G1 X141.955 Y126.884 E2.71613 ; perimeter
G1 X141.722 Y127.242 E2.74465 ; perimeter
G1 X141.460 Y127.756 E2.78322 ; perimeter
G1 X141.253 Y128.295 E2.82180 ; perimeter
G1 X141.121 Y128.788 E2.85589 ; perimeter
G1 X138.667 Y126.622 F6000.000 ; move to first perimeter point
G1 X143.227 Y126.240 E3.16157 F1800.000 ; perimeter
G1 X142.799 Y126.667 E3.20199 ; perimeter
G1 X142.471 Y127.073 E3.23681 ; perimeter
G1 X142.187 Y127.510 E3.27164 ; perimeter
G1 X141.950 Y127.974 E3.30647 ; perimeter
G1 X141.763 Y128.461 E3.34129 ; perimeter
G1 X141.628 Y128.964 E3.37612 ; perimeter
G1 X141.547 Y129.479 E3.41095 ; perimeter
G1 X141.520 Y130.000 E3.44578 ; perimeter
G1 X141.547 Y130.521 E3.48060 ; perimeter
G1 X141.628 Y131.035 E3.51543 ; perimeter
G1 X141.763 Y131.539 E3.55026 ; perimeter
G1 X141.950 Y132.026 E3.58508 ; perimeter
G1 X142.179 Y132.476 E3.61884 ; perimeter
G1 X142.470 Y132.926 E3.65464 ; perimeter
G1 X142.799 Y133.333 E3.68956 ; perimeter
G1 X143.227 Y133.761 E3.73003 ; perimeter
G1 X138.626 Y133.376 E4.03848 ; perimeter
G1 X139.099 Y133.016 E4.07819 ; perimeter
G1 X139.437 Y132.687 E4.10970 ; perimeter
G1 X139.726 Y132.332 E4.14028 ; perimeter
G1 X139.986 Y131.922 E4.17275 ; perimeter
G1 X140.189 Y131.496 E4.20423 ; perimeter
G1 X140.340 Y131.049 E4.23573 ; perimeter
G1 X140.437 Y130.588 E4.26724 ; perimeter
G1 X140.478 Y130.132 E4.29781 ; perimeter
G1 X140.465 Y129.648 E4.33014 ; perimeter
G1 X140.395 Y129.180 E4.36176 ; perimeter
G1 X140.271 Y128.725 E4.39327 ; perimeter
G1 X140.094 Y128.288 E4.42478 ; perimeter
G1 X139.873 Y127.887 E4.45535 ; perimeter
G1 X139.592 Y127.493 E4.48768 ; perimeter
G1 X139.273 Y127.144 E4.51930 ; perimeter
G1 X138.712 Y126.661 E4.56872 ; perimeter
G1 X136.590 Y126.548 F6000.000 ; move to first perimeter point
G1 X136.595 Y126.258 E4.58812 F1800.000 ; perimeter
G1 X144.910 Y125.561 E5.14554 ; perimeter
G1 X144.972 Y125.833 E5.16417 ; perimeter
G1 X144.692 Y125.940 E5.18417 ; perimeter
G1 X144.277 Y126.152 E5.21532 ; perimeter
G1 X143.888 Y126.405 E5.24632 ; perimeter
G1 X143.526 Y126.697 E5.27739 ; perimeter
G1 X143.197 Y127.026 E5.30847 ; perimeter
G1 X142.905 Y127.388 E5.33955 ; perimeter
G1 X142.651 Y127.778 E5.37062 ; perimeter
G1 X142.440 Y128.192 E5.40170 ; perimeter
G1 X142.273 Y128.627 E5.43278 ; perimeter
G1 X142.153 Y129.076 E5.46385 ; perimeter
G1 X142.080 Y129.535 E5.49493 ; perimeter
G1 X142.056 Y130.000 E5.52600 ; perimeter
G1 X142.080 Y130.465 E5.55708 ; perimeter
G1 X142.153 Y130.924 E5.58816 ; perimeter
G1 X142.273 Y131.373 E5.61923 ; perimeter
G1 X142.440 Y131.808 E5.65031 ; perimeter
G1 X142.644 Y132.209 E5.68037 ; perimeter
G1 X142.904 Y132.612 E5.71242 ; perimeter
G1 X143.197 Y132.974 E5.74353 ; perimeter
G1 X143.526 Y133.303 E5.77461 ; perimeter
G1 X143.888 Y133.595 E5.80568 ; perimeter
G1 X144.277 Y133.848 E5.83669 ; perimeter
G1 X144.692 Y134.060 E5.86784 ; perimeter
G1 X144.973 Y134.167 E5.88788 ; perimeter
G1 X144.910 Y134.439 E5.90651 ; perimeter
G1 X136.551 Y133.740 E6.46691 ; perimeter
G1 X136.555 Y133.441 E6.48690 ; perimeter
G1 X136.907 Y133.420 E6.51051 ; perimeter
G1 X137.309 Y133.348 E6.53777 ; perimeter
G1 X137.699 Y133.229 E6.56503 ; perimeter
G1 X138.073 Y133.064 E6.59229 ; perimeter
G1 X138.424 Y132.857 E6.61956 ; perimeter
G1 X138.748 Y132.609 E6.64682 ; perimeter
G1 X139.041 Y132.325 E6.67408 ; perimeter
G1 X139.290 Y132.018 E6.70047 ; perimeter
G1 X139.517 Y131.662 E6.72869 ; perimeter
G1 X139.692 Y131.294 E6.75586 ; perimeter
G1 X139.822 Y130.908 E6.78312 ; perimeter
G1 X139.906 Y130.509 E6.81038 ; perimeter
G1 X139.942 Y130.115 E6.83677 ; perimeter
G1 X139.931 Y129.695 E6.86486 ; perimeter
G1 X139.870 Y129.291 E6.89216 ; perimeter
G1 X139.763 Y128.897 E6.91943 ; perimeter
G1 X139.609 Y128.519 E6.94669 ; perimeter
G1 X139.419 Y128.173 E6.97308 ; perimeter
G1 X139.175 Y127.830 E7.00117 ; perimeter
G1 X138.899 Y127.529 E7.02847 ; perimeter
G1 X138.590 Y127.262 E7.05573 ; perimeter
G1 X138.252 Y127.034 E7.08299 ; perimeter
G1 X137.888 Y126.848 E7.11025 ; perimeter
G1 X137.506 Y126.706 E7.13752 ; perimeter
G1 X137.109 Y126.610 E7.16478 ; perimeter
G1 X136.649 Y126.555 E7.19573 ; perimeter
