; generated by Slic3r 1.2.9 on 2018-10-24 at 09:34:28

; external perimeters extrusion width = 0.30mm
; perimeters extrusion width = 0.30mm
; infill extrusion width = 0.60mm
; solid infill extrusion width = 0.60mm
; top infill extrusion width = 0.45mm

M107 ; disable fan
M190 S60 ; set bed temperature
M104 S240 ; set temperature
G28 ; home all axes
G1 Z5 F5000 ; lift nozzle

M109 S240 ; wait for temperature to be reached
G21 ; set units to millimeters
G90 ; use absolute coordinates
M82 ; use absolute distances for extrusion
G92 E0 ; reset extrusion distance
G1 E-2.00000 F4800.00000 ; retract
G92 E0 ; reset extrusion distance
G1 Z0.500 F6000.000 ; lift Z
G1 X98.688 Y104.193 F6000.000 ; move to first skirt point
G1 Z0.300 F6000.000 ; restore layer Z
G1 E2.00000 F4800.00000 ; unretract
G1 X98.799 Y104.096 E2.00978 F1800.000 ; skirt
G1 X100.245 Y103.240 E2.12210 ; skirt
G1 X100.694 Y103.090 E2.15366 ; skirt
G1 X101.685 Y102.922 E2.22084 ; skirt
G1 X101.999 Y102.912 E2.24179 ; skirt
G1 X158.001 Y102.912 E5.98309 ; skirt
G1 X158.315 Y102.922 E6.00403 ; skirt
G1 X159.308 Y103.091 E6.07133 ; skirt
G1 X159.755 Y103.240 E6.10278 ; skirt
G1 X161.201 Y104.096 E6.21509 ; skirt
G1 X161.312 Y104.193 E6.22488 ; skirt
G1 X162.181 Y105.211 E6.31433 ; skirt
G1 X162.687 Y106.273 E6.39292 ; skirt
G1 X162.923 Y107.265 E6.46107 ; skirt
G1 X162.963 Y107.875 E6.50189 ; skirt
G1 X162.964 Y152.135 E9.45870 ; skirt
G1 X162.918 Y152.781 E9.50196 ; skirt
G1 X162.759 Y153.507 E9.55161 ; skirt
G1 X162.099 Y154.905 E9.65492 ; skirt
G1 X162.026 Y155.011 E9.66348 ; skirt
G1 X160.886 Y156.151 E9.77122 ; skirt
G1 X160.780 Y156.224 E9.77979 ; skirt
G1 X159.382 Y156.884 E9.88309 ; skirt
G1 X158.653 Y157.044 E9.93295 ; skirt
G1 X158.010 Y157.089 E9.97601 ; skirt
G1 X101.998 Y157.088 E13.71788 ; skirt
G1 X101.685 Y157.078 E13.73881 ; skirt
G1 X100.692 Y156.909 E13.80609 ; skirt
G1 X100.245 Y156.760 E13.83757 ; skirt
G1 X98.799 Y155.904 E13.94988 ; skirt
G1 X98.688 Y155.808 E13.95966 ; skirt
G1 X97.818 Y154.789 E14.04914 ; skirt
G1 X97.313 Y153.727 E14.12770 ; skirt
G1 X97.077 Y152.734 E14.19589 ; skirt
G1 X97.037 Y152.125 E14.23668 ; skirt
G1 X97.037 Y107.875 E17.19282 ; skirt
G1 X97.077 Y107.265 E17.23365 ; skirt
G1 X97.313 Y106.273 E17.30180 ; skirt
G1 X97.819 Y105.210 E17.38040 ; skirt
G1 X98.649 Y104.238 E17.46583 ; skirt
G1 X99.041 Y104.596 F6000.000 ; move to first skirt point
G1 X99.151 Y104.500 E17.47562 F1800.000 ; skirt
G1 X100.430 Y103.743 E17.57487 ; skirt
G1 X100.840 Y103.605 E17.60380 ; skirt
G1 X101.716 Y103.457 E17.66317 ; skirt
G1 X101.999 Y103.447 E17.68202 ; skirt
G1 X158.001 Y103.447 E21.42332 ; skirt
G1 X158.284 Y103.457 E21.44218 ; skirt
G1 X159.161 Y103.606 E21.50165 ; skirt
G1 X159.570 Y103.743 E21.53048 ; skirt
G1 X160.849 Y104.500 E21.62972 ; skirt
G1 X160.959 Y104.596 E21.63952 ; skirt
G1 X161.728 Y105.496 E21.71857 ; skirt
G1 X162.178 Y106.439 E21.78842 ; skirt
G1 X162.392 Y107.332 E21.84972 ; skirt
G1 X162.428 Y107.875 E21.88608 ; skirt
G1 X162.428 Y152.135 E24.84289 ; skirt
G1 X162.388 Y152.707 E24.88118 ; skirt
G1 X162.243 Y153.363 E24.92607 ; skirt
G1 X161.660 Y154.599 E25.01737 ; skirt
G1 X161.587 Y154.704 E25.02593 ; skirt
G1 X160.579 Y155.712 E25.12115 ; skirt
G1 X160.474 Y155.785 E25.12971 ; skirt
G1 X159.238 Y156.368 E25.22100 ; skirt
G1 X158.579 Y156.513 E25.26608 ; skirt
G1 X158.010 Y156.553 E25.30419 ; skirt
G1 X101.998 Y156.553 E29.04606 ; skirt
G1 X101.717 Y156.543 E29.06490 ; skirt
G1 X100.839 Y156.394 E29.12435 ; skirt
G1 X100.430 Y156.257 E29.15321 ; skirt
G1 X99.151 Y155.500 E29.25246 ; skirt
G1 X99.041 Y155.404 E29.26224 ; skirt
G1 X98.272 Y154.504 E29.34132 ; skirt
G1 X97.822 Y153.561 E29.41114 ; skirt
G1 X97.608 Y152.668 E29.47248 ; skirt
G1 X97.572 Y152.125 E29.50882 ; skirt
G1 X97.572 Y107.875 E32.46496 ; skirt
G1 X97.608 Y107.332 E32.50133 ; skirt
G1 X97.822 Y106.439 E32.56263 ; skirt
G1 X98.272 Y105.495 E32.63248 ; skirt
G1 X99.002 Y104.642 E32.70752 ; skirt
G1 X99.393 Y104.999 F6000.000 ; move to first skirt point
G1 X99.503 Y104.903 E32.71731 F1800.000 ; skirt
G1 X100.614 Y104.246 E32.80350 ; skirt
G1 X100.987 Y104.121 E32.82979 ; skirt
G1 X101.748 Y103.992 E32.88135 ; skirt
G1 X101.999 Y103.983 E32.89812 ; skirt
G1 X158.001 Y103.983 E36.63942 ; skirt
G1 X158.252 Y103.992 E36.65618 ; skirt
G1 X159.014 Y104.121 E36.70783 ; skirt
G1 X159.386 Y104.246 E36.73403 ; skirt
G1 X160.497 Y104.903 E36.82022 ; skirt
G1 X160.607 Y104.999 E36.83002 ; skirt
G1 X161.302 Y105.824 E36.90207 ; skirt
G1 X161.669 Y106.606 E36.95977 ; skirt
G1 X161.712 Y106.738 E36.96905 ; skirt
G1 X161.860 Y107.398 E37.01425 ; skirt
G1 X161.892 Y107.875 E37.04616 ; skirt
G1 X161.892 Y152.135 E40.00296 ; skirt
G1 X161.845 Y152.715 E40.04183 ; skirt
G1 X161.727 Y153.219 E40.07641 ; skirt
G1 X161.221 Y154.292 E40.15570 ; skirt
G1 X161.148 Y154.397 E40.16426 ; skirt
G1 X160.272 Y155.273 E40.24695 ; skirt
G1 X160.167 Y155.346 E40.25552 ; skirt
G1 X159.094 Y155.852 E40.33480 ; skirt
G1 X158.590 Y155.970 E40.36935 ; skirt
G1 X158.010 Y156.017 E40.40825 ; skirt
G1 X101.998 Y156.017 E44.15012 ; skirt
G1 X101.748 Y156.008 E44.16687 ; skirt
G1 X100.986 Y155.879 E44.21850 ; skirt
G1 X100.614 Y155.754 E44.24473 ; skirt
G1 X99.503 Y155.097 E44.33092 ; skirt
G1 X99.393 Y155.001 E44.34071 ; skirt
G1 X98.698 Y154.175 E44.41279 ; skirt
G1 X98.331 Y153.394 E44.47046 ; skirt
G1 X98.288 Y153.262 E44.47974 ; skirt
G1 X98.140 Y152.601 E44.52497 ; skirt
G1 X98.108 Y152.125 E44.55686 ; skirt
G1 X98.108 Y107.875 E47.51300 ; skirt
G1 X98.140 Y107.398 E47.54491 ; skirt
G1 X98.331 Y106.606 E47.59936 ; skirt
G1 X98.726 Y105.781 E47.66048 ; skirt
G1 X99.354 Y105.045 E47.72512 ; skirt
G1 E45.72512 F4800.00000 ; retract
G92 E0 ; reset extrusion distance
G1 Z0.800 F6000.000 ; lift Z
G1 X156.986 Y151.111 F6000.000 ; move to first perimeter point
G1 Z0.300 F6000.000 ; restore layer Z
G1 E2.00000 F4800.00000 ; unretract
G1 X103.015 Y151.110 E5.60553 F1800.000 ; perimeter
G1 X103.015 Y108.890 E8.42606 ; perimeter
G1 X156.985 Y108.892 E12.03155 ; perimeter
G1 X156.986 Y151.051 E14.84794 ; perimeter
G1 X157.521 Y151.646 F6000.000 ; move to first perimeter point
G1 X102.479 Y151.646 E18.52503 F1800.000 ; perimeter
G1 X102.479 Y108.354 E21.41713 ; perimeter
G1 X157.521 Y108.357 E25.09419 ; perimeter
G1 X157.521 Y151.586 E27.98214 ; perimeter
G1 X158.057 Y152.182 F6000.000 ; move to first perimeter point
G1 X101.944 Y152.181 E31.73080 F1800.000 ; perimeter
G1 X101.944 Y107.819 E34.69446 ; perimeter
G1 X158.056 Y107.821 E38.44308 ; perimeter
G1 X158.057 Y152.122 E41.40260 ; perimeter
G1 X157.710 Y151.982 F6000.000 ; move inwards before travel
G1 X156.663 Y109.481 F6000.000 ; move to first infill point
G1 X156.396 Y109.214 E41.42796 F1800.000 ; infill
G1 X155.635 Y109.214 E41.47904 ; infill
G1 X156.663 Y110.242 E41.57665 ; infill
G1 X156.663 Y111.003 E41.62773 ; infill
G1 X154.874 Y109.214 E41.79758 ; infill
G1 X154.113 Y109.214 E41.84866 ; infill
G1 X156.663 Y111.764 E42.09074 ; infill
G1 X156.663 Y112.525 E42.14182 ; infill
G1 X153.352 Y109.214 E42.45615 ; infill
G1 X152.591 Y109.214 E42.50723 ; infill
G1 X156.663 Y113.286 E42.89379 ; infill
G1 X156.663 Y114.048 E42.94487 ; infill
G1 X151.830 Y109.214 E43.40367 ; infill
G1 X151.069 Y109.214 E43.45475 ; infill
G1 X156.663 Y114.809 E43.98580 ; infill
G1 X156.663 Y115.570 E44.03688 ; infill
G1 X150.308 Y109.214 E44.64016 ; infill
G1 X149.547 Y109.214 E44.69124 ; infill
G1 X156.664 Y116.331 E45.36676 ; infill
G1 X156.664 Y117.092 E45.41784 ; infill
G1 X148.786 Y109.214 E46.16561 ; infill
G1 X148.025 Y109.214 E46.21669 ; infill
G1 X156.664 Y117.853 E47.03669 ; infill
G1 X156.664 Y118.614 E47.08777 ; infill
G1 X147.263 Y109.214 E47.98001 ; infill
G1 X146.502 Y109.214 E48.03109 ; infill
G1 X156.664 Y119.375 E48.99557 ; infill
G1 X156.664 Y120.136 E49.04665 ; infill
G1 X145.741 Y109.214 E50.08337 ; infill
G1 X144.980 Y109.214 E50.13445 ; infill
G1 X156.664 Y120.897 E51.24341 ; infill
G1 X156.664 Y121.658 E51.29449 ; infill
G1 X144.219 Y109.214 E52.47569 ; infill
G1 X143.458 Y109.213 E52.52677 ; infill
G1 X156.664 Y122.419 E53.78021 ; infill
G1 X156.664 Y123.180 E53.83129 ; infill
G1 X142.697 Y109.213 E55.15697 ; infill
G1 X141.936 Y109.213 E55.20805 ; infill
G1 X156.664 Y123.941 E56.60597 ; infill
G1 X156.664 Y124.702 E56.65705 ; infill
G1 X141.175 Y109.213 E58.12721 ; infill
G1 X140.414 Y109.213 E58.17829 ; infill
G1 X156.664 Y125.463 E59.72069 ; infill
G1 X156.664 Y126.224 E59.77177 ; infill
G1 X139.653 Y109.213 E61.38641 ; infill
G1 X138.892 Y109.213 E61.43749 ; infill
G1 X156.664 Y126.985 E63.12437 ; infill
G1 X156.664 Y127.746 E63.17544 ; infill
G1 X138.131 Y109.213 E64.93456 ; infill
G1 X137.370 Y109.213 E64.98564 ; infill
G1 X156.664 Y128.507 E66.81700 ; infill
G1 X156.664 Y129.268 E66.86808 ; infill
G1 X136.609 Y109.213 E68.77168 ; infill
G1 X135.848 Y109.213 E68.82276 ; infill
G1 X156.664 Y130.029 E70.79859 ; infill
G1 X156.664 Y130.790 E70.84967 ; infill
G1 X135.087 Y109.213 E72.89775 ; infill
G1 X134.326 Y109.213 E72.94883 ; infill
G1 X156.664 Y131.551 E75.06914 ; infill
G1 X156.664 Y132.312 E75.12022 ; infill
G1 X133.564 Y109.213 E77.31278 ; infill
G1 X132.803 Y109.213 E77.36386 ; infill
G1 X156.664 Y133.073 E79.62865 ; infill
G1 X156.664 Y133.834 E79.67973 ; infill
G1 X132.042 Y109.213 E82.01677 ; infill
G1 X131.281 Y109.213 E82.06785 ; infill
G1 X156.664 Y134.595 E84.47712 ; infill
G1 X156.664 Y135.356 E84.52820 ; infill
G1 X130.520 Y109.213 E87.00971 ; infill
G1 X129.759 Y109.213 E87.06079 ; infill
G1 X156.664 Y136.117 E89.61455 ; infill
G1 X156.664 Y136.878 E89.66563 ; infill
G1 X128.998 Y109.213 E92.29162 ; infill
G1 X128.237 Y109.213 E92.34270 ; infill
G1 X156.664 Y137.639 E95.04093 ; infill
G1 X156.664 Y138.401 E95.09201 ; infill
G1 X127.476 Y109.213 E97.86248 ; infill
G1 X126.715 Y109.213 E97.91356 ; infill
G1 X156.664 Y139.162 E100.75628 ; infill
G1 X156.664 Y139.923 E100.80735 ; infill
G1 X125.954 Y109.213 E103.72231 ; infill
G1 X125.193 Y109.213 E103.77339 ; infill
G1 X156.664 Y140.684 E106.76058 ; infill
G1 X156.664 Y141.445 E106.81166 ; infill
G1 X124.432 Y109.213 E109.87109 ; infill
G1 X123.671 Y109.213 E109.92217 ; infill
G1 X156.664 Y142.206 E113.05384 ; infill
G1 X156.664 Y142.967 E113.10492 ; infill
G1 X122.910 Y109.213 E116.30883 ; infill
G1 X122.149 Y109.212 E116.35991 ; infill
G1 X156.664 Y143.728 E119.63606 ; infill
G1 X156.664 Y144.489 E119.68714 ; infill
G1 X121.388 Y109.212 E123.03553 ; infill
G1 X120.626 Y109.212 E123.08661 ; infill
G1 X156.664 Y145.250 E126.50723 ; infill
G1 X156.664 Y146.011 E126.55831 ; infill
G1 X119.865 Y109.212 E130.05118 ; infill
G1 X119.104 Y109.212 E130.10226 ; infill
G1 X156.664 Y146.772 E133.66737 ; infill
G1 X156.664 Y147.533 E133.71845 ; infill
G1 X118.343 Y109.212 E137.35580 ; infill
G1 X117.582 Y109.212 E137.40688 ; infill
G1 X156.664 Y148.294 E141.11646 ; infill
G1 X156.664 Y149.055 E141.16754 ; infill
G1 X116.821 Y109.212 E144.94937 ; infill
G1 X116.060 Y109.212 E145.00045 ; infill
G1 X156.664 Y149.816 E148.85452 ; infill
G1 X156.664 Y150.577 E148.90560 ; infill
G1 X115.299 Y109.212 E152.83190 ; infill
G1 X114.538 Y109.212 E152.88298 ; infill
G1 X156.115 Y150.789 E156.82940 ; infill
G1 X155.354 Y150.789 E156.88048 ; infill
G1 X113.777 Y109.212 E160.82691 ; infill
G1 X113.016 Y109.212 E160.87799 ; infill
G1 X154.593 Y150.789 E164.82441 ; infill
G1 X153.832 Y150.789 E164.87549 ; infill
G1 X112.255 Y109.212 E168.82192 ; infill
G1 X111.494 Y109.212 E168.87300 ; infill
G1 X153.071 Y150.789 E172.81943 ; infill
G1 X152.310 Y150.789 E172.87051 ; infill
G1 X110.733 Y109.212 E176.81695 ; infill
G1 X109.972 Y109.212 E176.86803 ; infill
G1 X151.549 Y150.789 E180.81447 ; infill
G1 X150.788 Y150.789 E180.86554 ; infill
G1 X109.211 Y109.212 E184.81198 ; infill
G1 X108.450 Y109.212 E184.86306 ; infill
G1 X150.027 Y150.789 E188.80951 ; infill
G1 X149.266 Y150.789 E188.86059 ; infill
G1 X107.688 Y109.212 E192.80703 ; infill
G1 X106.927 Y109.212 E192.85811 ; infill
G1 X148.504 Y150.789 E196.80456 ; infill
G1 X147.743 Y150.789 E196.85564 ; infill
G1 X106.166 Y109.212 E200.80209 ; infill
G1 X105.405 Y109.212 E200.85317 ; infill
G1 X146.982 Y150.789 E204.79962 ; infill
G1 X146.221 Y150.789 E204.85070 ; infill
G1 X104.644 Y109.212 E208.79716 ; infill
G1 X103.883 Y109.212 E208.84824 ; infill
G1 X145.460 Y150.789 E212.79470 ; infill
G1 X144.699 Y150.789 E212.84578 ; infill
G1 X103.337 Y109.426 E216.77188 ; infill
G1 X103.337 Y110.187 E216.82296 ; infill
G1 X143.938 Y150.789 E220.67683 ; infill
G1 X143.177 Y150.789 E220.72791 ; infill
G1 X103.337 Y110.948 E224.50954 ; infill
G1 X103.337 Y111.709 E224.56062 ; infill
G1 X142.416 Y150.789 E228.27002 ; infill
G1 X141.655 Y150.789 E228.32110 ; infill
G1 X103.337 Y112.470 E231.95826 ; infill
G1 X103.337 Y113.231 E232.00934 ; infill
G1 X140.894 Y150.789 E235.57426 ; infill
G1 X140.133 Y150.789 E235.62534 ; infill
G1 X103.337 Y113.992 E239.11803 ; infill
G1 X103.337 Y114.753 E239.16911 ; infill
G1 X139.372 Y150.789 E242.58956 ; infill
G1 X138.611 Y150.789 E242.64064 ; infill
G1 X103.337 Y115.514 E245.98886 ; infill
G1 X103.337 Y116.275 E246.03994 ; infill
G1 X137.850 Y150.789 E249.31592 ; infill
G1 X137.089 Y150.789 E249.36700 ; infill
G1 X103.337 Y117.036 E252.57074 ; infill
G1 X103.337 Y117.797 E252.62182 ; infill
G1 X136.328 Y150.789 E255.75333 ; infill
G1 X135.567 Y150.789 E255.80441 ; infill
G1 X103.337 Y118.558 E258.86368 ; infill
G1 X103.337 Y119.319 E258.91476 ; infill
G1 X134.806 Y150.789 E261.90180 ; infill
G1 X134.045 Y150.789 E261.95288 ; infill
G1 X103.337 Y120.080 E264.86768 ; infill
G1 X103.337 Y120.841 E264.91876 ; infill
G1 X133.284 Y150.789 E267.76132 ; infill
G1 X132.523 Y150.789 E267.81240 ; infill
G1 X103.337 Y121.602 E270.58273 ; infill
G1 X103.337 Y122.363 E270.63381 ; infill
G1 X131.762 Y150.789 E273.33190 ; infill
G1 X131.001 Y150.789 E273.38298 ; infill
G1 X103.337 Y123.124 E276.00884 ; infill
G1 X103.337 Y123.885 E276.05991 ; infill
G1 X130.240 Y150.789 E278.61353 ; infill
G1 X129.479 Y150.789 E278.66461 ; infill
G1 X103.337 Y124.647 E281.14600 ; infill
G1 X103.337 Y125.408 E281.19708 ; infill
G1 X128.718 Y150.789 E283.60622 ; infill
G1 X127.957 Y150.789 E283.65730 ; infill
G1 X103.337 Y126.169 E285.99422 ; infill
G1 X103.337 Y126.930 E286.04529 ; infill
G1 X127.196 Y150.789 E288.30997 ; infill
G1 X126.435 Y150.789 E288.36105 ; infill
G1 X103.337 Y127.691 E290.55349 ; infill
G1 X103.337 Y128.452 E290.60457 ; infill
G1 X125.674 Y150.789 E292.72477 ; infill
G1 X124.913 Y150.789 E292.77585 ; infill
G1 X103.337 Y129.213 E294.82382 ; infill
G1 X103.337 Y129.974 E294.87490 ; infill
G1 X124.152 Y150.789 E296.85063 ; infill
G1 X123.391 Y150.789 E296.90171 ; infill
G1 X103.337 Y130.735 E298.80520 ; infill
G1 X103.337 Y131.496 E298.85628 ; infill
G1 X122.629 Y150.789 E300.68754 ; infill
G1 X121.868 Y150.789 E300.73862 ; infill
G1 X103.337 Y132.257 E302.49764 ; infill
G1 X103.337 Y133.018 E302.54872 ; infill
G1 X121.107 Y150.789 E304.23551 ; infill
G1 X120.346 Y150.789 E304.28659 ; infill
G1 X103.337 Y133.779 E305.90114 ; infill
G1 X103.337 Y134.540 E305.95222 ; infill
G1 X119.585 Y150.789 E307.49453 ; infill
G1 X118.824 Y150.789 E307.54561 ; infill
G1 X103.337 Y135.301 E309.01569 ; infill
G1 X103.337 Y136.062 E309.06677 ; infill
G1 X118.063 Y150.789 E310.46461 ; infill
G1 X117.302 Y150.789 E310.51569 ; infill
G1 X103.337 Y136.823 E311.84130 ; infill
G1 X103.337 Y137.584 E311.89238 ; infill
G1 X116.541 Y150.789 E313.14575 ; infill
G1 X115.780 Y150.789 E313.19683 ; infill
G1 X103.337 Y138.345 E314.37796 ; infill
G1 X103.337 Y139.106 E314.42904 ; infill
G1 X115.019 Y150.789 E315.53794 ; infill
