; generated by Slic3r 1.2.9 on 2018-10-24 at 13:24:57

; external perimeters extrusion width = 0.30mm
; perimeters extrusion width = 0.30mm
; infill extrusion width = 0.60mm
; solid infill extrusion width = 0.60mm
; top infill extrusion width = 0.45mm

M107 ; disable fan
M190 S60 ; set bed temperature
M104 S240 ; set temperature
G28 ; home all axes
G1 Z5 F5000 ; lift nozzle

M109 S240 ; wait for temperature to be reached
G21 ; set units to millimeters
G90 ; use absolute coordinates
M82 ; use absolute distances for extrusion
G92 E0 ; reset extrusion distance
G1 E-2.00000 F4800.00000 ; retract
G92 E0 ; reset extrusion distance
G1 Z0.500 F6000.000 ; lift Z
G1 X100.551 Y106.079 F6000.000 ; move to first skirt point
G1 Z0.300 F6000.000 ; restore layer Z
G1 E2.00000 F4800.00000 ; unretract
G1 X102.202 Y105.118 E2.12755 F1800.000 ; skirt
G1 X103.644 Y104.887 E2.22512 ; skirt
G1 X156.356 Y104.887 E5.74663 ; skirt
G1 X158.224 Y105.282 E5.87418 ; skirt
G1 X159.771 Y106.401 E6.00174 ; skirt
G1 X160.732 Y108.052 E6.12929 ; skirt
G1 X160.963 Y109.494 E6.22686 ; skirt
G1 X160.963 Y150.506 E8.96674 ; skirt
G1 X160.568 Y152.374 E9.09430 ; skirt
G1 X159.449 Y153.921 E9.22185 ; skirt
G1 X157.798 Y154.882 E9.34940 ; skirt
G1 X156.356 Y155.113 E9.44697 ; skirt
G1 X103.644 Y155.113 E12.96848 ; skirt
G1 X101.776 Y154.718 E13.09603 ; skirt
G1 X100.229 Y153.599 E13.22359 ; skirt
G1 X99.268 Y151.948 E13.35114 ; skirt
G1 X99.037 Y150.506 E13.44871 ; skirt
G1 X99.037 Y109.494 E16.18859 ; skirt
G1 X99.432 Y107.626 E16.31615 ; skirt
G1 X100.516 Y106.127 E16.43969 ; skirt
G1 X101.076 Y106.334 F6000.000 ; move to first skirt point
G1 X102.683 Y105.537 E16.55951 F1800.000 ; skirt
G1 X103.644 Y105.422 E16.62415 ; skirt
G1 X156.356 Y105.422 E20.14566 ; skirt
G1 X158.106 Y105.817 E20.26548 ; skirt
G1 X159.516 Y106.926 E20.38530 ; skirt
G1 X160.313 Y108.533 E20.50512 ; skirt
G1 X160.428 Y109.494 E20.56976 ; skirt
G1 X160.428 Y150.506 E23.30964 ; skirt
G1 X160.033 Y152.256 E23.42947 ; skirt
G1 X158.924 Y153.666 E23.54929 ; skirt
G1 X157.317 Y154.463 E23.66911 ; skirt
G1 X156.356 Y154.578 E23.73374 ; skirt
G1 X103.644 Y154.578 E27.25525 ; skirt
G1 X101.894 Y154.183 E27.37508 ; skirt
G1 X100.484 Y153.074 E27.49490 ; skirt
G1 X99.687 Y151.467 E27.61472 ; skirt
G1 X99.572 Y150.506 E27.67935 ; skirt
G1 X99.572 Y109.494 E30.41924 ; skirt
G1 X99.967 Y107.744 E30.53906 ; skirt
G1 X101.039 Y106.381 E30.65488 ; skirt
G1 X101.597 Y106.610 F6000.000 ; move to first skirt point
G1 X103.644 Y105.958 E30.79835 F1800.000 ; skirt
G1 X156.356 Y105.958 E34.31986 ; skirt
G1 X157.979 Y106.352 E34.43142 ; skirt
G1 X159.240 Y107.447 E34.54298 ; skirt
G1 X159.892 Y109.494 E34.68645 ; skirt
G1 X159.892 Y150.506 E37.42634 ; skirt
G1 X159.498 Y152.129 E37.53789 ; skirt
G1 X158.403 Y153.390 E37.64945 ; skirt
G1 X156.356 Y154.042 E37.79293 ; skirt
G1 X103.644 Y154.042 E41.31444 ; skirt
G1 X102.021 Y153.648 E41.42599 ; skirt
G1 X100.760 Y152.553 E41.53755 ; skirt
G1 X100.108 Y150.506 E41.68103 ; skirt
G1 X100.108 Y109.494 E44.42091 ; skirt
G1 X100.502 Y107.871 E44.53247 ; skirt
G1 X101.558 Y106.655 E44.64002 ; skirt
G1 E42.64002 F4800.00000 ; retract
G92 E0 ; reset extrusion distance
G1 Z0.800 F6000.000 ; lift Z
G1 X151.015 Y147.165 F6000.000 ; move to first perimeter point
G1 Z0.300 F6000.000 ; restore layer Z
G1 E2.00000 F4800.00000 ; unretract
G1 X108.985 Y147.165 E4.80780 F1800.000 ; perimeter
G1 X108.985 Y112.835 E7.10119 ; perimeter
G1 X151.015 Y112.835 E9.90899 ; perimeter
G1 X151.015 Y147.105 E12.19838 ; perimeter
G1 X150.479 Y146.629 F6000.000 ; move to first perimeter point
G1 X109.521 Y146.629 E14.93462 F1800.000 ; perimeter
G1 X109.521 Y113.371 E17.15645 ; perimeter
G1 X150.479 Y113.371 E19.89268 ; perimeter
G1 X150.479 Y146.569 E22.11051 ; perimeter
G1 X149.944 Y146.094 F6000.000 ; move to first perimeter point
G1 X110.056 Y146.094 E24.77518 F1800.000 ; perimeter
G1 X110.056 Y113.906 E26.92545 ; perimeter
G1 X149.944 Y113.906 E29.59012 ; perimeter
G1 X149.944 Y146.034 E31.73638 ; perimeter
G1 X149.944 Y146.494 F6000.000 ; move inwards before travel
G1 X154.985 Y149.135 F6000.000 ; move to first perimeter point
G1 X105.015 Y149.135 E35.07468 F1800.000 ; perimeter
G1 X105.015 Y110.865 E37.63135 ; perimeter
G1 X154.985 Y110.865 E40.96964 ; perimeter
G1 X154.985 Y149.075 E43.52231 ; perimeter
G1 X155.521 Y149.671 F6000.000 ; move to first perimeter point
G1 X104.479 Y149.671 E46.93217 F1800.000 ; perimeter
G1 X104.479 Y110.329 E49.56040 ; perimeter
G1 X155.521 Y110.329 E52.97027 ; perimeter
G1 X155.521 Y149.611 E55.59450 ; perimeter
G1 X156.056 Y150.206 F6000.000 ; move to first perimeter point
G1 X103.944 Y150.206 E59.07592 F1800.000 ; perimeter
G1 X103.944 Y109.794 E61.77572 ; perimeter
G1 X156.056 Y109.794 E65.25715 ; perimeter
G1 X156.056 Y150.146 E67.95294 ; perimeter
G1 X155.710 Y150.006 F6000.000 ; move inwards before travel
G1 X151.336 Y113.433 F6000.000 ; move to first infill point
G1 X154.664 Y116.760 E68.26753 F1800.000 ; infill
G1 X154.664 Y117.518 E68.31821 ; infill
G1 X151.336 Y114.191 E68.63280 ; infill
G1 X151.336 Y114.949 E68.68349 ; infill
G1 X154.664 Y118.276 E68.99807 ; infill
G1 X154.664 Y119.034 E69.04876 ; infill
G1 X151.336 Y115.707 E69.36334 ; infill
G1 X151.336 Y116.465 E69.41403 ; infill
G1 X154.664 Y119.792 E69.72862 ; infill
G1 X154.664 Y120.550 E69.77930 ; infill
G1 X151.336 Y117.223 E70.09389 ; infill
G1 X151.336 Y117.981 E70.14457 ; infill
G1 X154.664 Y121.309 E70.45916 ; infill
G1 X154.664 Y122.067 E70.50984 ; infill
G1 X151.336 Y118.739 E70.82443 ; infill
G1 X151.336 Y119.498 E70.87511 ; infill
G1 X154.664 Y122.825 E71.18970 ; infill
G1 X154.664 Y123.583 E71.24038 ; infill
G1 X151.336 Y120.256 E71.55497 ; infill
G1 X151.336 Y121.014 E71.60565 ; infill
G1 X154.664 Y124.341 E71.92024 ; infill
G1 X154.664 Y125.099 E71.97092 ; infill
G1 X151.336 Y121.772 E72.28551 ; infill
G1 X151.336 Y122.530 E72.33619 ; infill
G1 X154.664 Y125.857 E72.65078 ; infill
G1 X154.664 Y126.615 E72.70146 ; infill
G1 X151.336 Y123.288 E73.01605 ; infill
G1 X151.336 Y124.046 E73.06673 ; infill
G1 X154.664 Y127.373 E73.38132 ; infill
G1 X154.664 Y128.131 E73.43200 ; infill
G1 X151.336 Y124.804 E73.74659 ; infill
G1 X151.336 Y125.562 E73.79728 ; infill
G1 X154.664 Y128.889 E74.11186 ; infill
G1 X154.664 Y129.647 E74.16255 ; infill
G1 X151.336 Y126.320 E74.47713 ; infill
G1 X151.336 Y127.078 E74.52782 ; infill
G1 X154.664 Y130.405 E74.84241 ; infill
G1 X154.664 Y131.163 E74.89309 ; infill
G1 X151.336 Y127.836 E75.20768 ; infill
G1 X151.336 Y128.594 E75.25836 ; infill
G1 X154.664 Y131.922 E75.57295 ; infill
G1 X154.664 Y132.680 E75.62363 ; infill
G1 X151.336 Y129.352 E75.93822 ; infill
G1 X151.336 Y130.110 E75.98890 ; infill
G1 X154.664 Y133.438 E76.30349 ; infill
G1 X154.664 Y134.196 E76.35417 ; infill
G1 X151.336 Y130.869 E76.66876 ; infill
G1 X151.336 Y131.627 E76.71944 ; infill
G1 X154.664 Y134.954 E77.03403 ; infill
G1 X154.664 Y135.712 E77.08471 ; infill
G1 X151.336 Y132.385 E77.39930 ; infill
G1 X151.336 Y133.143 E77.44998 ; infill
G1 X154.664 Y136.470 E77.76457 ; infill
G1 X154.664 Y137.228 E77.81525 ; infill
G1 X151.336 Y133.901 E78.12984 ; infill
G1 X151.336 Y134.659 E78.18052 ; infill
G1 X154.664 Y137.986 E78.49511 ; infill
G1 X154.664 Y138.744 E78.54579 ; infill
G1 X151.336 Y135.417 E78.86038 ; infill
G1 X151.336 Y136.175 E78.91107 ; infill
G1 X154.664 Y139.502 E79.22565 ; infill
G1 X154.664 Y140.260 E79.27634 ; infill
G1 X151.336 Y136.933 E79.59092 ; infill
G1 X151.336 Y137.691 E79.64161 ; infill
G1 X154.664 Y141.018 E79.95620 ; infill
G1 X154.664 Y141.776 E80.00688 ; infill
G1 X151.336 Y138.449 E80.32147 ; infill
G1 X151.336 Y139.207 E80.37215 ; infill
G1 X154.664 Y142.535 E80.68674 ; infill
G1 X154.664 Y143.293 E80.73742 ; infill
G1 X151.336 Y139.965 E81.05201 ; infill
G1 X151.336 Y140.723 E81.10269 ; infill
G1 X154.664 Y144.051 E81.41728 ; infill
G1 X154.664 Y144.809 E81.46796 ; infill
G1 X151.336 Y141.482 E81.78255 ; infill
G1 X151.336 Y142.240 E81.83323 ; infill
G1 X154.664 Y145.567 E82.14782 ; infill
G1 X154.664 Y146.325 E82.19850 ; infill
G1 X151.336 Y142.998 E82.51309 ; infill
G1 X151.336 Y143.756 E82.56377 ; infill
G1 X154.664 Y147.083 E82.87836 ; infill
G1 X154.664 Y147.841 E82.92904 ; infill
G1 X151.336 Y144.514 E83.24363 ; infill
G1 X151.336 Y145.272 E83.29431 ; infill
G1 X154.664 Y148.599 E83.60890 ; infill
G1 X154.120 Y148.814 E83.64797 ; infill
G1 X151.336 Y146.030 E83.91117 ; infill
G1 X151.336 Y146.788 E83.96185 ; infill
G1 X153.362 Y148.814 E84.15337 ; infill
G1 X152.604 Y148.814 E84.20405 ; infill
G1 X151.277 Y147.486 E84.32954 ; infill
G1 X150.519 Y147.486 E84.38022 ; infill
G1 X151.846 Y148.814 E84.50571 ; infill
G1 X151.088 Y148.814 E84.55639 ; infill
G1 X149.761 Y147.486 E84.68188 ; infill
G1 X149.002 Y147.486 E84.73256 ; infill
G1 X150.330 Y148.814 E84.85805 ; infill
G1 X149.572 Y148.814 E84.90873 ; infill
G1 X148.244 Y147.486 E85.03422 ; infill
G1 X147.486 Y147.486 E85.08490 ; infill
G1 X148.814 Y148.814 E85.21039 ; infill
G1 X148.055 Y148.814 E85.26107 ; infill
G1 X146.728 Y147.486 E85.38656 ; infill
G1 X145.970 Y147.486 E85.43724 ; infill
G1 X147.297 Y148.814 E85.56273 ; infill
G1 X146.539 Y148.814 E85.61341 ; infill
G1 X145.212 Y147.486 E85.73890 ; infill
G1 X144.454 Y147.486 E85.78958 ; infill
G1 X145.781 Y148.814 E85.91507 ; infill
G1 X145.023 Y148.814 E85.96575 ; infill
G1 X143.696 Y147.486 E86.09124 ; infill
G1 X142.938 Y147.486 E86.14192 ; infill
G1 X144.265 Y148.814 E86.26741 ; infill
G1 X143.507 Y148.814 E86.31809 ; infill
G1 X142.180 Y147.486 E86.44358 ; infill
G1 X141.422 Y147.486 E86.49426 ; infill
G1 X142.749 Y148.814 E86.61975 ; infill
G1 X141.991 Y148.814 E86.67043 ; infill
G1 X140.664 Y147.486 E86.79592 ; infill
G1 X139.906 Y147.486 E86.84660 ; infill
G1 X141.233 Y148.814 E86.97209 ; infill
G1 X140.475 Y148.814 E87.02277 ; infill
G1 X139.148 Y147.486 E87.14826 ; infill
G1 X138.390 Y147.486 E87.19894 ; infill
G1 X139.717 Y148.814 E87.32443 ; infill
G1 X138.959 Y148.814 E87.37511 ; infill
G1 X137.631 Y147.486 E87.50060 ; infill
G1 X136.873 Y147.486 E87.55128 ; infill
G1 X138.201 Y148.814 E87.67676 ; infill
G1 X137.443 Y148.814 E87.72745 ; infill
G1 X136.115 Y147.486 E87.85293 ; infill
G1 X135.357 Y147.486 E87.90362 ; infill
G1 X136.684 Y148.814 E88.02910 ; infill
G1 X135.926 Y148.814 E88.07979 ; infill
G1 X134.599 Y147.486 E88.20527 ; infill
G1 X133.841 Y147.486 E88.25596 ; infill
G1 X135.168 Y148.814 E88.38144 ; infill
G1 X134.410 Y148.814 E88.43213 ; infill
G1 X133.083 Y147.486 E88.55761 ; infill
G1 X132.325 Y147.486 E88.60830 ; infill
G1 X133.652 Y148.814 E88.73378 ; infill
G1 X132.894 Y148.814 E88.78447 ; infill
G1 X131.567 Y147.486 E88.90995 ; infill
G1 X130.809 Y147.486 E88.96064 ; infill
G1 X132.136 Y148.814 E89.08612 ; infill
G1 X131.378 Y148.814 E89.13681 ; infill
G1 X130.051 Y147.486 E89.26229 ; infill
G1 X129.293 Y147.486 E89.31298 ; infill
G1 X130.620 Y148.814 E89.43846 ; infill
G1 X129.862 Y148.814 E89.48915 ; infill
G1 X128.535 Y147.486 E89.61463 ; infill
G1 X127.777 Y147.486 E89.66532 ; infill
G1 X129.104 Y148.814 E89.79080 ; infill
G1 X128.346 Y148.814 E89.84149 ; infill
G1 X127.018 Y147.486 E89.96697 ; infill
G1 X126.260 Y147.486 E90.01766 ; infill
G1 X127.588 Y148.814 E90.14314 ; infill
G1 X126.830 Y148.814 E90.19383 ; infill
G1 X125.502 Y147.486 E90.31931 ; infill
G1 X124.744 Y147.486 E90.37000 ; infill
G1 X126.071 Y148.814 E90.49548 ; infill
G1 X125.313 Y148.814 E90.54617 ; infill
G1 X123.986 Y147.486 E90.67165 ; infill
G1 X123.228 Y147.486 E90.72234 ; infill
G1 X124.555 Y148.814 E90.84782 ; infill
G1 X123.797 Y148.814 E90.89851 ; infill
G1 X122.470 Y147.486 E91.02399 ; infill
G1 X121.712 Y147.486 E91.07468 ; infill
G1 X123.039 Y148.814 E91.20016 ; infill
G1 X122.281 Y148.814 E91.25085 ; infill
G1 X120.954 Y147.486 E91.37633 ; infill
G1 X120.196 Y147.486 E91.42702 ; infill
G1 X121.523 Y148.814 E91.55250 ; infill
G1 X120.765 Y148.814 E91.60319 ; infill
G1 X119.438 Y147.486 E91.72867 ; infill
G1 X118.680 Y147.486 E91.77936 ; infill
G1 X120.007 Y148.814 E91.90484 ; infill
G1 X119.249 Y148.814 E91.95552 ; infill
G1 X117.922 Y147.486 E92.08101 ; infill
G1 X117.164 Y147.486 E92.13169 ; infill
G1 X118.491 Y148.814 E92.25718 ; infill
G1 X117.733 Y148.814 E92.30786 ; infill
G1 X116.405 Y147.486 E92.43335 ; infill
G1 X115.647 Y147.486 E92.48403 ; infill
G1 X116.975 Y148.814 E92.60952 ; infill
G1 X116.217 Y148.814 E92.66020 ; infill
G1 X114.889 Y147.486 E92.78569 ; infill
G1 X114.131 Y147.486 E92.83637 ; infill
G1 X115.458 Y148.814 E92.96186 ; infill
G1 X114.700 Y148.814 E93.01254 ; infill
G1 X113.373 Y147.486 E93.13803 ; infill
G1 X112.615 Y147.486 E93.18871 ; infill
G1 X113.942 Y148.814 E93.31420 ; infill
G1 X113.184 Y148.814 E93.36488 ; infill
G1 X111.857 Y147.486 E93.49037 ; infill
G1 X111.099 Y147.486 E93.54105 ; infill
G1 X112.426 Y148.814 E93.66654 ; infill
G1 X111.668 Y148.814 E93.71722 ; infill
G1 X110.341 Y147.486 E93.84271 ; infill
G1 X109.583 Y147.486 E93.89339 ; infill
G1 X110.910 Y148.814 E94.01888 ; infill
G1 X110.152 Y148.814 E94.06956 ; infill
G1 X108.825 Y147.486 E94.19505 ; infill
G1 X105.336 Y148.546 F6000.000 ; move to first infill point
G1 X105.604 Y148.814 E94.22031 F1800.000 ; infill
G1 X106.362 Y148.814 E94.27099 ; infill
G1 X105.336 Y147.788 E94.36793 ; infill
G1 X105.336 Y147.030 E94.41861 ; infill
G1 X107.120 Y148.814 E94.58723 ; infill
G1 X107.878 Y148.814 E94.63791 ; infill
G1 X105.336 Y146.272 E94.87820 ; infill
G1 X105.336 Y145.514 E94.92888 ; infill
G1 X108.636 Y148.814 E95.24084 ; infill
G1 X109.394 Y148.814 E95.29153 ; infill
G1 X105.336 Y144.756 E95.67517 ; infill
G1 X105.336 Y143.998 E95.72585 ; infill
G1 X108.664 Y147.325 E96.04044 ; infill
G1 X108.664 Y146.567 E96.09112 ; infill
G1 X105.336 Y143.240 E96.40571 ; infill
G1 X105.336 Y142.482 E96.45639 ; infill
G1 X108.664 Y145.809 E96.77098 ; infill
G1 X108.664 Y145.051 E96.82166 ; infill
G1 X105.336 Y141.724 E97.13625 ; infill
G1 X105.336 Y140.966 E97.18693 ; infill
G1 X108.664 Y144.293 E97.50152 ; infill
G1 X108.664 Y143.535 E97.55220 ; infill
G1 X105.336 Y140.208 E97.86679 ; infill
G1 X105.336 Y139.450 E97.91748 ; infill
G1 X108.664 Y142.777 E98.23206 ; infill
G1 X108.664 Y142.019 E98.28275 ; infill
G1 X105.336 Y138.692 E98.59734 ; infill
G1 X105.336 Y137.933 E98.64802 ; infill
G1 X108.664 Y141.261 E98.96261 ; infill
G1 X108.664 Y140.503 E99.01329 ; infill
G1 X105.336 Y137.175 E99.32788 ; infill
G1 X105.336 Y136.417 E99.37856 ; infill
G1 X108.664 Y139.745 E99.69315 ; infill
G1 X108.664 Y138.986 E99.74383 ; infill
G1 X105.336 Y135.659 E100.05842 ; infill
G1 X105.336 Y134.901 E100.10910 ; infill
G1 X108.664 Y138.228 E100.42369 ; infill
G1 X108.664 Y137.470 E100.47437 ; infill
G1 X105.336 Y134.143 E100.78896 ; infill
G1 X105.336 Y133.385 E100.83965 ; infill
G1 X108.664 Y136.712 E101.15423 ; infill
G1 X108.664 Y135.954 E101.20492 ; infill
G1 X105.336 Y132.627 E101.51950 ; infill
G1 X105.336 Y131.869 E101.57019 ; infill
G1 X108.664 Y135.196 E101.88478 ; infill
G1 X108.664 Y134.438 E101.93546 ; infill
G1 X105.336 Y131.111 E102.25005 ; infill
G1 X105.336 Y130.353 E102.30073 ; infill
G1 X108.664 Y133.680 E102.61532 ; infill
G1 X108.664 Y132.922 E102.66600 ; infill
G1 X105.336 Y129.595 E102.98059 ; infill
G1 X105.336 Y128.837 E103.03127 ; infill
G1 X108.664 Y132.164 E103.34586 ; infill
G1 X108.664 Y131.406 E103.39654 ; infill
G1 X105.336 Y128.079 E103.71113 ; infill
G1 X105.336 Y127.320 E103.76181 ; infill
G1 X108.664 Y130.648 E104.07640 ; infill
G1 X108.664 Y129.890 E104.12709 ; infill
G1 X105.336 Y126.562 E104.44167 ; infill
G1 X105.336 Y125.804 E104.49236 ; infill
G1 X108.664 Y129.132 E104.80695 ; infill
