; generated by Slic3r 1.2.9 on 2018-10-24 at 12:59:32

; external perimeters extrusion width = 0.30mm
; perimeters extrusion width = 0.30mm
; infill extrusion width = 0.60mm
; solid infill extrusion width = 0.60mm
; top infill extrusion width = 0.45mm

M107 ; disable fan
M190 S60 ; set bed temperature
M104 S240 ; set temperature
G28 ; home all axes
G1 Z5 F5000 ; lift nozzle

M109 S240 ; wait for temperature to be reached
G21 ; set units to millimeters
G90 ; use absolute coordinates
M82 ; use absolute distances for extrusion
G92 E0 ; reset extrusion distance
G1 E-2.00000 F4800.00000 ; retract
G92 E0 ; reset extrusion distance
G1 Z0.500 F6000.000 ; lift Z
G1 X100.408 Y105.935 F6000.000 ; move to first skirt point
G1 Z0.300 F6000.000 ; restore layer Z
G1 E2.00000 F4800.00000 ; unretract
G1 X102.058 Y104.975 E2.12755 F1800.000 ; skirt
G1 X103.500 Y104.743 E2.22512 ; skirt
G1 X156.500 Y104.743 E5.76581 ; skirt
G1 X158.368 Y105.139 E5.89336 ; skirt
G1 X159.915 Y106.258 E6.02091 ; skirt
G1 X160.875 Y107.908 E6.14847 ; skirt
G1 X161.107 Y109.350 E6.24604 ; skirt
G1 X161.107 Y150.650 E9.00510 ; skirt
G1 X160.711 Y152.518 E9.13265 ; skirt
G1 X159.592 Y154.065 E9.26020 ; skirt
G1 X157.942 Y155.025 E9.38776 ; skirt
G1 X156.500 Y155.257 E9.48533 ; skirt
G1 X103.500 Y155.257 E13.02601 ; skirt
G1 X101.632 Y154.861 E13.15356 ; skirt
G1 X100.085 Y153.742 E13.28112 ; skirt
G1 X99.125 Y152.092 E13.40867 ; skirt
G1 X98.893 Y150.650 E13.50624 ; skirt
G1 X98.893 Y109.350 E16.26530 ; skirt
G1 X99.289 Y107.482 E16.39285 ; skirt
G1 X100.373 Y105.984 E16.51640 ; skirt
G1 X100.932 Y106.190 F6000.000 ; move to first skirt point
G1 X102.539 Y105.394 E16.63622 F1800.000 ; skirt
G1 X103.500 Y105.279 E16.70086 ; skirt
G1 X156.500 Y105.279 E20.24154 ; skirt
G1 X158.250 Y105.674 E20.36136 ; skirt
G1 X159.660 Y106.782 E20.48119 ; skirt
G1 X160.456 Y108.389 E20.60101 ; skirt
G1 X160.571 Y109.350 E20.66564 ; skirt
G1 X160.571 Y150.650 E23.42471 ; skirt
G1 X160.176 Y152.400 E23.54453 ; skirt
G1 X159.068 Y153.810 E23.66435 ; skirt
G1 X157.461 Y154.606 E23.78417 ; skirt
G1 X156.500 Y154.721 E23.84881 ; skirt
G1 X103.500 Y154.721 E27.38949 ; skirt
G1 X101.750 Y154.326 E27.50932 ; skirt
G1 X100.340 Y153.218 E27.62914 ; skirt
G1 X99.544 Y151.611 E27.74896 ; skirt
G1 X99.429 Y150.650 E27.81360 ; skirt
G1 X99.429 Y109.350 E30.57266 ; skirt
G1 X99.824 Y107.600 E30.69248 ; skirt
G1 X100.895 Y106.238 E30.80830 ; skirt
G1 X101.454 Y106.467 F6000.000 ; move to first skirt point
G1 X103.500 Y105.814 E30.95177 F1800.000 ; skirt
G1 X156.500 Y105.814 E34.49246 ; skirt
G1 X158.123 Y106.209 E34.60401 ; skirt
G1 X159.383 Y107.304 E34.71557 ; skirt
G1 X160.036 Y109.350 E34.85905 ; skirt
G1 X160.036 Y150.650 E37.61811 ; skirt
G1 X159.641 Y152.273 E37.72967 ; skirt
G1 X158.546 Y153.533 E37.84122 ; skirt
G1 X156.500 Y154.186 E37.98470 ; skirt
G1 X103.500 Y154.186 E41.52539 ; skirt
G1 X101.877 Y153.791 E41.63694 ; skirt
G1 X100.617 Y152.696 E41.74850 ; skirt
G1 X99.964 Y150.650 E41.89198 ; skirt
G1 X99.964 Y109.350 E44.65104 ; skirt
G1 X100.359 Y107.727 E44.76260 ; skirt
G1 X101.414 Y106.512 E44.87014 ; skirt
G1 E42.87014 F4800.00000 ; retract
G92 E0 ; reset extrusion distance
G1 Z0.800 F6000.000 ; lift Z
G1 X150.871 Y147.021 F6000.000 ; move to first perimeter point
G1 Z0.300 F6000.000 ; restore layer Z
G1 E2.00000 F4800.00000 ; unretract
G1 X109.129 Y147.021 E4.78862 F1800.000 ; perimeter
G1 X109.129 Y112.979 E7.06284 ; perimeter
G1 X150.871 Y112.979 E9.85147 ; perimeter
G1 X150.871 Y146.961 E12.12168 ; perimeter
G1 X150.336 Y146.486 F6000.000 ; move to first perimeter point
G1 X109.664 Y146.486 E14.83874 F1800.000 ; perimeter
G1 X109.664 Y113.514 E17.04140 ; perimeter
G1 X150.336 Y113.514 E19.75846 ; perimeter
G1 X150.336 Y146.426 E21.95710 ; perimeter
G1 X149.800 Y145.950 F6000.000 ; move to first perimeter point
G1 X110.200 Y145.950 E24.60260 F1800.000 ; perimeter
G1 X110.200 Y114.050 E26.73369 ; perimeter
G1 X149.800 Y114.050 E29.37919 ; perimeter
G1 X149.800 Y145.890 E31.50627 ; perimeter
G1 X149.800 Y146.350 F6000.000 ; move inwards before travel
G1 X155.129 Y149.279 F6000.000 ; move to first perimeter point
G1 X104.871 Y149.279 E34.86374 F1800.000 ; perimeter
G1 X104.871 Y110.721 E37.43960 ; perimeter
G1 X155.129 Y110.721 E40.79707 ; perimeter
G1 X155.129 Y149.219 E43.36891 ; perimeter
G1 X155.664 Y149.814 F6000.000 ; move to first perimeter point
G1 X104.336 Y149.814 E46.79795 F1800.000 ; perimeter
G1 X104.336 Y110.186 E49.44537 ; perimeter
G1 X155.664 Y110.186 E52.87441 ; perimeter
G1 X155.664 Y149.754 E55.51781 ; perimeter
G1 X156.200 Y150.350 F6000.000 ; move to first perimeter point
G1 X103.800 Y150.350 E59.01842 F1800.000 ; perimeter
G1 X103.800 Y109.650 E61.73740 ; perimeter
G1 X156.200 Y109.650 E65.23800 ; perimeter
G1 X156.200 Y150.290 E67.95297 ; perimeter
G1 X155.854 Y150.150 F6000.000 ; move inwards before travel
G1 X151.193 Y113.038 F6000.000 ; move to first infill point
G1 X154.807 Y116.652 E68.29697 F1800.000 ; infill
G1 X154.807 Y117.415 E68.34833 ; infill
G1 X151.193 Y113.801 E68.69233 ; infill
G1 X151.193 Y114.564 E68.74369 ; infill
G1 X154.807 Y118.178 E69.08769 ; infill
G1 X154.807 Y118.941 E69.13905 ; infill
G1 X151.193 Y115.327 E69.48305 ; infill
G1 X151.193 Y116.090 E69.53441 ; infill
G1 X154.807 Y119.704 E69.87841 ; infill
G1 X154.807 Y120.467 E69.92977 ; infill
G1 X151.193 Y116.853 E70.27377 ; infill
G1 X151.193 Y117.616 E70.32513 ; infill
G1 X154.807 Y121.230 E70.66913 ; infill
G1 X154.807 Y121.994 E70.72048 ; infill
G1 X151.193 Y118.379 E71.06449 ; infill
G1 X151.193 Y119.142 E71.11584 ; infill
G1 X154.807 Y122.757 E71.45984 ; infill
G1 X154.807 Y123.520 E71.51120 ; infill
G1 X151.193 Y119.906 E71.85520 ; infill
G1 X151.193 Y120.669 E71.90656 ; infill
G1 X154.807 Y124.283 E72.25056 ; infill
G1 X154.807 Y125.046 E72.30192 ; infill
G1 X151.193 Y121.432 E72.64592 ; infill
G1 X151.193 Y122.195 E72.69728 ; infill
G1 X154.807 Y125.809 E73.04128 ; infill
G1 X154.807 Y126.572 E73.09264 ; infill
G1 X151.193 Y122.958 E73.43664 ; infill
G1 X151.193 Y123.721 E73.48800 ; infill
G1 X154.807 Y127.335 E73.83200 ; infill
G1 X154.807 Y128.098 E73.88336 ; infill
G1 X151.193 Y124.484 E74.22736 ; infill
G1 X151.193 Y125.247 E74.27871 ; infill
G1 X154.807 Y128.862 E74.62272 ; infill
G1 X154.807 Y129.625 E74.67407 ; infill
G1 X151.193 Y126.010 E75.01807 ; infill
G1 X151.193 Y126.774 E75.06943 ; infill
G1 X154.807 Y130.388 E75.41343 ; infill
G1 X154.807 Y131.151 E75.46479 ; infill
G1 X151.193 Y127.537 E75.80879 ; infill
G1 X151.193 Y128.300 E75.86015 ; infill
G1 X154.807 Y131.914 E76.20415 ; infill
G1 X154.807 Y132.677 E76.25551 ; infill
G1 X151.193 Y129.063 E76.59951 ; infill
G1 X151.193 Y129.826 E76.65087 ; infill
G1 X154.807 Y133.440 E76.99487 ; infill
G1 X154.807 Y134.203 E77.04623 ; infill
G1 X151.193 Y130.589 E77.39023 ; infill
G1 X151.193 Y131.352 E77.44159 ; infill
G1 X154.807 Y134.966 E77.78559 ; infill
G1 X154.807 Y135.730 E77.83694 ; infill
G1 X151.193 Y132.115 E78.18095 ; infill
G1 X151.193 Y132.878 E78.23230 ; infill
G1 X154.807 Y136.493 E78.57630 ; infill
G1 X154.807 Y137.256 E78.62766 ; infill
G1 X151.193 Y133.641 E78.97166 ; infill
G1 X151.193 Y134.405 E79.02302 ; infill
G1 X154.807 Y138.019 E79.36702 ; infill
G1 X154.807 Y138.782 E79.41838 ; infill
G1 X151.193 Y135.168 E79.76238 ; infill
G1 X151.193 Y135.931 E79.81374 ; infill
G1 X154.807 Y139.545 E80.15774 ; infill
G1 X154.807 Y140.308 E80.20910 ; infill
G1 X151.193 Y136.694 E80.55310 ; infill
G1 X151.193 Y137.457 E80.60446 ; infill
G1 X154.807 Y141.071 E80.94846 ; infill
G1 X154.807 Y141.834 E80.99982 ; infill
G1 X151.193 Y138.220 E81.34382 ; infill
G1 X151.193 Y138.983 E81.39517 ; infill
G1 X154.807 Y142.597 E81.73917 ; infill
G1 X154.807 Y143.361 E81.79053 ; infill
G1 X151.193 Y139.746 E82.13453 ; infill
G1 X151.193 Y140.509 E82.18589 ; infill
G1 X154.807 Y144.124 E82.52989 ; infill
G1 X154.807 Y144.887 E82.58125 ; infill
G1 X151.193 Y141.273 E82.92525 ; infill
G1 X151.193 Y142.036 E82.97661 ; infill
G1 X154.807 Y145.650 E83.32061 ; infill
G1 X154.807 Y146.413 E83.37197 ; infill
G1 X151.193 Y142.799 E83.71597 ; infill
G1 X151.193 Y143.562 E83.76733 ; infill
G1 X154.807 Y147.176 E84.11133 ; infill
G1 X154.807 Y147.939 E84.16269 ; infill
G1 X151.193 Y144.325 E84.50669 ; infill
G1 X151.193 Y145.088 E84.55804 ; infill
G1 X154.807 Y148.702 E84.90205 ; infill
G1 X154.299 Y148.957 E84.94031 ; infill
G1 X151.193 Y145.851 E85.23593 ; infill
G1 X151.193 Y146.614 E85.28729 ; infill
G1 X153.536 Y148.957 E85.51028 ; infill
G1 X152.773 Y148.957 E85.56164 ; infill
G1 X151.158 Y147.343 E85.71528 ; infill
G1 X150.395 Y147.343 E85.76664 ; infill
G1 X152.010 Y148.957 E85.92028 ; infill
G1 X151.246 Y148.957 E85.97164 ; infill
G1 X149.632 Y147.343 E86.12529 ; infill
G1 X148.869 Y147.343 E86.17664 ; infill
G1 X150.483 Y148.957 E86.33029 ; infill
G1 X149.720 Y148.957 E86.38165 ; infill
G1 X148.106 Y147.343 E86.53529 ; infill
G1 X147.343 Y147.343 E86.58665 ; infill
G1 X148.957 Y148.957 E86.74029 ; infill
G1 X148.194 Y148.957 E86.79165 ; infill
G1 X146.580 Y147.343 E86.94529 ; infill
G1 X145.817 Y147.343 E86.99665 ; infill
G1 X147.431 Y148.957 E87.15029 ; infill
G1 X146.668 Y148.957 E87.20165 ; infill
G1 X145.054 Y147.343 E87.35529 ; infill
G1 X144.290 Y147.343 E87.40665 ; infill
G1 X145.905 Y148.957 E87.56029 ; infill
G1 X145.142 Y148.957 E87.61165 ; infill
G1 X143.527 Y147.343 E87.76530 ; infill
G1 X142.764 Y147.343 E87.81665 ; infill
G1 X144.378 Y148.957 E87.97030 ; infill
G1 X143.615 Y148.957 E88.02165 ; infill
G1 X142.001 Y147.343 E88.17530 ; infill
G1 X141.238 Y147.343 E88.22666 ; infill
G1 X142.852 Y148.957 E88.38030 ; infill
G1 X142.089 Y148.957 E88.43166 ; infill
G1 X140.475 Y147.343 E88.58530 ; infill
G1 X139.712 Y147.343 E88.63666 ; infill
G1 X141.326 Y148.957 E88.79030 ; infill
G1 X140.563 Y148.957 E88.84166 ; infill
G1 X138.949 Y147.343 E88.99530 ; infill
G1 X138.186 Y147.343 E89.04666 ; infill
G1 X139.800 Y148.957 E89.20030 ; infill
G1 X139.037 Y148.957 E89.25166 ; infill
G1 X137.422 Y147.343 E89.40530 ; infill
G1 X136.659 Y147.343 E89.45666 ; infill
G1 X138.274 Y148.957 E89.61031 ; infill
G1 X137.510 Y148.957 E89.66166 ; infill
G1 X135.896 Y147.343 E89.81531 ; infill
G1 X135.133 Y147.343 E89.86667 ; infill
G1 X136.747 Y148.957 E90.02031 ; infill
G1 X135.984 Y148.957 E90.07167 ; infill
G1 X134.370 Y147.343 E90.22531 ; infill
G1 X133.607 Y147.343 E90.27667 ; infill
G1 X135.221 Y148.957 E90.43031 ; infill
G1 X134.458 Y148.957 E90.48167 ; infill
G1 X132.844 Y147.343 E90.63531 ; infill
G1 X132.081 Y147.343 E90.68667 ; infill
G1 X133.695 Y148.957 E90.84031 ; infill
G1 X132.932 Y148.957 E90.89167 ; infill
G1 X131.318 Y147.343 E91.04531 ; infill
G1 X130.554 Y147.343 E91.09667 ; infill
G1 X132.169 Y148.957 E91.25032 ; infill
G1 X131.406 Y148.957 E91.30167 ; infill
G1 X129.791 Y147.343 E91.45532 ; infill
G1 X129.028 Y147.343 E91.50668 ; infill
G1 X130.643 Y148.957 E91.66032 ; infill
G1 X129.879 Y148.957 E91.71168 ; infill
G1 X128.265 Y147.343 E91.86532 ; infill
G1 X127.502 Y147.343 E91.91668 ; infill
G1 X129.116 Y148.957 E92.07032 ; infill
G1 X128.353 Y148.957 E92.12168 ; infill
G1 X126.739 Y147.343 E92.27532 ; infill
G1 X125.976 Y147.343 E92.32668 ; infill
G1 X127.590 Y148.957 E92.48032 ; infill
G1 X126.827 Y148.957 E92.53168 ; infill
G1 X125.213 Y147.343 E92.68532 ; infill
G1 X124.450 Y147.343 E92.73668 ; infill
G1 X126.064 Y148.957 E92.89033 ; infill
G1 X125.301 Y148.957 E92.94168 ; infill
G1 X123.687 Y147.343 E93.09533 ; infill
G1 X122.923 Y147.343 E93.14668 ; infill
G1 X124.538 Y148.957 E93.30033 ; infill
G1 X123.775 Y148.957 E93.35169 ; infill
G1 X122.160 Y147.343 E93.50533 ; infill
G1 X121.397 Y147.343 E93.55669 ; infill
G1 X123.011 Y148.957 E93.71033 ; infill
G1 X122.248 Y148.957 E93.76169 ; infill
G1 X120.634 Y147.343 E93.91533 ; infill
G1 X119.871 Y147.343 E93.96669 ; infill
G1 X121.485 Y148.957 E94.12033 ; infill
G1 X120.722 Y148.957 E94.17169 ; infill
G1 X119.108 Y147.343 E94.32533 ; infill
G1 X118.345 Y147.343 E94.37669 ; infill
G1 X119.959 Y148.957 E94.53033 ; infill
G1 X119.196 Y148.957 E94.58169 ; infill
G1 X117.582 Y147.343 E94.73534 ; infill
G1 X116.819 Y147.343 E94.78669 ; infill
G1 X118.433 Y148.957 E94.94034 ; infill
G1 X117.670 Y148.957 E94.99170 ; infill
G1 X116.055 Y147.343 E95.14534 ; infill
G1 X115.292 Y147.343 E95.19670 ; infill
G1 X116.907 Y148.957 E95.35034 ; infill
G1 X116.144 Y148.957 E95.40170 ; infill
G1 X114.529 Y147.343 E95.55534 ; infill
G1 X113.766 Y147.343 E95.60670 ; infill
G1 X115.380 Y148.957 E95.76034 ; infill
G1 X114.617 Y148.957 E95.81170 ; infill
G1 X113.003 Y147.343 E95.96534 ; infill
G1 X112.240 Y147.343 E96.01670 ; infill
G1 X113.854 Y148.957 E96.17034 ; infill
G1 X113.091 Y148.957 E96.22170 ; infill
G1 X111.477 Y147.343 E96.37535 ; infill
G1 X110.714 Y147.343 E96.42670 ; infill
G1 X112.328 Y148.957 E96.58035 ; infill
G1 X111.565 Y148.957 E96.63170 ; infill
G1 X109.951 Y147.343 E96.78535 ; infill
G1 X109.188 Y147.343 E96.83671 ; infill
G1 X110.802 Y148.957 E96.99035 ; infill
G1 X110.039 Y148.957 E97.04171 ; infill
G1 X105.193 Y144.111 E97.50292 ; infill
G1 X105.193 Y143.348 E97.55428 ; infill
G1 X108.807 Y146.962 E97.89828 ; infill
G1 X108.807 Y146.199 E97.94964 ; infill
G1 X105.193 Y142.585 E98.29364 ; infill
G1 X105.193 Y141.822 E98.34500 ; infill
G1 X108.807 Y145.436 E98.68900 ; infill
G1 X108.807 Y144.673 E98.74036 ; infill
G1 X105.193 Y141.059 E99.08436 ; infill
G1 X105.193 Y140.296 E99.13572 ; infill
G1 X108.807 Y143.910 E99.47972 ; infill
G1 X108.807 Y143.147 E99.53108 ; infill
G1 X105.193 Y139.533 E99.87508 ; infill
G1 X105.193 Y138.770 E99.92644 ; infill
G1 X108.807 Y142.384 E100.27044 ; infill
G1 X108.807 Y141.621 E100.32180 ; infill
G1 X105.193 Y138.006 E100.66580 ; infill
G1 X105.193 Y137.243 E100.71715 ; infill
G1 X108.807 Y140.858 E101.06115 ; infill
G1 X108.807 Y140.095 E101.11251 ; infill
G1 X105.193 Y136.480 E101.45651 ; infill
G1 X105.193 Y135.717 E101.50787 ; infill
G1 X108.807 Y139.331 E101.85187 ; infill
G1 X108.807 Y138.568 E101.90323 ; infill
G1 X105.193 Y134.954 E102.24723 ; infill
G1 X105.193 Y134.191 E102.29859 ; infill
G1 X108.807 Y137.805 E102.64259 ; infill
G1 X108.807 Y137.042 E102.69395 ; infill
G1 X105.193 Y133.428 E103.03795 ; infill
G1 X105.193 Y132.665 E103.08931 ; infill
G1 X108.807 Y136.279 E103.43331 ; infill
G1 X108.807 Y135.516 E103.48467 ; infill
G1 X105.193 Y131.902 E103.82867 ; infill
G1 X105.193 Y131.139 E103.88002 ; infill
G1 X108.807 Y134.753 E104.22403 ; infill
G1 X108.807 Y133.990 E104.27538 ; infill
G1 X105.193 Y130.375 E104.61938 ; infill
G1 X105.193 Y129.612 E104.67074 ; infill
G1 X108.807 Y133.227 E105.01474 ; infill
G1 X108.807 Y132.463 E105.06610 ; infill
G1 X105.193 Y128.849 E105.41010 ; infill
G1 X105.193 Y128.086 E105.46146 ; infill
G1 X108.807 Y131.700 E105.80546 ; infill
G1 X108.807 Y130.937 E105.85682 ; infill
G1 X105.193 Y127.323 E106.20082 ; infill
G1 X105.193 Y126.560 E106.25218 ; infill
G1 X108.807 Y130.174 E106.59618 ; infill
G1 X108.807 Y129.411 E106.64754 ; infill
G1 X105.193 Y125.797 E106.99154 ; infill
G1 X105.193 Y125.034 E107.04290 ; infill
G1 X108.807 Y128.648 E107.38690 ; infill
G1 X108.807 Y127.885 E107.43825 ; infill
G1 X105.193 Y124.271 E107.78225 ; infill
G1 X105.193 Y123.507 E107.83361 ; infill
G1 X108.807 Y127.122 E108.17761 ; infill
G1 X108.807 Y126.359 E108.22897 ; infill
G1 X105.193 Y122.744 E108.57297 ; infill
G1 X105.193 Y121.981 E108.62433 ; infill
G1 X108.807 Y125.596 E108.96833 ; infill
G1 X108.807 Y124.832 E109.01969 ; infill
G1 X105.193 Y121.218 E109.36369 ; infill
G1 X105.193 Y120.455 E109.41505 ; infill
G1 X108.807 Y124.069 E109.75905 ; infill
