; generated by Slic3r 1.2.9 on 2018-10-24 at 13:54:34

; external perimeters extrusion width = 0.30mm
; perimeters extrusion width = 0.30mm
; infill extrusion width = 0.60mm
; solid infill extrusion width = 0.60mm
; top infill extrusion width = 0.45mm

M107 ; disable fan
M190 S60 ; set bed temperature
M104 S240 ; set temperature
G28 ; home all axes
G1 Z5 F5000 ; lift nozzle

M109 S240 ; wait for temperature to be reached
G21 ; set units to millimeters
G90 ; use absolute coordinates
M82 ; use absolute distances for extrusion
G92 E0 ; reset extrusion distance
G1 E-2.00000 F4800.00000 ; retract
G92 E0 ; reset extrusion distance
G1 Z0.500 F6000.000 ; lift Z
G1 X100.577 Y106.056 F6000.000 ; move to first skirt point
G1 Z0.300 F6000.000 ; restore layer Z
G1 E2.00000 F4800.00000 ; unretract
G1 X102.234 Y105.107 E2.12755 F1800.000 ; skirt
G1 X103.613 Y104.887 E2.22081 ; skirt
G1 X125.112 Y104.743 E3.65712 ; skirt
G1 X131.138 Y104.743 E4.05970 ; skirt
G1 X156.383 Y104.887 E5.74618 ; skirt
G1 X158.248 Y105.293 E5.87374 ; skirt
G1 X159.789 Y106.421 E6.00129 ; skirt
G1 X160.740 Y108.076 E6.12884 ; skirt
G1 X160.963 Y109.458 E6.22231 ; skirt
G1 X161.107 Y127.844 E7.45064 ; skirt
G1 X161.107 Y133.919 E7.85653 ; skirt
G1 X160.963 Y150.546 E8.96733 ; skirt
G1 X160.551 Y152.411 E9.09488 ; skirt
G1 X159.419 Y153.948 E9.22244 ; skirt
G1 X157.761 Y154.894 E9.34999 ; skirt
G1 X156.385 Y155.113 E9.44307 ; skirt
G1 X132.973 Y155.257 E11.00710 ; skirt
G1 X126.945 Y155.257 E11.40982 ; skirt
G1 X103.615 Y155.113 E12.96842 ; skirt
G1 X101.750 Y154.706 E13.09597 ; skirt
G1 X100.210 Y153.578 E13.22353 ; skirt
G1 X99.259 Y151.922 E13.35108 ; skirt
G1 X99.037 Y150.548 E13.44403 ; skirt
G1 X98.893 Y134.654 E14.50585 ; skirt
G1 X98.893 Y128.578 E14.91177 ; skirt
G1 X99.037 Y109.459 E16.18908 ; skirt
G1 X99.446 Y107.594 E16.31664 ; skirt
G1 X100.542 Y106.104 E16.44018 ; skirt
G1 X101.100 Y106.315 F6000.000 ; move to first skirt point
G1 X102.713 Y105.530 E16.56000 F1800.000 ; skirt
G1 X103.616 Y105.422 E16.62080 ; skirt
G1 X125.112 Y105.279 E18.05687 ; skirt
G1 X131.135 Y105.279 E18.45925 ; skirt
G1 X156.380 Y105.422 E20.14574 ; skirt
G1 X158.127 Y105.827 E20.26556 ; skirt
G1 X159.531 Y106.944 E20.38538 ; skirt
G1 X160.318 Y108.555 E20.50520 ; skirt
G1 X160.428 Y109.462 E20.56619 ; skirt
G1 X160.571 Y127.848 E21.79453 ; skirt
G1 X160.571 Y133.880 E22.19748 ; skirt
G1 X160.428 Y150.542 E23.31063 ; skirt
G1 X160.017 Y152.288 E23.43045 ; skirt
G1 X158.897 Y153.688 E23.55027 ; skirt
G1 X157.283 Y154.471 E23.67009 ; skirt
G1 X156.381 Y154.578 E23.73074 ; skirt
G1 X132.945 Y154.721 E25.29644 ; skirt
G1 X126.920 Y154.721 E25.69895 ; skirt
G1 X103.618 Y154.578 E27.25565 ; skirt
G1 X101.871 Y154.172 E27.37547 ; skirt
G1 X100.468 Y153.055 E27.49530 ; skirt
G1 X99.681 Y151.443 E27.61512 ; skirt
G1 X99.572 Y150.543 E27.67565 ; skirt
G1 X99.429 Y134.613 E28.73992 ; skirt
G1 X99.429 Y128.582 E29.14280 ; skirt
G1 X99.572 Y109.463 E30.42011 ; skirt
G1 X99.981 Y107.716 E30.53993 ; skirt
G1 X101.062 Y106.362 E30.65575 ; skirt
G1 X101.619 Y106.595 F6000.000 ; move to first skirt point
G1 X103.620 Y105.958 E30.79603 F1800.000 ; skirt
G1 X125.089 Y105.814 E32.23028 ; skirt
G1 X131.132 Y105.814 E32.63403 ; skirt
G1 X156.377 Y105.958 E34.32052 ; skirt
G1 X157.997 Y106.362 E34.43207 ; skirt
G1 X159.251 Y107.464 E34.54363 ; skirt
G1 X159.892 Y109.466 E34.68407 ; skirt
G1 X160.036 Y127.852 E35.91240 ; skirt
G1 X160.036 Y133.880 E36.31508 ; skirt
G1 X159.892 Y150.537 E37.42791 ; skirt
G1 X159.484 Y152.156 E37.53947 ; skirt
G1 X158.378 Y153.407 E37.65103 ; skirt
G1 X156.378 Y154.042 E37.79118 ; skirt
G1 X132.967 Y154.186 E39.35521 ; skirt
G1 X126.945 Y154.186 E39.75749 ; skirt
G1 X103.622 Y154.042 E41.31565 ; skirt
G1 X102.002 Y153.638 E41.42721 ; skirt
G1 X100.748 Y152.535 E41.53876 ; skirt
G1 X100.108 Y150.538 E41.67882 ; skirt
G1 X99.965 Y134.645 E42.74064 ; skirt
G1 X99.964 Y128.586 E43.14537 ; skirt
G1 X100.108 Y109.467 E44.42269 ; skirt
G1 X100.515 Y107.847 E44.53424 ; skirt
G1 X101.579 Y106.640 E44.64179 ; skirt
G1 E42.64179 F4800.00000 ; retract
G92 E0 ; reset extrusion distance
G1 Z0.800 F6000.000 ; lift Z
G1 X151.015 Y147.165 F6000.000 ; move to first perimeter point
G1 Z0.300 F6000.000 ; restore layer Z
G1 E2.00000 F4800.00000 ; unretract
G1 X108.985 Y147.165 E4.80780 F1800.000 ; perimeter
G1 X108.985 Y112.835 E7.10119 ; perimeter
G1 X151.015 Y112.835 E9.90899 ; perimeter
G1 X151.015 Y147.105 E12.19838 ; perimeter
G1 X150.479 Y146.629 F6000.000 ; move to first perimeter point
G1 X109.521 Y146.629 E14.93462 F1800.000 ; perimeter
G1 X109.521 Y113.371 E17.15645 ; perimeter
G1 X150.479 Y113.371 E19.89268 ; perimeter
G1 X150.479 Y146.569 E22.11051 ; perimeter
G1 X149.944 Y146.094 F6000.000 ; move to first perimeter point
G1 X110.056 Y146.094 E24.77518 F1800.000 ; perimeter
G1 X110.056 Y113.906 E26.92545 ; perimeter
G1 X149.944 Y113.906 E29.59012 ; perimeter
G1 X149.944 Y146.034 E31.73638 ; perimeter
G1 X149.944 Y146.494 F6000.000 ; move inwards before travel
G1 X154.985 Y149.135 F6000.000 ; move to first perimeter point
G1 X131.574 Y149.135 E33.30039 F1800.000 ; perimeter
G1 X131.574 Y149.279 E33.30999 ; perimeter
G1 X128.316 Y149.279 E33.52761 ; perimeter
G1 X128.316 Y149.135 E33.53721 ; perimeter
G1 X105.015 Y149.135 E35.09388 ; perimeter
G1 X105.015 Y133.242 E36.15566 ; perimeter
G1 X104.871 Y133.242 E36.16526 ; perimeter
G1 X104.871 Y129.984 E36.38288 ; perimeter
G1 X105.015 Y129.984 E36.39248 ; perimeter
G1 X105.015 Y110.865 E37.66976 ; perimeter
G1 X126.483 Y110.865 E39.10398 ; perimeter
G1 X126.483 Y110.721 E39.11358 ; perimeter
G1 X129.741 Y110.721 E39.33120 ; perimeter
G1 X129.741 Y110.865 E39.34080 ; perimeter
G1 X154.985 Y110.865 E41.02726 ; perimeter
G1 X154.985 Y129.251 E42.25555 ; perimeter
G1 X155.129 Y129.251 E42.26516 ; perimeter
G1 X155.129 Y132.508 E42.48278 ; perimeter
G1 X154.985 Y132.508 E42.49238 ; perimeter
G1 X154.985 Y149.075 E43.59913 ; perimeter
G1 X155.521 Y149.671 F6000.000 ; move to first perimeter point
G1 X132.109 Y149.671 E45.16313 F1800.000 ; perimeter
G1 X132.109 Y149.814 E45.17273 ; perimeter
G1 X127.781 Y149.814 E45.46192 ; perimeter
G1 X127.781 Y149.671 E45.47152 ; perimeter
G1 X104.479 Y149.671 E47.02819 ; perimeter
G1 X104.479 Y133.777 E48.08997 ; perimeter
G1 X104.336 Y133.777 E48.09957 ; perimeter
G1 X104.336 Y129.449 E48.38875 ; perimeter
G1 X104.479 Y129.449 E48.39835 ; perimeter
G1 X104.479 Y110.329 E49.67563 ; perimeter
G1 X125.948 Y110.329 E51.10985 ; perimeter
G1 X125.948 Y110.186 E51.11945 ; perimeter
G1 X130.277 Y110.186 E51.40864 ; perimeter
G1 X130.277 Y110.329 E51.41824 ; perimeter
G1 X155.521 Y110.329 E53.10469 ; perimeter
G1 X155.521 Y128.715 E54.33299 ; perimeter
G1 X155.664 Y128.715 E54.34259 ; perimeter
G1 X155.664 Y133.044 E54.63178 ; perimeter
G1 X155.521 Y133.044 E54.64138 ; perimeter
G1 X155.521 Y149.611 E55.74813 ; perimeter
G1 X156.056 Y150.206 F6000.000 ; move to first perimeter point
G1 X132.645 Y150.206 E57.31213 F1800.000 ; perimeter
G1 X132.645 Y150.350 E57.32173 ; perimeter
G1 X127.245 Y150.350 E57.68248 ; perimeter
G1 X127.245 Y150.206 E57.69208 ; perimeter
G1 X103.944 Y150.206 E59.24876 ; perimeter
G1 X103.944 Y134.313 E60.31053 ; perimeter
G1 X103.800 Y134.313 E60.32013 ; perimeter
G1 X103.800 Y128.913 E60.68088 ; perimeter
G1 X103.944 Y128.913 E60.69048 ; perimeter
G1 X103.944 Y109.794 E61.96776 ; perimeter
G1 X125.412 Y109.794 E63.40198 ; perimeter
G1 X125.412 Y109.650 E63.41158 ; perimeter
G1 X130.812 Y109.650 E63.77233 ; perimeter
G1 X130.812 Y109.794 E63.78193 ; perimeter
G1 X156.056 Y109.794 E65.46839 ; perimeter
G1 X156.056 Y128.180 E66.69669 ; perimeter
G1 X156.200 Y128.180 E66.70629 ; perimeter
G1 X156.200 Y133.580 E67.06704 ; perimeter
G1 X156.056 Y133.580 E67.07664 ; perimeter
G1 X156.056 Y150.146 E68.18339 ; perimeter
G1 X155.710 Y150.006 F6000.000 ; move inwards before travel
G1 X151.336 Y113.433 F6000.000 ; move to first infill point
G1 X154.664 Y116.760 E68.49797 F1800.000 ; infill
G1 X154.664 Y117.518 E68.54865 ; infill
G1 X151.336 Y114.191 E68.86323 ; infill
G1 X151.336 Y114.949 E68.91391 ; infill
G1 X154.664 Y118.276 E69.22849 ; infill
G1 X154.663 Y119.034 E69.27917 ; infill
G1 X151.336 Y115.707 E69.59375 ; infill
G1 X151.336 Y116.465 E69.64443 ; infill
G1 X154.663 Y119.792 E69.95901 ; infill
G1 X154.663 Y120.550 E70.00969 ; infill
G1 X151.336 Y117.223 E70.32427 ; infill
G1 X151.336 Y117.981 E70.37495 ; infill
G1 X154.663 Y121.308 E70.68953 ; infill
G1 X154.663 Y122.067 E70.74021 ; infill
G1 X151.336 Y118.739 E71.05479 ; infill
G1 X151.336 Y119.498 E71.10547 ; infill
G1 X154.663 Y122.825 E71.42005 ; infill
G1 X154.663 Y123.583 E71.47073 ; infill
G1 X151.336 Y120.256 E71.78530 ; infill
G1 X151.336 Y121.014 E71.83599 ; infill
G1 X154.663 Y124.341 E72.15056 ; infill
G1 X154.663 Y125.099 E72.20124 ; infill
G1 X151.336 Y121.772 E72.51581 ; infill
G1 X151.336 Y122.530 E72.56650 ; infill
G1 X154.663 Y125.857 E72.88107 ; infill
G1 X154.663 Y126.615 E72.93175 ; infill
G1 X151.336 Y123.288 E73.24632 ; infill
G1 X151.336 Y124.046 E73.29700 ; infill
G1 X154.663 Y127.373 E73.61157 ; infill
G1 X154.663 Y128.131 E73.66226 ; infill
G1 X151.336 Y124.804 E73.97683 ; infill
G1 X151.336 Y125.562 E74.02751 ; infill
G1 X154.663 Y128.889 E74.34208 ; infill
G1 X154.663 Y129.647 E74.39276 ; infill
G1 X151.336 Y126.320 E74.70733 ; infill
G1 X151.336 Y127.078 E74.75801 ; infill
G1 X154.807 Y130.549 E75.08617 ; infill
G1 X154.807 Y131.307 E75.13685 ; infill
G1 X151.336 Y127.836 E75.46501 ; infill
G1 X151.336 Y128.594 E75.51569 ; infill
G1 X154.807 Y132.065 E75.84385 ; infill
G1 X154.663 Y132.679 E75.88604 ; infill
G1 X151.336 Y129.352 E76.20060 ; infill
G1 X151.336 Y130.111 E76.25129 ; infill
G1 X154.663 Y133.437 E76.56586 ; infill
G1 X154.663 Y134.196 E76.61654 ; infill
G1 X151.336 Y130.869 E76.93111 ; infill
G1 X151.336 Y131.627 E76.98179 ; infill
G1 X154.663 Y134.954 E77.29636 ; infill
G1 X154.663 Y135.712 E77.34705 ; infill
G1 X151.336 Y132.385 E77.66162 ; infill
G1 X151.336 Y133.143 E77.71230 ; infill
G1 X154.663 Y136.470 E78.02687 ; infill
G1 X154.663 Y137.228 E78.07756 ; infill
G1 X151.336 Y133.901 E78.39213 ; infill
G1 X151.336 Y134.659 E78.44281 ; infill
G1 X154.663 Y137.986 E78.75739 ; infill
G1 X154.663 Y138.744 E78.80807 ; infill
G1 X151.336 Y135.417 E79.12264 ; infill
G1 X151.336 Y136.175 E79.17333 ; infill
G1 X154.663 Y139.502 E79.48790 ; infill
G1 X154.663 Y140.260 E79.53859 ; infill
G1 X151.336 Y136.933 E79.85316 ; infill
G1 X151.336 Y137.691 E79.90385 ; infill
G1 X154.663 Y141.018 E80.21842 ; infill
G1 X154.663 Y141.776 E80.26911 ; infill
G1 X151.336 Y138.449 E80.58368 ; infill
G1 X151.336 Y139.207 E80.63437 ; infill
G1 X154.664 Y142.534 E80.94895 ; infill
G1 X154.664 Y143.293 E80.99963 ; infill
G1 X151.336 Y139.965 E81.31421 ; infill
G1 X151.336 Y140.723 E81.36489 ; infill
G1 X154.664 Y144.051 E81.67947 ; infill
G1 X154.664 Y144.809 E81.73016 ; infill
G1 X151.336 Y141.482 E82.04474 ; infill
G1 X151.336 Y142.240 E82.09542 ; infill
G1 X154.664 Y145.567 E82.41000 ; infill
G1 X154.664 Y146.325 E82.46069 ; infill
G1 X151.336 Y142.998 E82.77527 ; infill
G1 X151.336 Y143.756 E82.82595 ; infill
G1 X154.664 Y147.083 E83.14054 ; infill
G1 X154.664 Y147.841 E83.19122 ; infill
G1 X151.336 Y144.514 E83.50580 ; infill
G1 X151.336 Y145.272 E83.55649 ; infill
G1 X154.664 Y148.599 E83.87107 ; infill
G1 X154.120 Y148.814 E83.91014 ; infill
G1 X151.336 Y146.030 E84.17333 ; infill
G1 X151.336 Y146.788 E84.22401 ; infill
G1 X153.362 Y148.814 E84.41553 ; infill
G1 X152.604 Y148.814 E84.46621 ; infill
G1 X151.277 Y147.486 E84.59170 ; infill
G1 X150.519 Y147.486 E84.64238 ; infill
G1 X151.846 Y148.814 E84.76786 ; infill
G1 X151.088 Y148.814 E84.81855 ; infill
G1 X149.761 Y147.486 E84.94403 ; infill
G1 X149.002 Y147.486 E84.99471 ; infill
G1 X150.330 Y148.814 E85.12019 ; infill
G1 X149.572 Y148.814 E85.17088 ; infill
G1 X148.244 Y147.486 E85.29636 ; infill
G1 X147.486 Y147.486 E85.34704 ; infill
G1 X148.813 Y148.814 E85.47252 ; infill
G1 X148.055 Y148.814 E85.52321 ; infill
G1 X146.728 Y147.486 E85.64869 ; infill
G1 X145.970 Y147.486 E85.69937 ; infill
G1 X147.297 Y148.814 E85.82485 ; infill
G1 X146.539 Y148.814 E85.87553 ; infill
G1 X145.212 Y147.486 E86.00101 ; infill
G1 X144.454 Y147.486 E86.05169 ; infill
G1 X145.781 Y148.814 E86.17717 ; infill
G1 X145.023 Y148.814 E86.22786 ; infill
G1 X143.696 Y147.486 E86.35333 ; infill
G1 X142.938 Y147.486 E86.40402 ; infill
G1 X144.265 Y148.813 E86.52949 ; infill
G1 X143.507 Y148.813 E86.58018 ; infill
G1 X142.180 Y147.486 E86.70565 ; infill
G1 X141.422 Y147.486 E86.75634 ; infill
G1 X142.749 Y148.813 E86.88181 ; infill
G1 X141.991 Y148.813 E86.93250 ; infill
G1 X140.664 Y147.486 E87.05797 ; infill
G1 X139.906 Y147.486 E87.10866 ; infill
G1 X141.233 Y148.813 E87.23413 ; infill
G1 X140.475 Y148.813 E87.28481 ; infill
G1 X139.148 Y147.486 E87.41029 ; infill
G1 X138.390 Y147.486 E87.46097 ; infill
G1 X139.717 Y148.813 E87.58645 ; infill
G1 X138.959 Y148.813 E87.63713 ; infill
G1 X137.631 Y147.486 E87.76260 ; infill
G1 X136.873 Y147.486 E87.81328 ; infill
G1 X138.200 Y148.813 E87.93876 ; infill
G1 X137.442 Y148.813 E87.98944 ; infill
G1 X136.115 Y147.486 E88.11491 ; infill
G1 X135.357 Y147.486 E88.16560 ; infill
G1 X136.684 Y148.813 E88.29107 ; infill
G1 X135.926 Y148.813 E88.34175 ; infill
G1 X134.599 Y147.486 E88.46722 ; infill
G1 X133.841 Y147.486 E88.51790 ; infill
G1 X135.168 Y148.813 E88.64338 ; infill
G1 X134.410 Y148.813 E88.69406 ; infill
G1 X133.083 Y147.486 E88.81953 ; infill
G1 X132.325 Y147.486 E88.87021 ; infill
G1 X133.652 Y148.813 E88.99568 ; infill
G1 X132.894 Y148.813 E89.04636 ; infill
G1 X131.567 Y147.486 E89.17183 ; infill
G1 X130.809 Y147.486 E89.22252 ; infill
G1 X132.136 Y148.813 E89.34798 ; infill
G1 X131.378 Y148.813 E89.39867 ; infill
G1 X130.051 Y147.486 E89.52413 ; infill
G1 X129.293 Y147.486 E89.57482 ; infill
G1 X130.763 Y148.957 E89.71388 ; infill
G1 X130.005 Y148.957 E89.76456 ; infill
G1 X128.535 Y147.486 E89.90362 ; infill
G1 X127.777 Y147.486 E89.95430 ; infill
G1 X129.247 Y148.957 E90.09336 ; infill
G1 X128.345 Y148.813 E90.15441 ; infill
G1 X127.018 Y147.486 E90.27988 ; infill
G1 X126.260 Y147.486 E90.33056 ; infill
G1 X127.587 Y148.813 E90.45603 ; infill
G1 X126.829 Y148.813 E90.50671 ; infill
G1 X125.502 Y147.486 E90.63218 ; infill
G1 X124.744 Y147.486 E90.68286 ; infill
G1 X126.071 Y148.813 E90.80833 ; infill
G1 X125.313 Y148.813 E90.85902 ; infill
G1 X123.986 Y147.486 E90.98449 ; infill
G1 X123.228 Y147.486 E91.03517 ; infill
G1 X124.555 Y148.813 E91.16064 ; infill
G1 X123.797 Y148.813 E91.21132 ; infill
G1 X122.470 Y147.486 E91.33679 ; infill
G1 X121.712 Y147.486 E91.38748 ; infill
G1 X123.039 Y148.813 E91.51295 ; infill
G1 X122.281 Y148.813 E91.56363 ; infill
G1 X120.954 Y147.486 E91.68910 ; infill
G1 X120.196 Y147.486 E91.73979 ; infill
G1 X121.523 Y148.813 E91.86526 ; infill
G1 X120.765 Y148.813 E91.91594 ; infill
G1 X119.438 Y147.486 E92.04142 ; infill
G1 X118.680 Y147.486 E92.09210 ; infill
G1 X120.007 Y148.813 E92.21757 ; infill
G1 X119.249 Y148.813 E92.26826 ; infill
G1 X117.922 Y147.486 E92.39373 ; infill
G1 X117.164 Y147.486 E92.44441 ; infill
G1 X118.491 Y148.813 E92.56989 ; infill
G1 X117.733 Y148.813 E92.62057 ; infill
G1 X116.406 Y147.486 E92.74605 ; infill
G1 X115.647 Y147.486 E92.79673 ; infill
G1 X116.975 Y148.813 E92.92221 ; infill
G1 X116.216 Y148.813 E92.97289 ; infill
G1 X114.889 Y147.486 E93.09837 ; infill
G1 X114.131 Y147.486 E93.14905 ; infill
G1 X115.458 Y148.813 E93.27453 ; infill
G1 X114.700 Y148.814 E93.32521 ; infill
G1 X113.373 Y147.486 E93.45069 ; infill
G1 X112.615 Y147.486 E93.50137 ; infill
