; generated by Slic3r 1.2.9 on 2018-10-23 at 09:40:57

; external perimeters extrusion width = 0.30mm
; perimeters extrusion width = 0.30mm
; infill extrusion width = 0.60mm
; solid infill extrusion width = 0.60mm
; top infill extrusion width = 0.45mm

M107 ; disable fan
M190 S60 ; set bed temperature
M104 S240 ; set temperature
G28 ; home all axes
G1 Z5 F5000 ; lift nozzle

M109 S240 ; wait for temperature to be reached
G21 ; set units to millimeters
G90 ; use absolute coordinates
M82 ; use absolute distances for extrusion
G92 E0 ; reset extrusion distance
G1 E-2.00000 F4800.00000 ; retract
G92 E0 ; reset extrusion distance
G1 Z0.500 F6000.000 ; lift Z
G1 X124.495 Y124.400 F6000.000 ; move to first skirt point
G1 Z0.300 F6000.000 ; restore layer Z
G1 E2.00000 F4800.00000 ; unretract
G1 X125.100 Y123.863 E2.05403 F600.000 ; skirt
G1 X125.757 Y123.392 E2.10804 ; skirt
G1 X126.164 Y123.147 E2.13973 ; skirt
G1 X126.889 Y122.789 E2.19376 ; skirt
G1 X127.647 Y122.507 E2.24778 ; skirt
G1 X128.430 Y122.305 E2.30180 ; skirt
G1 X129.229 Y122.184 E2.35582 ; skirt
G1 X130.037 Y122.146 E2.40985 ; skirt
G1 X130.844 Y122.191 E2.46387 ; skirt
G1 X131.643 Y122.319 E2.51789 ; skirt
G1 X132.424 Y122.528 E2.57192 ; skirt
G1 X133.179 Y122.817 E2.62594 ; skirt
G1 X133.901 Y123.182 E2.67996 ; skirt
G1 X134.582 Y123.619 E2.73398 ; skirt
G1 X135.213 Y124.123 E2.78801 ; skirt
G1 X135.790 Y124.690 E2.84203 ; skirt
G1 X136.305 Y125.314 E2.89605 ; skirt
G1 X136.754 Y125.987 E2.95008 ; skirt
G1 X137.131 Y126.702 E3.00410 ; skirt
G1 X137.432 Y127.453 E3.05812 ; skirt
G1 X137.654 Y128.230 E3.11215 ; skirt
G1 X137.796 Y129.026 E3.16617 ; skirt
G1 X137.855 Y129.833 E3.22019 ; skirt
G1 X137.855 Y130.167 E3.24255 ; skirt
G1 X137.796 Y130.974 E3.29658 ; skirt
G1 X137.654 Y131.770 E3.35059 ; skirt
G1 X137.432 Y132.548 E3.40462 ; skirt
G1 X137.141 Y133.275 E3.45696 ; skirt
G1 X136.919 Y133.722 E3.49032 ; skirt
G1 X136.499 Y134.414 E3.54435 ; skirt
G1 X136.011 Y135.058 E3.59837 ; skirt
G1 X135.459 Y135.649 E3.65239 ; skirt
G1 X134.849 Y136.180 E3.70642 ; skirt
G1 X134.188 Y136.646 E3.76044 ; skirt
G1 X133.482 Y137.041 E3.81446 ; skirt
G1 X132.740 Y137.362 E3.86849 ; skirt
G1 X131.969 Y137.604 E3.92251 ; skirt
G1 X131.176 Y137.766 E3.97653 ; skirt
G1 X130.844 Y137.809 E3.99889 ; skirt
G1 X130.037 Y137.854 E4.05291 ; skirt
G1 X129.229 Y137.816 E4.10694 ; skirt
G1 X128.430 Y137.695 E4.16095 ; skirt
G1 X127.647 Y137.493 E4.21498 ; skirt
G1 X126.912 Y137.220 E4.26732 ; skirt
G1 X126.459 Y137.010 E4.30069 ; skirt
G1 X125.757 Y136.608 E4.35471 ; skirt
G1 X125.100 Y136.137 E4.40873 ; skirt
G1 X124.495 Y135.600 E4.46275 ; skirt
G1 X123.949 Y135.005 E4.51678 ; skirt
G1 X123.466 Y134.356 E4.57080 ; skirt
G1 X123.053 Y133.660 E4.62482 ; skirt
G1 X122.713 Y132.927 E4.67885 ; skirt
G1 X122.451 Y132.162 E4.73287 ; skirt
G1 X122.366 Y131.838 E4.75524 ; skirt
G1 X122.217 Y131.043 E4.80925 ; skirt
G1 X122.151 Y130.237 E4.86328 ; skirt
G1 X122.169 Y129.428 E4.91731 ; skirt
G1 X122.269 Y128.626 E4.97133 ; skirt
G1 X122.451 Y127.838 E5.02535 ; skirt
G1 X122.713 Y127.073 E5.07937 ; skirt
G1 X123.053 Y126.340 E5.13338 ; skirt
G1 X123.466 Y125.644 E5.18742 ; skirt
G1 X123.949 Y124.995 E5.24143 ; skirt
G1 X124.453 Y124.443 E5.29145 ; skirt
G1 X124.879 Y124.773 F6000.000 ; move to first skirt point
G1 X125.444 Y124.274 E5.34179 F600.000 ; skirt
G1 X126.056 Y123.836 E5.39213 ; skirt
G1 X126.416 Y123.620 E5.42013 ; skirt
G1 X127.091 Y123.285 E5.47047 ; skirt
G1 X127.797 Y123.021 E5.52081 ; skirt
G1 X128.526 Y122.832 E5.57115 ; skirt
G1 X129.271 Y122.718 E5.62149 ; skirt
G1 X130.023 Y122.681 E5.67183 ; skirt
G1 X130.776 Y122.722 E5.72217 ; skirt
G1 X131.520 Y122.840 E5.77251 ; skirt
G1 X132.248 Y123.034 E5.82285 ; skirt
G1 X132.952 Y123.302 E5.87319 ; skirt
G1 X133.625 Y123.641 E5.92353 ; skirt
G1 X134.260 Y124.047 E5.97387 ; skirt
G1 X134.850 Y124.517 E6.02421 ; skirt
G1 X135.388 Y125.044 E6.07455 ; skirt
G1 X135.609 Y125.295 E6.09691 ; skirt
G1 X136.063 Y125.897 E6.14724 ; skirt
G1 X136.452 Y126.542 E6.19758 ; skirt
G1 X136.774 Y127.223 E6.24792 ; skirt
G1 X137.023 Y127.934 E6.29826 ; skirt
G1 X137.199 Y128.667 E6.34860 ; skirt
G1 X137.298 Y129.414 E6.39894 ; skirt
G1 X137.319 Y130.167 E6.44928 ; skirt
G1 X137.263 Y130.919 E6.49963 ; skirt
G1 X137.130 Y131.660 E6.54996 ; skirt
G1 X136.922 Y132.385 E6.60031 ; skirt
G1 X136.650 Y133.060 E6.64896 ; skirt
G1 X136.452 Y133.458 E6.67864 ; skirt
G1 X136.063 Y134.103 E6.72898 ; skirt
G1 X135.609 Y134.705 E6.77932 ; skirt
G1 X135.095 Y135.256 E6.82966 ; skirt
G1 X134.528 Y135.752 E6.88000 ; skirt
G1 X133.912 Y136.187 E6.93034 ; skirt
G1 X133.255 Y136.556 E6.98068 ; skirt
G1 X132.564 Y136.856 E7.03102 ; skirt
G1 X132.248 Y136.966 E7.05338 ; skirt
G1 X131.520 Y137.160 E7.10371 ; skirt
G1 X130.776 Y137.278 E7.15405 ; skirt
G1 X130.023 Y137.319 E7.20440 ; skirt
G1 X129.270 Y137.282 E7.25475 ; skirt
G1 X128.526 Y137.168 E7.30507 ; skirt
G1 X127.797 Y136.979 E7.35541 ; skirt
G1 X127.114 Y136.724 E7.40408 ; skirt
G1 X126.711 Y136.537 E7.43375 ; skirt
G1 X126.056 Y136.164 E7.48409 ; skirt
G1 X125.443 Y135.726 E7.53443 ; skirt
G1 X124.879 Y135.227 E7.58477 ; skirt
G1 X124.369 Y134.672 E7.63511 ; skirt
G1 X123.918 Y134.068 E7.68545 ; skirt
G1 X123.532 Y133.421 E7.73579 ; skirt
G1 X123.215 Y132.738 E7.78613 ; skirt
G1 X122.969 Y132.025 E7.83647 ; skirt
G1 X122.884 Y131.701 E7.85884 ; skirt
G1 X122.747 Y130.961 E7.90917 ; skirt
G1 X122.686 Y130.209 E7.95952 ; skirt
G1 X122.704 Y129.456 E8.00986 ; skirt
G1 X122.798 Y128.709 E8.06020 ; skirt
G1 X122.969 Y127.975 E8.11053 ; skirt
G1 X123.215 Y127.262 E8.16088 ; skirt
G1 X123.532 Y126.579 E8.21121 ; skirt
G1 X123.918 Y125.932 E8.26156 ; skirt
G1 X124.369 Y125.328 E8.31189 ; skirt
G1 X124.837 Y124.816 E8.35822 ; skirt
G1 X125.262 Y125.147 F6000.000 ; move to first skirt point
G1 X125.787 Y124.686 E8.40488 F600.000 ; skirt
G1 X126.355 Y124.280 E8.45153 ; skirt
G1 X126.667 Y124.093 E8.47585 ; skirt
G1 X127.292 Y123.781 E8.52251 ; skirt
G1 X127.946 Y123.536 E8.56917 ; skirt
G1 X128.622 Y123.359 E8.61582 ; skirt
G1 X129.312 Y123.252 E8.66248 ; skirt
G1 X130.010 Y123.217 E8.70914 ; skirt
G1 X130.707 Y123.253 E8.75579 ; skirt
G1 X131.039 Y123.296 E8.77815 ; skirt
G1 X131.723 Y123.438 E8.82481 ; skirt
G1 X132.388 Y123.650 E8.87147 ; skirt
G1 X133.028 Y123.929 E8.91812 ; skirt
G1 X133.637 Y124.272 E8.96478 ; skirt
G1 X134.206 Y124.677 E9.01144 ; skirt
G1 X134.731 Y125.137 E9.05809 ; skirt
G1 X134.985 Y125.398 E9.08241 ; skirt
G1 X135.432 Y125.934 E9.12906 ; skirt
G1 X135.821 Y126.514 E9.17572 ; skirt
G1 X136.149 Y127.131 E9.22238 ; skirt
G1 X136.411 Y127.778 E9.26903 ; skirt
G1 X136.606 Y128.449 E9.31569 ; skirt
G1 X136.730 Y129.136 E9.36235 ; skirt
G1 X136.783 Y129.833 E9.40900 ; skirt
G1 X136.765 Y130.531 E9.45566 ; skirt
G1 X136.674 Y131.223 E9.50232 ; skirt
G1 X136.513 Y131.903 E9.54897 ; skirt
G1 X136.283 Y132.562 E9.59563 ; skirt
G1 X135.986 Y133.195 E9.64229 ; skirt
G1 X135.626 Y133.793 E9.68894 ; skirt
G1 X135.206 Y134.351 E9.73560 ; skirt
G1 X134.731 Y134.863 E9.78226 ; skirt
G1 X134.206 Y135.324 E9.82892 ; skirt
G1 X133.637 Y135.728 E9.87557 ; skirt
G1 X133.028 Y136.071 E9.92223 ; skirt
G1 X132.388 Y136.350 E9.96889 ; skirt
G1 X132.072 Y136.460 E9.99124 ; skirt
G1 X131.397 Y136.638 E10.03790 ; skirt
G1 X130.707 Y136.747 E10.08455 ; skirt
G1 X130.009 Y136.783 E10.13121 ; skirt
G1 X129.312 Y136.748 E10.17788 ; skirt
G1 X128.622 Y136.641 E10.22452 ; skirt
G1 X127.946 Y136.464 E10.27118 ; skirt
G1 X127.316 Y136.228 E10.31616 ; skirt
G1 X126.963 Y136.064 E10.34216 ; skirt
G1 X126.355 Y135.720 E10.38881 ; skirt
G1 X125.787 Y135.314 E10.43547 ; skirt
G1 X125.262 Y134.853 E10.48213 ; skirt
G1 X124.789 Y134.340 E10.52878 ; skirt
G1 X124.370 Y133.781 E10.57544 ; skirt
G1 X124.011 Y133.182 E10.62210 ; skirt
G1 X123.716 Y132.549 E10.66875 ; skirt
G1 X123.487 Y131.889 E10.71541 ; skirt
G1 X123.402 Y131.565 E10.73777 ; skirt
G1 X123.276 Y130.878 E10.78442 ; skirt
G1 X123.221 Y130.182 E10.83109 ; skirt
G1 X123.238 Y129.484 E10.87774 ; skirt
G1 X123.327 Y128.791 E10.92440 ; skirt
G1 X123.487 Y128.111 E10.97105 ; skirt
G1 X123.716 Y127.451 E11.01771 ; skirt
G1 X124.011 Y126.818 E11.06436 ; skirt
G1 X124.370 Y126.219 E11.11103 ; skirt
G1 X124.789 Y125.660 E11.15768 ; skirt
G1 X125.221 Y125.190 E11.20033 ; skirt
G1 E9.20033 F4800.00000 ; retract
G92 E0 ; reset extrusion distance
G1 Z0.800 F6000.000 ; lift Z
G1 X127.002 Y130.000 F6000.000 ; move to first perimeter point
G1 Z0.300 F6000.000 ; restore layer Z
G1 E2.00000 F4800.00000 ; unretract
G1 X127.019 Y129.692 E2.02063 F600.000 ; perimeter
G1 X127.067 Y129.387 E2.04126 ; perimeter
G1 X127.146 Y129.088 E2.06188 ; perimeter
G1 X127.255 Y128.799 E2.08250 ; perimeter
G1 X127.393 Y128.523 E2.10312 ; perimeter
G1 X127.559 Y128.263 E2.12374 ; perimeter
G1 X127.892 Y127.870 E2.15815 ; perimeter
G1 X128.203 Y127.602 E2.18557 ; perimeter
G1 X128.458 Y127.429 E2.20619 ; perimeter
G1 X128.731 Y127.284 E2.22682 ; perimeter
G1 X129.017 Y127.167 E2.24745 ; perimeter
G1 X129.321 Y127.079 E2.26862 ; perimeter
G1 X129.677 Y127.020 E2.29275 ; perimeter
G1 X129.988 Y127.002 E2.31355 ; perimeter
G1 X130.540 Y127.051 E2.35059 ; perimeter
G1 X130.840 Y127.122 E2.37115 ; perimeter
G1 X131.131 Y127.224 E2.39176 ; perimeter
G1 X131.411 Y127.354 E2.41238 ; perimeter
G1 X131.676 Y127.513 E2.43300 ; perimeter
G1 X131.923 Y127.697 E2.45362 ; perimeter
G1 X132.133 Y127.889 E2.47261 ; perimeter
G1 X132.354 Y128.138 E2.49488 ; perimeter
G1 X132.533 Y128.390 E2.51551 ; perimeter
G1 X132.685 Y128.659 E2.53614 ; perimeter
G1 X132.808 Y128.942 E2.55677 ; perimeter
G1 X132.901 Y129.236 E2.57739 ; perimeter
G1 X132.964 Y129.539 E2.59801 ; perimeter
G1 X133.000 Y130.014 E2.62985 ; perimeter
G1 X132.964 Y130.461 E2.65983 ; perimeter
G1 X132.907 Y130.740 E2.67884 ; perimeter
G1 X132.807 Y131.059 E2.70113 ; perimeter
G1 X132.685 Y131.341 E2.72170 ; perimeter
G1 X132.533 Y131.610 E2.74233 ; perimeter
G1 X132.354 Y131.862 E2.76296 ; perimeter
G1 X132.133 Y132.111 E2.78523 ; perimeter
G1 X131.923 Y132.303 E2.80422 ; perimeter
G1 X131.676 Y132.487 E2.82484 ; perimeter
G1 X131.411 Y132.646 E2.84546 ; perimeter
G1 X131.131 Y132.777 E2.86608 ; perimeter
G1 X130.840 Y132.878 E2.88670 ; perimeter
G1 X130.540 Y132.949 E2.90731 ; perimeter
G1 X130.234 Y132.989 E2.92793 ; perimeter
G1 X129.988 Y132.998 E2.94433 ; perimeter
G1 X129.617 Y132.974 E2.96918 ; perimeter
G1 X129.313 Y132.919 E2.98981 ; perimeter
G1 X128.998 Y132.826 E3.01174 ; perimeter
G1 X128.714 Y132.707 E3.03234 ; perimeter
G1 X128.419 Y132.546 E3.05480 ; perimeter
G1 X128.144 Y132.353 E3.07727 ; perimeter
G1 X127.915 Y132.153 E3.09756 ; perimeter
G1 X127.559 Y131.737 E3.13414 ; perimeter
G1 X127.393 Y131.477 E3.15476 ; perimeter
G1 X127.255 Y131.201 E3.17538 ; perimeter
G1 X127.146 Y130.912 E3.19600 ; perimeter
G1 X127.067 Y130.613 E3.21663 ; perimeter
G1 X127.019 Y130.308 E3.23725 ; perimeter
G1 X127.002 Y130.000 E3.25789 ; perimeter
M106 S255 ; enable fan
M104 S235 ; set temperature
M140 S55 ; wait for bed temperature to be reached
G1 E1.25789 F4800.00000 ; retract
G92 E0 ; reset extrusion distance
G1 Z0.800 F6000.000 ; lift Z
G1 X132.053 Y132.051 F6000.000 ; move to first perimeter point
G1 Z0.500 F6000.000 ; restore layer Z
G1 E2.00000 F4800.00000 ; unretract
G1 X131.810 Y132.268 E2.00695 F600.000 ; perimeter
G1 X131.545 Y132.456 E2.01390 ; perimeter
G1 X131.261 Y132.613 E2.02086 ; perimeter
G1 X130.960 Y132.737 E2.02781 ; perimeter
G1 X130.648 Y132.828 E2.03476 ; perimeter
G1 X130.327 Y132.882 E2.04171 ; perimeter
G1 X130.002 Y132.900 E2.04867 ; perimeter
G1 X129.677 Y132.882 E2.05562 ; perimeter
G1 X129.357 Y132.828 E2.06257 ; perimeter
G1 X129.044 Y132.737 E2.06952 ; perimeter
G1 X128.744 Y132.613 E2.07648 ; perimeter
G1 X128.459 Y132.456 E2.08343 ; perimeter
G1 X128.194 Y132.268 E2.09038 ; perimeter
G1 X127.951 Y132.051 E2.09733 ; perimeter
G1 X127.735 Y131.808 E2.10428 ; perimeter
G1 X127.546 Y131.543 E2.11124 ; perimeter
G1 X127.388 Y131.257 E2.11822 ; perimeter
G1 X127.247 Y130.897 E2.12648 ; perimeter
G1 X127.175 Y130.645 E2.13209 ; perimeter
G1 X127.120 Y130.325 E2.13904 ; perimeter
G1 X127.102 Y130.000 E2.14599 ; perimeter
G1 X127.120 Y129.675 E2.15294 ; perimeter
G1 X127.175 Y129.355 E2.15990 ; perimeter
G1 X127.265 Y129.042 E2.16685 ; perimeter
G1 X127.389 Y128.742 E2.17380 ; perimeter
G1 X127.546 Y128.457 E2.18075 ; perimeter
G1 X127.735 Y128.192 E2.18771 ; perimeter
G1 X127.951 Y127.949 E2.19466 ; perimeter
G1 X128.194 Y127.733 E2.20161 ; perimeter
G1 X128.459 Y127.544 E2.20856 ; perimeter
G1 X128.744 Y127.387 E2.21551 ; perimeter
G1 X129.044 Y127.263 E2.22247 ; perimeter
G1 X129.358 Y127.172 E2.22945 ; perimeter
G1 X129.740 Y127.114 E2.23771 ; perimeter
G1 X130.002 Y127.100 E2.24332 ; perimeter
G1 X130.327 Y127.118 E2.25027 ; perimeter
G1 X130.648 Y127.172 E2.25722 ; perimeter
G1 X130.960 Y127.263 E2.26417 ; perimeter
G1 X131.261 Y127.387 E2.27113 ; perimeter
G1 X131.545 Y127.544 E2.27808 ; perimeter
G1 X131.810 Y127.733 E2.28503 ; perimeter
G1 X132.053 Y127.949 E2.29198 ; perimeter
G1 X132.270 Y128.192 E2.29894 ; perimeter
G1 X132.458 Y128.457 E2.30589 ; perimeter
G1 X132.615 Y128.742 E2.31284 ; perimeter
G1 X132.740 Y129.042 E2.31979 ; perimeter
G1 X132.830 Y129.355 E2.32674 ; perimeter
G1 X132.884 Y129.675 E2.33370 ; perimeter
G1 X132.902 Y130.000 E2.34065 ; perimeter
G1 X132.884 Y130.326 E2.34763 ; perimeter
G1 X132.812 Y130.706 E2.35590 ; perimeter
G1 X132.740 Y130.958 E2.36150 ; perimeter
G1 X132.615 Y131.258 E2.36845 ; perimeter
G1 X132.458 Y131.543 E2.37540 ; perimeter
G1 X132.270 Y131.808 E2.38236 ; perimeter
G1 X132.093 Y132.006 E2.38803 ; perimeter
G1 X132.131 Y132.366 F6000.000 ; move inwards before travel
G1 X132.222 Y132.163 F6000.000 ; move to first perimeter point
G1 X132.036 Y132.336 E2.39345 F600.000 ; perimeter
G1 X131.731 Y132.573 E2.40169 ; perimeter
G1 X131.459 Y132.736 E2.40849 ; perimeter
G1 X131.170 Y132.871 E2.41531 ; perimeter
G1 X130.869 Y132.976 E2.42213 ; perimeter
G1 X130.558 Y133.050 E2.42895 ; perimeter
G1 X130.241 Y133.091 E2.43578 ; perimeter
G1 X129.922 Y133.099 E2.44260 ; perimeter
G1 X129.604 Y133.074 E2.44942 ; perimeter
G1 X129.290 Y133.017 E2.45624 ; perimeter
G1 X128.984 Y132.928 E2.46306 ; perimeter
G1 X128.688 Y132.808 E2.46989 ; perimeter
G1 X128.406 Y132.658 E2.47671 ; perimeter
G1 X128.142 Y132.479 E2.48353 ; perimeter
G1 X127.897 Y132.275 E2.49035 ; perimeter
G1 X127.674 Y132.046 E2.49717 ; perimeter
G1 X127.476 Y131.796 E2.50400 ; perimeter
G1 X127.304 Y131.527 E2.51082 ; perimeter
G1 X127.162 Y131.241 E2.51764 ; perimeter
G1 X127.049 Y130.943 E2.52446 ; perimeter
G1 X126.968 Y130.634 E2.53129 ; perimeter
G1 X126.919 Y130.319 E2.53811 ; perimeter
G1 X126.902 Y130.000 E2.54493 ; perimeter
G1 X126.919 Y129.681 E2.55175 ; perimeter
G1 X126.968 Y129.366 E2.55857 ; perimeter
G1 X127.049 Y129.057 E2.56540 ; perimeter
G1 X127.162 Y128.759 E2.57222 ; perimeter
G1 X127.304 Y128.473 E2.57904 ; perimeter
G1 X127.476 Y128.204 E2.58586 ; perimeter
G1 X127.674 Y127.954 E2.59269 ; perimeter
G1 X127.897 Y127.725 E2.59951 ; perimeter
G1 X128.142 Y127.521 E2.60633 ; perimeter
G1 X128.406 Y127.343 E2.61315 ; perimeter
G1 X128.688 Y127.193 E2.61997 ; perimeter
G1 X128.984 Y127.072 E2.62680 ; perimeter
G1 X129.290 Y126.983 E2.63362 ; perimeter
G1 X129.604 Y126.926 E2.64044 ; perimeter
G1 X129.922 Y126.901 E2.64726 ; perimeter
G1 X130.176 Y126.908 E2.65268 ; perimeter
G1 X130.559 Y126.951 E2.66093 ; perimeter
G1 X130.869 Y127.024 E2.66772 ; perimeter
G1 X131.170 Y127.129 E2.67455 ; perimeter
G1 X131.459 Y127.264 E2.68137 ; perimeter
G1 X131.733 Y127.428 E2.68819 ; perimeter
