; generated by Slic3r 1.2.9 on 2018-10-24 at 15:44:06

; external perimeters extrusion width = 0.30mm
; perimeters extrusion width = 0.30mm
; infill extrusion width = 0.60mm
; solid infill extrusion width = 0.60mm
; top infill extrusion width = 0.45mm

M107 ; disable fan
M190 S55 ; set bed temperature
M104 S195 ; set temperature
G28 ; home all axes
G1 Z5 F5000 ; lift nozzle

M109 S195 ; wait for temperature to be reached
G21 ; set units to millimeters
G90 ; use absolute coordinates
M82 ; use absolute distances for extrusion
G92 E0 ; reset extrusion distance
G1 E-2.00000 F4800.00000 ; retract
G92 E0 ; reset extrusion distance
G1 Z0.500 F6000.000 ; lift Z
G1 X100.365 Y105.961 F6000.000 ; move to first skirt point
G1 Z0.300 F6000.000 ; restore layer Z
G1 E2.00000 F4800.00000 ; unretract
G1 X102.149 Y104.854 E2.14029 F1800.000 ; skirt
G1 X102.522 Y104.728 E2.16660 ; skirt
G1 X103.476 Y104.515 E2.23189 ; skirt
G1 X104.209 Y104.485 E2.28086 ; skirt
G1 X156.013 Y104.485 E5.74167 ; skirt
G1 X156.524 Y104.515 E5.77585 ; skirt
G1 X157.478 Y104.728 E5.84115 ; skirt
G1 X157.851 Y104.854 E5.86746 ; skirt
G1 X159.635 Y105.961 E6.00775 ; skirt
G1 X159.889 Y106.215 E6.03175 ; skirt
G1 X160.996 Y107.999 E6.17203 ; skirt
G1 X161.122 Y108.372 E6.19834 ; skirt
G1 X161.335 Y109.327 E6.26370 ; skirt
G1 X161.365 Y109.836 E6.29775 ; skirt
G1 X161.365 Y150.164 E8.99187 ; skirt
G1 X161.335 Y150.673 E9.02591 ; skirt
G1 X161.122 Y151.628 E9.09127 ; skirt
G1 X160.996 Y152.001 E9.11759 ; skirt
G1 X159.889 Y153.785 E9.25788 ; skirt
G1 X159.635 Y154.039 E9.28187 ; skirt
G1 X157.851 Y155.146 E9.42216 ; skirt
G1 X157.478 Y155.272 E9.44847 ; skirt
G1 X156.523 Y155.485 E9.51383 ; skirt
G1 X156.013 Y155.515 E9.54795 ; skirt
G1 X103.987 Y155.515 E13.02355 ; skirt
G1 X102.396 Y155.227 E13.13155 ; skirt
G1 X102.167 Y155.141 E13.14792 ; skirt
G1 X101.798 Y154.992 E13.17451 ; skirt
G1 X100.496 Y154.175 E13.27717 ; skirt
G1 X100.353 Y154.047 E13.29000 ; skirt
G1 X99.140 Y152.315 E13.43129 ; skirt
G1 X98.877 Y151.630 E13.48028 ; skirt
G1 X98.634 Y150.152 E13.58037 ; skirt
G1 X98.635 Y109.836 E16.27367 ; skirt
G1 X98.665 Y109.327 E16.30773 ; skirt
G1 X98.878 Y108.372 E16.37308 ; skirt
G1 X99.004 Y107.999 E16.39940 ; skirt
G1 X100.111 Y106.215 E16.53969 ; skirt
G1 X100.322 Y106.003 E16.55967 ; skirt
G1 X100.744 Y106.340 F6000.000 ; move to first skirt point
G1 X102.320 Y105.361 E16.68364 F1800.000 ; skirt
G1 X102.694 Y105.235 E16.70996 ; skirt
G1 X103.537 Y105.047 E16.76765 ; skirt
G1 X104.209 Y105.020 E16.81258 ; skirt
G1 X156.011 Y105.021 E20.27330 ; skirt
G1 X156.463 Y105.047 E20.30353 ; skirt
G1 X157.306 Y105.235 E20.36124 ; skirt
G1 X157.680 Y105.361 E20.38755 ; skirt
G1 X159.256 Y106.340 E20.51153 ; skirt
G1 X159.510 Y106.594 E20.53553 ; skirt
G1 X160.489 Y108.170 E20.65950 ; skirt
G1 X160.615 Y108.544 E20.68582 ; skirt
G1 X160.803 Y109.387 E20.74357 ; skirt
G1 X160.829 Y109.838 E20.77370 ; skirt
G1 X160.829 Y150.162 E23.46760 ; skirt
G1 X160.803 Y150.612 E23.49772 ; skirt
G1 X160.615 Y151.456 E23.55548 ; skirt
G1 X160.489 Y151.830 E23.58180 ; skirt
G1 X159.510 Y153.406 E23.70578 ; skirt
G1 X159.256 Y153.660 E23.72977 ; skirt
G1 X157.680 Y154.639 E23.85375 ; skirt
G1 X157.306 Y154.765 E23.88006 ; skirt
G1 X156.462 Y154.953 E23.93782 ; skirt
G1 X156.011 Y154.979 E23.96800 ; skirt
G1 X103.989 Y154.979 E27.44341 ; skirt
G1 X102.583 Y154.725 E27.53885 ; skirt
G1 X102.353 Y154.639 E27.55522 ; skirt
G1 X102.003 Y154.497 E27.58047 ; skirt
G1 X100.853 Y153.775 E27.67119 ; skirt
G1 X100.709 Y153.647 E27.68402 ; skirt
G1 X99.637 Y152.117 E27.80888 ; skirt
G1 X99.385 Y151.458 E27.85599 ; skirt
G1 X99.169 Y150.152 E27.94444 ; skirt
G1 X99.171 Y109.838 E30.63763 ; skirt
G1 X99.197 Y109.387 E30.66777 ; skirt
G1 X99.385 Y108.544 E30.72552 ; skirt
G1 X99.511 Y108.170 E30.75183 ; skirt
G1 X100.490 Y106.594 E30.87582 ; skirt
G1 X100.701 Y106.382 E30.89579 ; skirt
G1 X101.122 Y106.718 F6000.000 ; move to first skirt point
G1 X102.492 Y105.869 E31.00346 F1800.000 ; skirt
G1 X102.865 Y105.743 E31.02978 ; skirt
G1 X103.597 Y105.579 E31.07988 ; skirt
G1 X104.209 Y105.556 E31.12077 ; skirt
G1 X156.010 Y105.556 E34.58138 ; skirt
G1 X156.403 Y105.579 E34.60768 ; skirt
G1 X157.135 Y105.743 E34.65780 ; skirt
G1 X157.508 Y105.869 E34.68411 ; skirt
G1 X158.878 Y106.718 E34.79177 ; skirt
G1 X159.132 Y106.972 E34.81577 ; skirt
G1 X159.981 Y108.342 E34.92343 ; skirt
G1 X160.107 Y108.715 E34.94975 ; skirt
G1 X160.271 Y109.448 E34.99990 ; skirt
G1 X160.294 Y109.839 E35.02611 ; skirt
G1 X160.294 Y150.161 E37.71979 ; skirt
G1 X160.271 Y150.552 E37.74599 ; skirt
G1 X160.107 Y151.285 E37.79615 ; skirt
G1 X159.981 Y151.658 E37.82247 ; skirt
G1 X159.132 Y153.028 E37.93014 ; skirt
G1 X158.878 Y153.282 E37.95412 ; skirt
G1 X157.508 Y154.131 E38.06179 ; skirt
G1 X157.135 Y154.257 E38.08811 ; skirt
G1 X156.402 Y154.421 E38.13827 ; skirt
G1 X156.010 Y154.444 E38.16452 ; skirt
G1 X103.990 Y154.444 E41.63973 ; skirt
G1 X102.769 Y154.223 E41.72261 ; skirt
G1 X102.540 Y154.137 E41.73898 ; skirt
G1 X102.208 Y154.002 E41.76289 ; skirt
G1 X101.209 Y153.375 E41.84167 ; skirt
G1 X101.066 Y153.248 E41.85450 ; skirt
G1 X100.135 Y151.918 E41.96294 ; skirt
G1 X99.892 Y151.286 E42.00816 ; skirt
G1 X99.705 Y150.152 E42.08497 ; skirt
G1 X99.706 Y109.839 E44.77806 ; skirt
G1 X99.729 Y109.448 E44.80427 ; skirt
G1 X99.893 Y108.715 E44.85442 ; skirt
G1 X100.019 Y108.342 E44.88073 ; skirt
G1 X100.868 Y106.972 E44.98840 ; skirt
G1 X101.080 Y106.761 E45.00838 ; skirt
G1 E43.00838 F4800.00000 ; retract
G92 E0 ; reset extrusion distance
G1 Z0.800 F6000.000 ; lift Z
G1 X155.385 Y149.536 F6000.000 ; move to first perimeter point
G1 Z0.300 F6000.000 ; restore layer Z
G1 E2.00000 F4800.00000 ; unretract
G1 X147.336 Y149.509 E2.53772 F1800.000 ; perimeter
G1 X112.664 Y149.509 E4.85394 ; perimeter
G1 X104.614 Y149.535 E5.39175 ; perimeter
G1 X104.641 Y142.092 E5.88893 ; perimeter
G1 X104.641 Y117.908 E7.50461 ; perimeter
G1 X104.615 Y110.464 E8.00189 ; perimeter
G1 X112.664 Y110.491 E8.53960 ; perimeter
G1 X147.336 Y110.491 E10.85583 ; perimeter
G1 X155.385 Y110.465 E11.39355 ; perimeter
G1 X155.359 Y117.908 E11.89074 ; perimeter
G1 X155.359 Y142.092 E13.50642 ; perimeter
G1 X155.384 Y149.476 E13.99968 ; perimeter
G1 X155.922 Y150.073 F6000.000 ; move to first perimeter point
G1 X147.335 Y150.044 E14.57337 F1800.000 ; perimeter
G1 X112.665 Y150.044 E16.88947 ; perimeter
G1 X104.077 Y150.072 E17.46325 ; perimeter
G1 X104.106 Y142.092 E17.99640 ; perimeter
G1 X104.106 Y117.909 E19.61195 ; perimeter
G1 X104.078 Y109.927 E20.14519 ; perimeter
G1 X112.665 Y109.956 E20.71887 ; perimeter
G1 X147.335 Y109.956 E23.03498 ; perimeter
G1 X155.922 Y109.928 E23.60867 ; perimeter
G1 X155.894 Y117.909 E24.14182 ; perimeter
G1 X155.894 Y142.091 E25.75737 ; perimeter
G1 X155.922 Y150.013 E26.28660 ; perimeter
G1 X156.369 Y150.365 F6000.000 ; move to first perimeter point
G1 X156.215 Y150.520 E26.30118 F1800.000 ; perimeter
G1 X155.954 Y150.608 E26.31956 ; perimeter
G1 X155.791 Y150.609 E26.33047 ; perimeter
G1 X147.334 Y150.580 E26.89547 ; perimeter
G1 X112.666 Y150.580 E29.21145 ; perimeter
G1 X104.056 Y150.608 E29.78665 ; perimeter
G1 X103.684 Y150.462 E29.81339 ; perimeter
G1 X103.541 Y150.096 E29.83962 ; perimeter
G1 X103.570 Y142.091 E30.37443 ; perimeter
G1 X103.570 Y117.909 E31.98985 ; perimeter
G1 X103.542 Y109.898 E32.52504 ; perimeter
G1 X103.631 Y109.635 E32.54363 ; perimeter
G1 X103.785 Y109.480 E32.55821 ; perimeter
G1 X104.046 Y109.392 E32.57659 ; perimeter
G1 X104.209 Y109.391 E32.58749 ; perimeter
G1 X112.666 Y109.420 E33.15249 ; perimeter
G1 X147.334 Y109.420 E35.46848 ; perimeter
G1 X155.952 Y109.392 E36.04420 ; perimeter
G1 X156.215 Y109.481 E36.06279 ; perimeter
G1 X156.369 Y109.635 E36.07734 ; perimeter
G1 X156.458 Y109.898 E36.09593 ; perimeter
G1 X156.430 Y117.909 E36.63111 ; perimeter
G1 X156.430 Y142.091 E38.24654 ; perimeter
G1 X156.458 Y150.102 E38.78172 ; perimeter
G1 X156.389 Y150.309 E38.79630 ; perimeter
G1 X156.152 Y150.342 F6000.000 ; move inwards before travel
G1 X155.061 Y111.056 F6000.000 ; move to first infill point
G1 X154.794 Y110.788 E38.82158 F1800.000 ; infill
G1 X154.038 Y110.791 E38.87219 ; infill
G1 X155.059 Y111.812 E38.96879 ; infill
G1 X155.056 Y112.568 E39.01938 ; infill
G1 X153.282 Y110.793 E39.18731 ; infill
G1 X152.525 Y110.796 E39.23791 ; infill
G1 X155.053 Y113.324 E39.47716 ; infill
G1 X155.051 Y114.080 E39.52776 ; infill
G1 X151.769 Y110.798 E39.83832 ; infill
G1 X151.013 Y110.801 E39.88893 ; infill
G1 X155.048 Y114.836 E40.27082 ; infill
G1 X155.046 Y115.592 E40.32142 ; infill
G1 X150.256 Y110.803 E40.77463 ; infill
G1 X149.500 Y110.805 E40.82524 ; infill
G1 X155.043 Y116.348 E41.34978 ; infill
G1 X155.040 Y117.104 E41.40037 ; infill
G1 X148.744 Y110.808 E41.99623 ; infill
G1 X147.988 Y110.810 E42.04684 ; infill
G1 X155.038 Y117.861 E42.71402 ; infill
G1 X155.037 Y118.619 E42.76475 ; infill
G1 X147.231 Y110.813 E43.50345 ; infill
G1 X146.473 Y110.813 E43.55422 ; infill
G1 X155.037 Y119.377 E44.36472 ; infill
G1 X155.037 Y120.136 E44.41549 ; infill
G1 X145.714 Y110.813 E45.29779 ; infill
G1 X144.955 Y110.813 E45.34856 ; infill
G1 X155.037 Y120.895 E46.30266 ; infill
G1 X155.037 Y121.654 E46.35343 ; infill
G1 X144.196 Y110.813 E47.37933 ; infill
G1 X143.438 Y110.813 E47.43010 ; infill
G1 X155.037 Y122.412 E48.52780 ; infill
G1 X155.037 Y123.171 E48.57857 ; infill
G1 X142.679 Y110.813 E49.74807 ; infill
G1 X141.920 Y110.813 E49.79885 ; infill
G1 X155.037 Y123.930 E51.04015 ; infill
G1 X155.037 Y124.689 E51.09092 ; infill
G1 X141.161 Y110.813 E52.40403 ; infill
G1 X140.403 Y110.813 E52.45480 ; infill
G1 X155.037 Y125.447 E53.83970 ; infill
G1 X155.037 Y126.206 E53.89047 ; infill
G1 X139.644 Y110.813 E55.34718 ; infill
G1 X138.885 Y110.813 E55.39795 ; infill
G1 X155.037 Y126.965 E56.92646 ; infill
G1 X155.037 Y127.723 E56.97723 ; infill
G1 X138.127 Y110.813 E58.57754 ; infill
G1 X137.368 Y110.813 E58.62831 ; infill
G1 X155.037 Y128.482 E60.30042 ; infill
G1 X155.037 Y129.241 E60.35119 ; infill
G1 X136.609 Y110.813 E62.09510 ; infill
G1 X135.850 Y110.813 E62.14587 ; infill
G1 X155.037 Y130.000 E63.96159 ; infill
G1 X155.037 Y130.758 E64.01236 ; infill
G1 X135.092 Y110.813 E65.89987 ; infill
G1 X134.333 Y110.813 E65.95064 ; infill
G1 X155.037 Y131.517 E67.90996 ; infill
G1 X155.037 Y132.276 E67.96073 ; infill
G1 X133.574 Y110.813 E69.99184 ; infill
G1 X132.815 Y110.813 E70.04261 ; infill
G1 X155.037 Y133.035 E72.14553 ; infill
G1 X155.037 Y133.793 E72.19630 ; infill
G1 X132.057 Y110.813 E74.37102 ; infill
G1 X131.298 Y110.813 E74.42179 ; infill
G1 X155.037 Y134.552 E76.66831 ; infill
G1 X155.037 Y135.311 E76.71908 ; infill
G1 X130.539 Y110.813 E79.03740 ; infill
G1 X129.780 Y110.813 E79.08817 ; infill
G1 X155.037 Y136.070 E81.47829 ; infill
G1 X155.037 Y136.828 E81.52906 ; infill
G1 X129.022 Y110.813 E83.99098 ; infill
G1 X128.263 Y110.813 E84.04176 ; infill
G1 X155.037 Y137.587 E86.57548 ; infill
G1 X155.037 Y138.346 E86.62625 ; infill
G1 X127.504 Y110.813 E89.23177 ; infill
G1 X126.746 Y110.813 E89.28255 ; infill
G1 X155.037 Y139.104 E91.95987 ; infill
G1 X155.037 Y139.863 E92.01064 ; infill
G1 X125.987 Y110.813 E94.75977 ; infill
G1 X125.228 Y110.813 E94.81054 ; infill
G1 X155.037 Y140.622 E97.63147 ; infill
G1 X155.037 Y141.381 E97.68224 ; infill
G1 X124.469 Y110.813 E100.57497 ; infill
G1 X123.711 Y110.813 E100.62574 ; infill
G1 X155.037 Y142.139 E103.59027 ; infill
G1 X155.040 Y142.901 E103.64120 ; infill
G1 X122.952 Y110.813 E106.67776 ; infill
G1 X122.193 Y110.813 E106.72853 ; infill
G1 X155.042 Y143.662 E109.83714 ; infill
G1 X155.045 Y144.423 E109.88808 ; infill
G1 X121.434 Y110.813 E113.06874 ; infill
G1 X120.676 Y110.813 E113.11951 ; infill
G1 X155.047 Y145.185 E116.37222 ; infill
G1 X155.050 Y145.946 E116.42317 ; infill
G1 X119.917 Y110.813 E119.74793 ; infill
G1 X119.158 Y110.813 E119.79870 ; infill
G1 X155.053 Y146.707 E123.19552 ; infill
G1 X155.055 Y147.469 E123.24646 ; infill
G1 X118.400 Y110.813 E126.71533 ; infill
G1 X117.641 Y110.813 E126.76610 ; infill
G1 X155.058 Y148.230 E130.30701 ; infill
G1 X155.061 Y148.991 E130.35796 ; infill
G1 X116.882 Y110.813 E133.97092 ; infill
G1 X116.123 Y110.813 E134.02169 ; infill
G1 X154.522 Y149.211 E137.65543 ; infill
G1 X153.760 Y149.208 E137.70638 ; infill
G1 X115.365 Y110.813 E141.33987 ; infill
G1 X114.606 Y110.813 E141.39064 ; infill
G1 X152.999 Y149.206 E145.02390 ; infill
G1 X152.238 Y149.203 E145.07484 ; infill
G1 X113.847 Y110.813 E148.70786 ; infill
G1 X113.088 Y110.813 E148.75863 ; infill
G1 X151.476 Y149.201 E152.39140 ; infill
G1 X150.715 Y149.198 E152.44234 ; infill
G1 X112.329 Y110.812 E156.07494 ; infill
G1 X111.568 Y110.810 E156.12588 ; infill
G1 X149.954 Y149.196 E159.75848 ; infill
G1 X149.192 Y149.193 E159.80942 ; infill
G1 X110.806 Y110.807 E163.44202 ; infill
G1 X110.045 Y110.804 E163.49296 ; infill
G1 X148.431 Y149.190 E167.12556 ; infill
G1 X147.670 Y149.188 E167.17650 ; infill
G1 X109.284 Y110.802 E170.80910 ; infill
G1 X108.522 Y110.799 E170.86004 ; infill
G1 X146.910 Y149.187 E174.49281 ; infill
G1 X146.152 Y149.187 E174.54358 ; infill
G1 X107.761 Y110.797 E178.17660 ; infill
G1 X107.000 Y110.794 E178.22754 ; infill
G1 X145.393 Y149.187 E181.86079 ; infill
G1 X144.634 Y149.187 E181.91157 ; infill
G1 X106.239 Y110.792 E185.54506 ; infill
G1 X105.477 Y110.789 E185.59601 ; infill
G1 X143.875 Y149.187 E189.22975 ; infill
G1 X143.117 Y149.187 E189.28052 ; infill
G1 X104.939 Y111.010 E192.89337 ; infill
G1 X104.942 Y111.771 E192.94431 ; infill
G1 X142.358 Y149.187 E196.48511 ; infill
G1 X141.599 Y149.187 E196.53588 ; infill
G1 X104.945 Y112.533 E200.00463 ; infill
G1 X104.947 Y113.294 E200.05557 ; infill
G1 X140.841 Y149.187 E203.45227 ; infill
G1 X140.082 Y149.187 E203.50304 ; infill
G1 X104.950 Y114.055 E206.82768 ; infill
G1 X104.953 Y114.817 E206.87863 ; infill
G1 X139.323 Y149.187 E210.13122 ; infill
G1 X138.564 Y149.187 E210.18199 ; infill
G1 X104.955 Y115.578 E213.36253 ; infill
G1 X104.958 Y116.339 E213.41348 ; infill
G1 X137.806 Y149.187 E216.52197 ; infill
G1 X137.047 Y149.187 E216.57274 ; infill
G1 X104.960 Y117.101 E219.60918 ; infill
G1 X104.963 Y117.862 E219.66012 ; infill
G1 X136.288 Y149.187 E222.62453 ; infill
G1 X135.529 Y149.187 E222.67530 ; infill
G1 X104.963 Y118.621 E225.56791 ; infill
G1 X104.963 Y119.379 E225.61868 ; infill
G1 X134.771 Y149.187 E228.43949 ; infill
G1 X134.012 Y149.187 E228.49026 ; infill
G1 X104.963 Y120.138 E231.23927 ; infill
G1 X104.963 Y120.897 E231.29004 ; infill
G1 X133.253 Y149.187 E233.96725 ; infill
G1 X132.494 Y149.187 E234.01802 ; infill
G1 X104.963 Y121.656 E236.62343 ; infill
G1 X104.963 Y122.414 E236.67420 ; infill
G1 X131.736 Y149.187 E239.20780 ; infill
G1 X130.977 Y149.187 E239.25857 ; infill
G1 X104.963 Y123.173 E241.72038 ; infill
G1 X104.963 Y123.932 E241.77115 ; infill
G1 X130.218 Y149.187 E244.16115 ; infill
G1 X129.460 Y149.187 E244.21192 ; infill
G1 X104.963 Y124.690 E246.53013 ; infill
G1 X104.963 Y125.449 E246.58090 ; infill
G1 X128.701 Y149.187 E248.82730 ; infill
G1 X127.942 Y149.187 E248.87807 ; infill
G1 X104.963 Y126.208 E251.05267 ; infill
G1 X104.963 Y126.967 E251.10344 ; infill
G1 X127.183 Y149.187 E253.20624 ; infill
G1 X126.425 Y149.187 E253.25701 ; infill
G1 X104.963 Y127.725 E255.28801 ; infill
G1 X104.963 Y128.484 E255.33878 ; infill
G1 X125.666 Y149.187 E257.29798 ; infill
G1 X124.907 Y149.187 E257.34875 ; infill
G1 X104.963 Y129.243 E259.23614 ; infill
G1 X104.963 Y130.002 E259.28691 ; infill
G1 X124.148 Y149.187 E261.10251 ; infill
G1 X123.390 Y149.187 E261.15328 ; infill
G1 X104.963 Y130.760 E262.89707 ; infill
