; generated by Slic3r 1.2.9 on 2018-10-31 at 17:27:21

; external perimeters extrusion width = 0.30mm
; perimeters extrusion width = 0.30mm
; infill extrusion width = 0.60mm
; solid infill extrusion width = 0.60mm
; top infill extrusion width = 0.45mm

M107 ; disable fan
M190 S55 ; set bed temperature
M104 S195 ; set temperature
G28 ; home all axes
G1 Z5 F5000 ; lift nozzle

M109 S195 ; wait for temperature to be reached
G21 ; set units to millimeters
G90 ; use absolute coordinates
M82 ; use absolute distances for extrusion
G92 E0 ; reset extrusion distance
G1 E-2.00000 F4800.00000 ; retract
G92 E0 ; reset extrusion distance
G1 Z0.500 F6000.000 ; lift Z
G1 X69.890 Y72.321 F6000.000 ; move to first skirt point
G1 Z0.300 F6000.000 ; restore layer Z
G1 E2.00000 F4800.00000 ; unretract
G1 X73.245 Y69.016 E2.31463 F1800.000 ; skirt
G1 X76.994 Y65.730 E2.64766 ; skirt
G1 X80.932 Y62.674 E2.98069 ; skirt
G1 X85.046 Y59.859 E3.31373 ; skirt
G1 X89.562 Y57.160 E3.66516 ; skirt
G1 X93.743 Y54.991 E3.97979 ; skirt
G1 X98.293 Y52.956 E4.31283 ; skirt
G1 X103.218 Y51.107 E4.66426 ; skirt
G1 X107.719 Y49.719 E4.97889 ; skirt
G1 X112.560 Y48.529 E5.31192 ; skirt
G1 X117.736 Y47.590 E5.66336 ; skirt
G1 X122.686 Y47.003 E5.99640 ; skirt
G1 X127.663 Y46.713 E6.32943 ; skirt
G1 X132.648 Y46.721 E6.66246 ; skirt
G1 X137.349 Y47.003 E6.97709 ; skirt
G1 X142.572 Y47.631 E7.32853 ; skirt
G1 X147.206 Y48.472 E7.64315 ; skirt
G1 X152.051 Y49.646 E7.97619 ; skirt
G1 X156.817 Y51.107 E8.30922 ; skirt
G1 X161.487 Y52.851 E8.64225 ; skirt
G1 X166.293 Y54.991 E8.99369 ; skirt
G1 X170.714 Y57.295 E9.32672 ; skirt
G1 X174.989 Y59.859 E9.65976 ; skirt
G1 X179.104 Y62.674 E9.99279 ; skirt
G1 X182.829 Y65.555 E10.30742 ; skirt
G1 X186.589 Y68.828 E10.64045 ; skirt
G1 X188.170 Y70.375 E10.78822 ; skirt
G1 X190.336 Y72.520 E10.99189 ; skirt
G1 X193.666 Y76.230 E11.32492 ; skirt
G1 X196.602 Y79.913 E11.63955 ; skirt
G1 X199.479 Y83.984 E11.97259 ; skirt
G1 X202.106 Y88.221 E12.30562 ; skirt
G1 X204.476 Y92.607 E12.63865 ; skirt
G1 X206.687 Y97.380 E12.99009 ; skirt
G1 X208.408 Y101.764 E13.30472 ; skirt
G1 X209.956 Y106.503 E13.63775 ; skirt
G1 X211.280 Y111.594 E13.98919 ; skirt
G1 X212.190 Y116.215 E14.30382 ; skirt
G1 X212.867 Y121.154 E14.63685 ; skirt
G1 X213.248 Y126.124 E14.96988 ; skirt
G1 X213.331 Y131.109 E15.30292 ; skirt
G1 X213.095 Y136.364 E15.65435 ; skirt
G1 X212.602 Y141.048 E15.96898 ; skirt
G1 X211.794 Y145.967 E16.30201 ; skirt
G1 X210.693 Y150.829 E16.63505 ; skirt
G1 X209.303 Y155.616 E16.96808 ; skirt
G1 X207.528 Y160.569 E17.31952 ; skirt
G1 X205.561 Y165.149 E17.65255 ; skirt
G1 X203.324 Y169.604 E17.98558 ; skirt
G1 X200.969 Y173.683 E18.30021 ; skirt
G1 X198.230 Y177.848 E18.63324 ; skirt
G1 X195.074 Y182.057 E18.98468 ; skirt
G1 X192.029 Y185.650 E19.29931 ; skirt
G1 X188.590 Y189.258 E19.63234 ; skirt
G1 X184.734 Y192.837 E19.98378 ; skirt
G1 X181.096 Y195.828 E20.29841 ; skirt
G1 X177.068 Y198.765 E20.63144 ; skirt
G1 X172.634 Y201.597 E20.98288 ; skirt
G1 X168.276 Y204.017 E21.31591 ; skirt
G1 X163.781 Y206.173 E21.64895 ; skirt
G1 X159.423 Y207.959 E21.96358 ; skirt
G1 X154.709 Y209.578 E22.29661 ; skirt
G1 X149.638 Y210.977 E22.64804 ; skirt
G1 X144.760 Y212.006 E22.98108 ; skirt
G1 X139.830 Y212.740 E23.31404 ; skirt
G1 X134.899 Y213.177 E23.64476 ; skirt
G1 X130.157 Y213.320 E23.96171 ; skirt
G1 X124.862 Y213.161 E24.31558 ; skirt
G1 X119.933 Y212.708 E24.64624 ; skirt
G1 X115.276 Y212.006 E24.96087 ; skirt
G1 X110.398 Y210.977 E25.29390 ; skirt
G1 X108.264 Y210.397 E25.44167 ; skirt
G1 X105.327 Y209.578 E25.64534 ; skirt
G1 X100.612 Y207.959 E25.97838 ; skirt
G1 X96.003 Y206.061 E26.31141 ; skirt
G1 X91.759 Y204.017 E26.62604 ; skirt
G1 X87.401 Y201.597 E26.95907 ; skirt
G1 X85.533 Y200.413 E27.10684 ; skirt
G1 X82.968 Y198.765 E27.31051 ; skirt
G1 X78.940 Y195.828 E27.64354 ; skirt
G1 X75.302 Y192.837 E27.95817 ; skirt
G1 X71.642 Y189.452 E28.29121 ; skirt
G1 X68.191 Y185.854 E28.62424 ; skirt
G1 X64.962 Y182.057 E28.95727 ; skirt
G1 X61.806 Y177.848 E29.30871 ; skirt
G1 X59.212 Y173.917 E29.62334 ; skirt
G1 X56.712 Y169.604 E29.95637 ; skirt
G1 X54.359 Y164.899 E30.30781 ; skirt
G1 X52.508 Y160.569 E30.62243 ; skirt
G1 X50.818 Y155.878 E30.95547 ; skirt
G1 X49.343 Y150.829 E31.30691 ; skirt
G1 X48.242 Y145.967 E31.63994 ; skirt
G1 X47.470 Y141.321 E31.95457 ; skirt
G1 X46.941 Y136.364 E32.28760 ; skirt
G1 X46.709 Y131.384 E32.62063 ; skirt
G1 X46.788 Y126.124 E32.97207 ; skirt
G1 X47.140 Y121.428 E33.28670 ; skirt
G1 X47.801 Y116.487 E33.61973 ; skirt
G1 X48.756 Y111.594 E33.95276 ; skirt
G1 X49.321 Y109.389 E34.10484 ; skirt
G1 X50.080 Y106.502 E34.30420 ; skirt
G1 X51.628 Y101.764 E34.63724 ; skirt
G1 X53.349 Y97.380 E34.95186 ; skirt
G1 X55.437 Y92.853 E35.28490 ; skirt
G1 X57.792 Y88.459 E35.61793 ; skirt
G1 X60.405 Y84.214 E35.95096 ; skirt
G1 X63.433 Y79.913 E36.30240 ; skirt
G1 X66.548 Y76.020 E36.63544 ; skirt
G1 X69.848 Y72.364 E36.96446 ; skirt
G1 X70.266 Y72.703 F6000.000 ; move to first skirt point
G1 X73.621 Y69.397 E37.27909 F1800.000 ; skirt
G1 X77.346 Y66.133 E37.60998 ; skirt
G1 X81.260 Y63.097 E37.94088 ; skirt
G1 X85.348 Y60.301 E38.27177 ; skirt
G1 X89.809 Y57.636 E38.61893 ; skirt
G1 X93.989 Y55.466 E38.93355 ; skirt
G1 X98.511 Y53.445 E39.26445 ; skirt
G1 X103.146 Y51.698 E39.59534 ; skirt
G1 X107.877 Y50.231 E39.92623 ; skirt
G1 X112.925 Y48.999 E40.27339 ; skirt
G1 X117.800 Y48.122 E40.60428 ; skirt
G1 X122.476 Y47.560 E40.91891 ; skirt
G1 X127.663 Y47.249 E41.26607 ; skirt
G1 X132.373 Y47.249 E41.58070 ; skirt
G1 X137.317 Y47.538 E41.91159 ; skirt
G1 X142.477 Y48.158 E42.25875 ; skirt
G1 X147.349 Y49.050 E42.58964 ; skirt
G1 X152.159 Y50.231 E42.92053 ; skirt
G1 X156.659 Y51.619 E43.23516 ; skirt
G1 X161.299 Y53.353 E43.56606 ; skirt
G1 X166.047 Y55.466 E43.91321 ; skirt
G1 X170.439 Y57.755 E44.24411 ; skirt
G1 X174.688 Y60.301 E44.57500 ; skirt
G1 X178.579 Y62.954 E44.88963 ; skirt
G1 X182.502 Y65.978 E45.22052 ; skirt
G1 X186.236 Y69.232 E45.55141 ; skirt
G1 X187.794 Y70.756 E45.69704 ; skirt
G1 X189.938 Y72.879 E45.89857 ; skirt
G1 X193.247 Y76.564 E46.22947 ; skirt
G1 X196.184 Y80.246 E46.54409 ; skirt
G1 X199.041 Y84.293 E46.87499 ; skirt
G1 X201.651 Y88.502 E47.20588 ; skirt
G1 X204.004 Y92.860 E47.53677 ; skirt
G1 X206.189 Y97.576 E47.88393 ; skirt
G1 X207.991 Y102.189 E48.21482 ; skirt
G1 X209.447 Y106.668 E48.52945 ; skirt
G1 X210.754 Y111.697 E48.87661 ; skirt
G1 X211.704 Y116.559 E49.20750 ; skirt
G1 X212.336 Y121.226 E49.52213 ; skirt
G1 X212.714 Y126.164 E49.85302 ; skirt
G1 X212.795 Y131.117 E50.18392 ; skirt
G1 X212.562 Y136.308 E50.53107 ; skirt
G1 X212.070 Y140.992 E50.84570 ; skirt
G1 X211.265 Y145.879 E51.17660 ; skirt
G1 X210.170 Y150.710 E51.50749 ; skirt
G1 X208.788 Y155.466 E51.83838 ; skirt
G1 X207.035 Y160.358 E52.18554 ; skirt
G1 X205.184 Y164.689 E52.50017 ; skirt
G1 X202.975 Y169.122 E52.83106 ; skirt
G1 X200.505 Y173.415 E53.16195 ; skirt
G1 X197.783 Y177.553 E53.49285 ; skirt
G1 X194.666 Y181.711 E53.84001 ; skirt
G1 X191.457 Y185.484 E54.17090 ; skirt
G1 X188.203 Y188.888 E54.48552 ; skirt
G1 X184.393 Y192.423 E54.83268 ; skirt
G1 X180.756 Y195.414 E55.14731 ; skirt
G1 X176.753 Y198.331 E55.47820 ; skirt
G1 X172.374 Y201.129 E55.82536 ; skirt
G1 X168.044 Y203.535 E56.15626 ; skirt
G1 X163.578 Y205.677 E56.48715 ; skirt
G1 X159.220 Y207.463 E56.80178 ; skirt
G1 X154.535 Y209.071 E57.13267 ; skirt
G1 X149.526 Y210.453 E57.47983 ; skirt
G1 X144.680 Y211.476 E57.81072 ; skirt
G1 X139.782 Y212.207 E58.14155 ; skirt
G1 X134.883 Y212.642 E58.47013 ; skirt
G1 X130.140 Y212.785 E58.78708 ; skirt
G1 X124.910 Y212.627 E59.13666 ; skirt
G1 X120.013 Y212.178 E59.46518 ; skirt
G1 X115.356 Y211.476 E59.77981 ; skirt
G1 X110.510 Y210.453 E60.11071 ; skirt
G1 X108.406 Y209.880 E60.25633 ; skirt
G1 X105.500 Y209.071 E60.45787 ; skirt
G1 X100.815 Y207.463 E60.78876 ; skirt
G1 X96.235 Y205.578 E61.11965 ; skirt
G1 X91.992 Y203.535 E61.43428 ; skirt
G1 X87.662 Y201.129 E61.76517 ; skirt
G1 X85.821 Y199.961 E61.91080 ; skirt
G1 X83.283 Y198.331 E62.11233 ; skirt
G1 X79.280 Y195.414 E62.44323 ; skirt
G1 X75.642 Y192.423 E62.75785 ; skirt
G1 X72.007 Y189.059 E63.08875 ; skirt
G1 X68.578 Y185.484 E63.41964 ; skirt
G1 X65.370 Y181.711 E63.75053 ; skirt
G1 X62.253 Y177.553 E64.09769 ; skirt
G1 X59.659 Y173.622 E64.41232 ; skirt
G1 X57.176 Y169.336 E64.74321 ; skirt
G1 X54.851 Y164.689 E65.09037 ; skirt
G1 X53.000 Y160.358 E65.40500 ; skirt
G1 X51.323 Y155.698 E65.73589 ; skirt
G1 X49.865 Y150.710 E66.08305 ; skirt
G1 X48.817 Y146.118 E66.39767 ; skirt
G1 X47.999 Y141.233 E66.72857 ; skirt
G1 X47.474 Y136.308 E67.05946 ; skirt
G1 X47.244 Y131.360 E67.39035 ; skirt
G1 X47.322 Y126.164 E67.73751 ; skirt
G1 X47.674 Y121.468 E68.05214 ; skirt
G1 X48.332 Y116.559 E68.38303 ; skirt
G1 X49.282 Y111.697 E68.71393 ; skirt
G1 X49.839 Y109.523 E68.86386 ; skirt
G1 X50.589 Y106.668 E69.06109 ; skirt
G1 X52.127 Y101.960 E69.39198 ; skirt
G1 X53.943 Y97.352 E69.72287 ; skirt
G1 X56.032 Y92.860 E70.05376 ; skirt
G1 X58.263 Y88.713 E70.36839 ; skirt
G1 X60.861 Y84.496 E70.69929 ; skirt
G1 X63.852 Y80.246 E71.04644 ; skirt
G1 X66.946 Y76.379 E71.37734 ; skirt
G1 X70.224 Y72.746 E71.70422 ; skirt
G1 X70.642 Y73.084 F6000.000 ; move to first skirt point
G1 X73.997 Y69.779 E72.01885 F1800.000 ; skirt
G1 X77.698 Y66.536 E72.34760 ; skirt
G1 X81.587 Y63.521 E72.67636 ; skirt
G1 X85.650 Y60.744 E73.00511 ; skirt
G1 X90.056 Y58.111 E73.34799 ; skirt
G1 X94.236 Y55.942 E73.66262 ; skirt
G1 X98.729 Y53.934 E73.99137 ; skirt
G1 X103.534 Y52.131 E74.33425 ; skirt
G1 X108.035 Y50.743 E74.64887 ; skirt
G1 X112.814 Y49.570 E74.97763 ; skirt
G1 X117.864 Y48.654 E75.32051 ; skirt
G1 X122.750 Y48.072 E75.64926 ; skirt
G1 X127.663 Y47.784 E75.97801 ; skirt
G1 X132.373 Y47.784 E76.29264 ; skirt
G1 X137.285 Y48.072 E76.62139 ; skirt
G1 X142.381 Y48.685 E76.96427 ; skirt
G1 X147.015 Y49.526 E77.27890 ; skirt
G1 X151.797 Y50.687 E77.60765 ; skirt
G1 X156.502 Y52.131 E77.93641 ; skirt
G1 X161.111 Y53.854 E78.26516 ; skirt
G1 X165.800 Y55.942 E78.60804 ; skirt
G1 X170.165 Y58.214 E78.93679 ; skirt
G1 X174.386 Y60.744 E79.26554 ; skirt
G1 X178.277 Y63.397 E79.58017 ; skirt
G1 X182.174 Y66.402 E79.90892 ; skirt
G1 X185.884 Y69.635 E80.23768 ; skirt
G1 X187.419 Y71.138 E80.38116 ; skirt
G1 X189.540 Y73.237 E80.58056 ; skirt
G1 X192.828 Y76.898 E80.90931 ; skirt
G1 X195.765 Y80.580 E81.22394 ; skirt
G1 X198.603 Y84.601 E81.55269 ; skirt
G1 X201.195 Y88.784 E81.88144 ; skirt
G1 X203.532 Y93.114 E82.21020 ; skirt
G1 X205.690 Y97.771 E82.55307 ; skirt
G1 X207.411 Y102.155 E82.86770 ; skirt
G1 X208.937 Y106.834 E83.19645 ; skirt
G1 X210.229 Y111.801 E83.53933 ; skirt
G1 X211.173 Y116.630 E83.86808 ; skirt
G1 X211.806 Y121.297 E84.18271 ; skirt
G1 X212.180 Y126.204 E84.51147 ; skirt
G1 X212.260 Y131.125 E84.84022 ; skirt
G1 X212.045 Y136.041 E85.16897 ; skirt
G1 X211.827 Y138.178 E85.31246 ; skirt
G1 X211.509 Y141.145 E85.51185 ; skirt
G1 X210.696 Y145.999 E85.84060 ; skirt
G1 X209.648 Y150.590 E86.15523 ; skirt
G1 X208.274 Y155.316 E86.48399 ; skirt
G1 X206.543 Y160.147 E86.82686 ; skirt
G1 X204.603 Y164.670 E87.15562 ; skirt
G1 X202.396 Y169.068 E87.48437 ; skirt
G1 X200.041 Y173.147 E87.79900 ; skirt
G1 X197.336 Y177.258 E88.12775 ; skirt
G1 X194.257 Y181.364 E88.47063 ; skirt
G1 X191.212 Y184.957 E88.78526 ; skirt
G1 X187.816 Y188.518 E89.11401 ; skirt
G1 X184.053 Y192.009 E89.45689 ; skirt
G1 X180.415 Y195.000 E89.77151 ; skirt
G1 X176.438 Y197.898 E90.10027 ; skirt
G1 X172.113 Y200.661 E90.44315 ; skirt
G1 X167.812 Y203.052 E90.77190 ; skirt
G1 X163.375 Y205.181 E91.10065 ; skirt
G1 X159.017 Y206.967 E91.41528 ; skirt
G1 X154.362 Y208.564 E91.74403 ; skirt
G1 X149.415 Y209.929 E92.08691 ; skirt
G1 X144.600 Y210.946 E92.41566 ; skirt
G1 X139.734 Y211.674 E92.74436 ; skirt
G1 X134.867 Y212.106 E93.07080 ; skirt
G1 X130.124 Y212.249 E93.38775 ; skirt
G1 X124.958 Y212.094 E93.73304 ; skirt
G1 X120.093 Y211.648 E94.05943 ; skirt
G1 X115.436 Y210.946 E94.37406 ; skirt
G1 X110.621 Y209.929 E94.70281 ; skirt
G1 X108.549 Y209.364 E94.84629 ; skirt
G1 X105.673 Y208.564 E95.04569 ; skirt
G1 X101.019 Y206.967 E95.37444 ; skirt
G1 X96.467 Y205.095 E95.70320 ; skirt
G1 X92.224 Y203.052 E96.01782 ; skirt
G1 X87.923 Y200.661 E96.34658 ; skirt
G1 X86.110 Y199.510 E96.49006 ; skirt
G1 X83.598 Y197.898 E96.68946 ; skirt
G1 X79.620 Y195.000 E97.01821 ; skirt
G1 X75.983 Y192.009 E97.33284 ; skirt
G1 X72.371 Y188.667 E97.66159 ; skirt
G1 X68.824 Y184.957 E98.00447 ; skirt
G1 X65.647 Y181.199 E98.33322 ; skirt
G1 X62.822 Y177.431 E98.64785 ; skirt
G1 X60.106 Y173.327 E98.97660 ; skirt
G1 X57.640 Y169.068 E99.30535 ; skirt
G1 X55.344 Y164.478 E99.64823 ; skirt
G1 X53.493 Y160.148 E99.96286 ; skirt
G1 X51.827 Y155.517 E100.29161 ; skirt
G1 X50.388 Y150.590 E100.63449 ; skirt
G1 X49.340 Y145.999 E100.94912 ; skirt
G1 X48.527 Y141.145 E101.27787 ; skirt
G1 X48.007 Y136.252 E101.60663 ; skirt
G1 X47.779 Y131.336 E101.93538 ; skirt
G1 X47.856 Y126.204 E102.27826 ; skirt
G1 X48.208 Y121.508 E102.59288 ; skirt
G1 X48.862 Y116.630 E102.92164 ; skirt
G1 X49.807 Y111.801 E103.25039 ; skirt
G1 X50.358 Y109.658 E103.39819 ; skirt
G1 X51.099 Y106.834 E103.59327 ; skirt
G1 X52.625 Y102.155 E103.92202 ; skirt
G1 X54.346 Y97.771 E104.23665 ; skirt
G1 X56.409 Y93.303 E104.56540 ; skirt
G1 X58.735 Y88.967 E104.89416 ; skirt
G1 X61.317 Y84.777 E105.22291 ; skirt
G1 X64.271 Y80.580 E105.56579 ; skirt
G1 X67.344 Y76.737 E105.89454 ; skirt
G1 X70.600 Y73.128 E106.21929 ; skirt
G1 E104.21929 F4800.00000 ; retract
G92 E0 ; reset extrusion distance
G1 Z0.800 F6000.000 ; lift Z
G1 X113.199 Y115.120 F6000.000 ; move to first perimeter point
G1 Z0.300 F6000.000 ; restore layer Z
G1 E2.00000 F4800.00000 ; unretract
G1 X115.207 Y113.234 E2.18403 F1800.000 ; perimeter
G1 X116.144 Y112.453 E2.26553 ; perimeter
G1 X108.488 Y108.793 E2.83243 ; perimeter
G1 X79.684 Y94.894 E4.96904 ; perimeter
G1 X69.466 Y89.909 E5.72854 ; perimeter
G1 X71.637 Y86.749 E5.98461 ; perimeter
G1 X74.440 Y83.201 E6.28673 ; perimeter
G1 X77.457 Y79.836 E6.58864 ; perimeter
G1 X80.678 Y76.666 E6.89054 ; perimeter
G1 X84.089 Y73.701 E7.19245 ; perimeter
G1 X87.678 Y70.955 E7.49436 ; perimeter
G1 X91.431 Y68.437 E7.79627 ; perimeter
G1 X95.333 Y66.157 E8.09818 ; perimeter
G1 X99.369 Y64.124 E8.40009 ; perimeter
G1 X103.524 Y62.346 E8.70200 ; perimeter
G1 X107.781 Y60.830 E9.00391 ; perimeter
G1 X112.124 Y59.581 E9.30581 ; perimeter
G1 X116.537 Y58.605 E9.60772 ; perimeter
G1 X121.001 Y57.905 E9.90963 ; perimeter
G1 X125.501 Y57.484 E10.21154 ; perimeter
G1 X130.018 Y57.343 E10.51345 ; perimeter
G1 X134.535 Y57.484 E10.81536 ; perimeter
G1 X139.034 Y57.905 E11.11727 ; perimeter
G1 X143.499 Y58.605 E11.41917 ; perimeter
G1 X147.912 Y59.581 E11.72108 ; perimeter
G1 X152.255 Y60.830 E12.02299 ; perimeter
G1 X156.512 Y62.346 E12.32490 ; perimeter
G1 X160.667 Y64.124 E12.62681 ; perimeter
G1 X164.703 Y66.157 E12.92872 ; perimeter
G1 X168.605 Y68.437 E13.23063 ; perimeter
G1 X172.358 Y70.955 E13.53253 ; perimeter
G1 X175.947 Y73.701 E13.83444 ; perimeter
G1 X179.358 Y76.666 E14.13635 ; perimeter
G1 X182.578 Y79.836 E14.43826 ; perimeter
G1 X185.595 Y83.201 E14.74017 ; perimeter
G1 X188.396 Y86.746 E15.04197 ; perimeter
G1 X190.602 Y89.910 E15.29969 ; perimeter
G1 X180.666 Y94.743 E16.03783 ; perimeter
G1 X152.807 Y108.185 E18.10432 ; perimeter
G1 X143.891 Y112.453 E18.76466 ; perimeter
G1 X144.829 Y113.234 E18.84622 ; perimeter
G1 X146.837 Y115.120 E19.03025 ; perimeter
G1 X143.293 Y118.664 E19.36510 ; perimeter
G1 X144.002 Y118.744 E19.41274 ; perimeter
G1 X144.950 Y119.137 E19.48131 ; perimeter
