; generated by Slic3r 1.2.9 on 2018-10-31 at 17:40:11

; external perimeters extrusion width = 0.30mm
; perimeters extrusion width = 0.30mm
; infill extrusion width = 0.60mm
; solid infill extrusion width = 0.60mm
; top infill extrusion width = 0.45mm

M107 ; disable fan
M190 S55 ; set bed temperature
M104 S195 ; set temperature
G28 ; home all axes
G1 Z5 F5000 ; lift nozzle

M109 S195 ; wait for temperature to be reached
G21 ; set units to millimeters
G90 ; use absolute coordinates
M82 ; use absolute distances for extrusion
G92 E0 ; reset extrusion distance
G1 E-2.00000 F4800.00000 ; retract
G92 E0 ; reset extrusion distance
G1 Z0.500 F6000.000 ; lift Z
G1 X69.844 Y70.526 F6000.000 ; move to first skirt point
G1 Z0.300 F6000.000 ; restore layer Z
G1 E2.00000 F4800.00000 ; unretract
G1 X73.509 Y67.034 E2.33817 F1800.000 ; skirt
G1 X77.160 Y63.939 E2.65793 ; skirt
G1 X81.205 Y60.896 E2.99610 ; skirt
G1 X85.425 Y58.101 E3.33427 ; skirt
G1 X90.048 Y55.432 E3.69084 ; skirt
G1 X94.579 Y53.175 E4.02901 ; skirt
G1 X98.980 Y51.294 E4.34877 ; skirt
G1 X104.005 Y49.493 E4.70534 ; skirt
G1 X108.599 Y48.151 E5.02511 ; skirt
G1 X113.532 Y47.017 E5.36328 ; skirt
G1 X118.525 Y46.179 E5.70144 ; skirt
G1 X123.558 Y45.642 E6.03961 ; skirt
G1 X128.890 Y45.403 E6.39619 ; skirt
G1 X133.951 Y45.487 E6.73435 ; skirt
G1 X138.724 Y45.844 E7.05412 ; skirt
G1 X144.014 Y46.561 E7.41069 ; skirt
G1 X148.979 Y47.547 E7.74886 ; skirt
G1 X153.611 Y48.751 E8.06862 ; skirt
G1 X158.428 Y50.308 E8.40679 ; skirt
G1 X163.143 Y52.149 E8.74496 ; skirt
G1 X167.739 Y54.270 E9.08313 ; skirt
G1 X172.201 Y56.661 E9.42129 ; skirt
G1 X176.741 Y59.467 E9.77787 ; skirt
G1 X180.655 Y62.222 E10.09763 ; skirt
G1 X184.618 Y65.372 E10.43580 ; skirt
G1 X188.386 Y68.753 E10.77397 ; skirt
G1 X188.837 Y69.199 E10.81636 ; skirt
G1 X192.131 Y72.555 E11.13054 ; skirt
G1 X195.456 Y76.373 E11.46871 ; skirt
G1 X198.384 Y80.159 E11.78848 ; skirt
G1 X201.242 Y84.337 E12.12664 ; skirt
G1 X203.980 Y88.919 E12.48322 ; skirt
G1 X206.304 Y93.415 E12.82138 ; skirt
G1 X208.355 Y98.043 E13.15955 ; skirt
G1 X210.037 Y102.524 E13.47932 ; skirt
G1 X211.537 Y107.359 E13.81748 ; skirt
G1 X212.745 Y112.275 E14.15565 ; skirt
G1 X213.657 Y117.254 E14.49382 ; skirt
G1 X214.294 Y122.553 E14.85039 ; skirt
G1 X214.581 Y127.331 E15.17016 ; skirt
G1 X214.589 Y132.393 E15.50833 ; skirt
G1 X214.294 Y137.447 E15.84649 ; skirt
G1 X213.698 Y142.473 E16.18466 ; skirt
G1 X212.745 Y147.725 E16.54123 ; skirt
G1 X211.537 Y152.641 E16.87940 ; skirt
G1 X210.126 Y157.215 E17.19917 ; skirt
G1 X208.251 Y162.212 E17.55574 ; skirt
G1 X206.184 Y166.833 E17.89390 ; skirt
G1 X203.980 Y171.081 E18.21367 ; skirt
G1 X201.242 Y175.663 E18.57024 ; skirt
G1 X198.546 Y179.618 E18.89001 ; skirt
G1 X195.456 Y183.627 E19.22817 ; skirt
G1 X192.131 Y187.445 E19.56634 ; skirt
G1 X188.585 Y191.057 E19.90451 ; skirt
G1 X184.828 Y194.450 E20.24268 ; skirt
G1 X184.338 Y194.852 E20.28507 ; skirt
G1 X180.655 Y197.778 E20.59926 ; skirt
G1 X176.511 Y200.685 E20.93742 ; skirt
G1 X172.201 Y203.339 E21.27559 ; skirt
G1 X167.986 Y205.607 E21.59536 ; skirt
G1 X163.143 Y207.851 E21.95193 ; skirt
G1 X158.687 Y209.599 E22.27169 ; skirt
G1 X153.876 Y211.171 E22.60986 ; skirt
G1 X148.710 Y212.514 E22.96643 ; skirt
G1 X143.742 Y213.484 E23.30460 ; skirt
G1 X138.725 Y214.156 E23.64277 ; skirt
G1 X133.676 Y214.526 E23.98094 ; skirt
G1 X128.890 Y214.597 E24.30070 ; skirt
G1 X123.558 Y214.358 E24.65727 ; skirt
G1 X118.798 Y213.858 E24.97704 ; skirt
G1 X113.803 Y213.036 E25.31521 ; skirt
G1 X108.599 Y211.849 E25.67178 ; skirt
G1 X103.743 Y210.421 E26.00994 ; skirt
G1 X98.980 Y208.706 E26.34811 ; skirt
G1 X94.329 Y206.709 E26.68628 ; skirt
G1 X90.048 Y204.568 E27.00605 ; skirt
G1 X85.660 Y202.044 E27.34421 ; skirt
G1 X85.126 Y201.701 E27.38660 ; skirt
G1 X81.205 Y199.104 E27.70079 ; skirt
G1 X77.160 Y196.061 E28.03896 ; skirt
G1 X73.304 Y192.781 E28.37713 ; skirt
G1 X69.844 Y189.474 E28.69689 ; skirt
G1 X66.214 Y185.561 E29.05347 ; skirt
G1 X63.005 Y181.646 E29.39163 ; skirt
G1 X60.192 Y177.773 E29.71140 ; skirt
G1 X57.460 Y173.512 E30.04956 ; skirt
G1 X54.987 Y169.095 E30.38773 ; skirt
G1 X52.672 Y164.286 E30.74430 ; skirt
G1 X50.856 Y159.857 E31.06407 ; skirt
G1 X49.212 Y155.069 E31.40224 ; skirt
G1 X47.858 Y150.192 E31.74041 ; skirt
G1 X46.797 Y145.242 E32.07857 ; skirt
G1 X46.002 Y139.964 E32.43515 ; skirt
G1 X45.573 Y135.197 E32.75491 ; skirt
G1 X45.413 Y130.138 E33.09308 ; skirt
G1 X45.573 Y124.803 E33.44965 ; skirt
G1 X46.035 Y119.762 E33.78782 ; skirt
G1 X46.748 Y115.029 E34.10758 ; skirt
G1 X47.793 Y110.076 E34.44575 ; skirt
G1 X49.131 Y105.194 E34.78392 ; skirt
G1 X50.856 Y100.143 E35.14049 ; skirt
G1 X52.672 Y95.714 E35.46025 ; skirt
G1 X54.860 Y91.150 E35.79842 ; skirt
G1 X57.318 Y86.725 E36.13659 ; skirt
G1 X60.037 Y82.454 E36.47476 ; skirt
G1 X63.174 Y78.136 E36.83133 ; skirt
G1 X66.395 Y74.231 E37.16950 ; skirt
G1 X69.802 Y70.569 E37.50366 ; skirt
G1 X70.214 Y70.913 F6000.000 ; move to first skirt point
G1 X73.855 Y67.443 E37.83969 F1800.000 ; skirt
G1 X77.506 Y64.348 E38.15945 ; skirt
G1 X81.527 Y61.325 E38.49548 ; skirt
G1 X85.720 Y58.548 E38.83151 ; skirt
G1 X90.287 Y55.911 E39.18380 ; skirt
G1 X94.568 Y53.770 E39.50357 ; skirt
G1 X99.191 Y51.786 E39.83959 ; skirt
G1 X104.155 Y50.008 E40.19189 ; skirt
G1 X108.985 Y48.604 E40.52792 ; skirt
G1 X113.652 Y47.539 E40.84768 ; skirt
G1 X118.612 Y46.708 E41.18371 ; skirt
G1 X123.614 Y46.175 E41.51973 ; skirt
G1 X128.882 Y45.938 E41.87203 ; skirt
G1 X133.668 Y46.010 E42.19179 ; skirt
G1 X138.684 Y46.378 E42.52782 ; skirt
G1 X143.910 Y47.086 E42.88011 ; skirt
G1 X148.844 Y48.065 E43.21614 ; skirt
G1 X153.710 Y49.338 E43.55217 ; skirt
G1 X158.262 Y50.817 E43.87193 ; skirt
G1 X162.947 Y52.648 E44.20796 ; skirt
G1 X167.514 Y54.756 E44.54399 ; skirt
G1 X171.947 Y57.133 E44.88002 ; skirt
G1 X176.433 Y59.905 E45.23231 ; skirt
G1 X180.347 Y62.660 E45.55207 ; skirt
G1 X184.284 Y65.791 E45.88810 ; skirt
G1 X188.027 Y69.151 E46.22413 ; skirt
G1 X188.455 Y69.575 E46.26438 ; skirt
G1 X191.728 Y72.908 E46.57643 ; skirt
G1 X195.032 Y76.700 E46.91246 ; skirt
G1 X197.960 Y80.487 E47.23222 ; skirt
G1 X200.799 Y84.639 E47.56825 ; skirt
G1 X203.504 Y89.166 E47.92054 ; skirt
G1 X205.815 Y93.633 E48.25657 ; skirt
G1 X207.854 Y98.231 E48.59259 ; skirt
G1 X209.536 Y102.713 E48.91236 ; skirt
G1 X211.025 Y107.517 E49.24839 ; skirt
G1 X212.225 Y112.402 E49.58442 ; skirt
G1 X213.130 Y117.350 E49.92044 ; skirt
G1 X213.760 Y122.585 E50.27273 ; skirt
G1 X214.046 Y127.363 E50.59250 ; skirt
G1 X214.053 Y132.393 E50.92853 ; skirt
G1 X213.760 Y137.415 E51.26456 ; skirt
G1 X213.166 Y142.409 E51.60058 ; skirt
G1 X212.225 Y147.598 E51.95287 ; skirt
G1 X211.025 Y152.483 E52.28890 ; skirt
G1 X209.614 Y157.057 E52.60867 ; skirt
G1 X207.762 Y161.994 E52.96096 ; skirt
G1 X205.709 Y166.586 E53.29699 ; skirt
G1 X203.504 Y170.834 E53.61675 ; skirt
G1 X200.799 Y175.361 E53.96905 ; skirt
G1 X198.103 Y179.316 E54.28881 ; skirt
G1 X195.032 Y183.300 E54.62484 ; skirt
G1 X191.728 Y187.092 E54.96087 ; skirt
G1 X188.203 Y190.681 E55.29689 ; skirt
G1 X184.470 Y194.052 E55.63292 ; skirt
G1 X184.004 Y194.433 E55.67317 ; skirt
G1 X180.347 Y197.340 E55.98522 ; skirt
G1 X176.230 Y200.229 E56.32124 ; skirt
G1 X171.947 Y202.867 E56.65728 ; skirt
G1 X167.732 Y205.135 E56.97704 ; skirt
G1 X162.947 Y207.352 E57.32933 ; skirt
G1 X158.492 Y209.101 E57.64909 ; skirt
G1 X153.710 Y210.662 E57.98512 ; skirt
G1 X148.844 Y211.935 E58.32115 ; skirt
G1 X148.254 Y212.058 E58.36140 ; skirt
G1 X143.670 Y212.954 E58.67344 ; skirt
G1 X138.684 Y213.622 E59.00947 ; skirt
G1 X133.668 Y213.990 E59.34550 ; skirt
G1 X128.882 Y214.062 E59.66527 ; skirt
G1 X123.614 Y213.825 E60.01756 ; skirt
G1 X118.854 Y213.325 E60.33732 ; skirt
G1 X113.890 Y212.508 E60.67335 ; skirt
G1 X108.749 Y211.335 E61.02565 ; skirt
G1 X103.923 Y209.917 E61.36167 ; skirt
G1 X99.191 Y208.214 E61.69770 ; skirt
G1 X94.789 Y206.332 E62.01746 ; skirt
G1 X90.287 Y204.089 E62.35349 ; skirt
G1 X85.928 Y201.580 E62.68952 ; skirt
G1 X85.421 Y201.254 E62.72977 ; skirt
G1 X81.527 Y198.675 E63.04182 ; skirt
G1 X77.506 Y195.652 E63.37784 ; skirt
G1 X73.674 Y192.394 E63.71387 ; skirt
G1 X70.214 Y189.086 E64.03364 ; skirt
G1 X66.627 Y185.221 E64.38593 ; skirt
G1 X63.439 Y181.331 E64.72196 ; skirt
G1 X60.488 Y177.257 E65.05799 ; skirt
G1 X57.911 Y173.224 E65.37775 ; skirt
G1 X55.455 Y168.834 E65.71378 ; skirt
G1 X53.167 Y164.083 E66.06607 ; skirt
G1 X51.266 Y159.426 E66.40210 ; skirt
G1 X49.648 Y154.664 E66.73813 ; skirt
G1 X48.374 Y150.050 E67.05789 ; skirt
G1 X47.321 Y145.131 E67.39392 ; skirt
G1 X46.535 Y139.916 E67.74621 ; skirt
G1 X46.092 Y134.906 E68.08224 ; skirt
G1 X45.948 Y130.122 E68.40200 ; skirt
G1 X46.106 Y124.851 E68.75430 ; skirt
G1 X46.564 Y119.842 E69.09032 ; skirt
G1 X47.278 Y115.109 E69.41009 ; skirt
G1 X48.316 Y110.187 E69.74612 ; skirt
G1 X49.648 Y105.336 E70.08214 ; skirt
G1 X51.352 Y100.346 E70.43444 ; skirt
G1 X53.167 Y95.917 E70.75420 ; skirt
G1 X55.343 Y91.382 E71.09023 ; skirt
G1 X57.786 Y86.985 E71.42626 ; skirt
G1 X60.488 Y82.743 E71.76229 ; skirt
G1 X63.588 Y78.476 E72.11458 ; skirt
G1 X66.788 Y74.596 E72.45061 ; skirt
G1 X70.172 Y70.956 E72.78263 ; skirt
G1 X70.584 Y71.301 F6000.000 ; move to first skirt point
G1 X74.201 Y67.851 E73.11652 F1800.000 ; skirt
G1 X78.018 Y64.625 E73.45040 ; skirt
G1 X81.848 Y61.753 E73.77017 ; skirt
G1 X86.015 Y58.995 E74.10406 ; skirt
G1 X90.527 Y56.390 E74.45207 ; skirt
G1 X95.000 Y54.160 E74.78596 ; skirt
G1 X99.401 Y52.279 E75.10572 ; skirt
G1 X104.305 Y50.522 E75.45373 ; skirt
G1 X108.899 Y49.179 E75.77350 ; skirt
G1 X113.771 Y48.061 E76.10738 ; skirt
G1 X118.700 Y47.236 E76.44127 ; skirt
G1 X123.670 Y46.707 E76.77516 ; skirt
G1 X128.874 Y46.474 E77.12317 ; skirt
G1 X133.660 Y46.545 E77.44294 ; skirt
G1 X138.644 Y46.913 E77.77683 ; skirt
G1 X143.807 Y47.612 E78.12484 ; skirt
G1 X148.709 Y48.584 E78.45873 ; skirt
G1 X153.342 Y49.788 E78.77849 ; skirt
G1 X158.097 Y51.327 E79.11238 ; skirt
G1 X162.752 Y53.147 E79.44627 ; skirt
G1 X167.289 Y55.242 E79.78016 ; skirt
G1 X171.693 Y57.605 E80.11404 ; skirt
G1 X176.125 Y60.343 E80.46206 ; skirt
G1 X180.039 Y63.098 E80.78182 ; skirt
G1 X183.950 Y66.209 E81.11571 ; skirt
G1 X187.669 Y69.549 E81.44960 ; skirt
G1 X188.074 Y69.951 E81.48771 ; skirt
G1 X191.325 Y73.260 E81.79761 ; skirt
G1 X194.608 Y77.028 E82.13150 ; skirt
G1 X197.536 Y80.814 E82.45126 ; skirt
G1 X200.357 Y84.940 E82.78515 ; skirt
G1 X203.029 Y89.412 E83.13317 ; skirt
G1 X205.325 Y93.851 E83.46705 ; skirt
G1 X207.352 Y98.420 E83.80094 ; skirt
G1 X209.034 Y102.901 E84.12070 ; skirt
G1 X210.513 Y107.675 E84.45459 ; skirt
G1 X211.705 Y112.529 E84.78848 ; skirt
G1 X212.603 Y117.445 E85.12237 ; skirt
G1 X213.225 Y122.617 E85.47038 ; skirt
G1 X213.511 Y127.395 E85.79015 ; skirt
G1 X213.518 Y132.393 E86.12403 ; skirt
G1 X213.225 Y137.383 E86.45792 ; skirt
G1 X212.635 Y142.346 E86.79181 ; skirt
G1 X211.705 Y147.471 E87.13982 ; skirt
G1 X210.513 Y152.325 E87.47371 ; skirt
G1 X209.103 Y156.899 E87.79348 ; skirt
G1 X207.272 Y161.776 E88.14149 ; skirt
G1 X205.234 Y166.339 E88.47537 ; skirt
G1 X203.029 Y170.588 E88.79514 ; skirt
G1 X200.357 Y175.060 E89.14315 ; skirt
G1 X197.536 Y179.186 E89.47704 ; skirt
G1 X194.474 Y183.135 E89.81093 ; skirt
G1 X191.325 Y186.740 E90.13069 ; skirt
G1 X187.822 Y190.305 E90.46458 ; skirt
G1 X184.112 Y193.654 E90.79847 ; skirt
G1 X183.670 Y194.014 E90.83658 ; skirt
G1 X180.039 Y196.902 E91.14649 ; skirt
G1 X175.948 Y199.774 E91.48037 ; skirt
G1 X171.877 Y202.290 E91.80014 ; skirt
G1 X167.478 Y204.664 E92.13402 ; skirt
G1 X162.752 Y206.853 E92.48204 ; skirt
G1 X158.296 Y208.602 E92.80180 ; skirt
G1 X153.545 Y210.153 E93.13569 ; skirt
G1 X148.503 Y211.463 E93.48370 ; skirt
G1 X143.598 Y212.423 E93.81759 ; skirt
G1 X138.644 Y213.087 E94.15148 ; skirt
G1 X133.660 Y213.455 E94.48536 ; skirt
G1 X128.874 Y213.526 E94.80513 ; skirt
G1 X123.670 Y213.293 E95.15314 ; skirt
G1 X118.910 Y212.792 E95.47291 ; skirt
G1 X113.978 Y211.980 E95.80679 ; skirt
G1 X108.899 Y210.821 E96.15481 ; skirt
G1 X104.104 Y209.413 E96.48869 ; skirt
G1 X99.401 Y207.721 E96.82258 ; skirt
G1 X95.000 Y205.840 E97.14235 ; skirt
G1 X90.527 Y203.610 E97.47624 ; skirt
G1 X86.195 Y201.116 E97.81012 ; skirt
G1 X85.716 Y200.807 E97.84823 ; skirt
G1 X81.848 Y198.247 E98.15814 ; skirt
G1 X77.853 Y195.244 E98.49202 ; skirt
G1 X74.201 Y192.149 E98.81179 ; skirt
G1 X70.584 Y188.699 E99.14568 ; skirt
G1 X67.041 Y184.881 E99.49369 ; skirt
G1 X63.872 Y181.016 E99.82758 ; skirt
G1 X61.058 Y177.144 E100.14734 ; skirt
G1 X58.362 Y172.935 E100.48123 ; skirt
G1 X55.923 Y168.573 E100.81512 ; skirt
G1 X53.663 Y163.880 E101.16313 ; skirt
G1 X51.848 Y159.451 E101.48290 ; skirt
G1 X50.226 Y154.723 E101.81678 ; skirt
G1 X48.890 Y149.907 E102.15067 ; skirt
G1 X47.845 Y145.020 E102.48456 ; skirt
G1 X47.069 Y139.868 E102.83257 ; skirt
G1 X46.640 Y135.101 E103.15234 ; skirt
G1 X46.484 Y130.106 E103.48623 ; skirt
G1 X46.640 Y124.899 E103.83424 ; skirt
G1 X47.094 Y119.922 E104.16813 ; skirt
G1 X47.845 Y114.980 E104.50202 ; skirt
G1 X48.840 Y110.298 E104.82178 ; skirt
G1 X50.164 Y105.479 E105.15567 ; skirt
G1 X51.848 Y100.549 E105.50368 ; skirt
G1 X53.663 Y96.120 E105.82344 ; skirt
G1 X55.826 Y91.615 E106.15733 ; skirt
G1 X58.254 Y87.246 E106.49122 ; skirt
G1 X60.939 Y83.031 E106.82511 ; skirt
G1 X64.001 Y78.817 E107.17312 ; skirt
G1 X67.180 Y74.960 E107.50701 ; skirt
G1 X70.542 Y71.343 E107.83689 ; skirt
G1 E105.83689 F4800.00000 ; retract
G92 E0 ; reset extrusion distance
G1 Z0.800 F6000.000 ; lift Z
G1 X69.821 Y87.884 F6000.000 ; move to first perimeter point
G1 Z0.300 F6000.000 ; restore layer Z
G1 E2.00000 F4800.00000 ; unretract
G1 X71.703 Y88.792 E2.13960 F1800.000 ; perimeter
G1 X74.996 Y84.541 E2.49889 ; perimeter
G1 X77.961 Y81.173 E2.79864 ; perimeter
G1 X81.132 Y77.999 E3.09839 ; perimeter
G1 X84.496 Y75.030 E3.39814 ; perimeter
G1 X88.040 Y72.278 E3.69789 ; perimeter
G1 X91.750 Y69.754 E3.99764 ; perimeter
G1 X95.612 Y67.469 E4.29739 ; perimeter
G1 X99.609 Y65.430 E4.59714 ; perimeter
G1 X103.726 Y63.647 E4.89689 ; perimeter
G1 X107.947 Y62.126 E5.19664 ; perimeter
G1 X112.256 Y60.874 E5.49639 ; perimeter
G1 X116.635 Y59.894 E5.79614 ; perimeter
G1 X121.066 Y59.192 E6.09589 ; perimeter
G1 X125.533 Y58.769 E6.39565 ; perimeter
G1 X130.018 Y58.628 E6.69539 ; perimeter
G1 X134.503 Y58.769 E6.99514 ; perimeter
G1 X138.970 Y59.192 E7.29489 ; perimeter
G1 X143.401 Y59.894 E7.59464 ; perimeter
G1 X147.780 Y60.874 E7.89439 ; perimeter
G1 X152.088 Y62.126 E8.19415 ; perimeter
G1 X156.310 Y63.647 E8.49389 ; perimeter
G1 X160.427 Y65.430 E8.79364 ; perimeter
G1 X164.424 Y67.469 E9.09340 ; perimeter
G1 X168.285 Y69.754 E9.39314 ; perimeter
G1 X171.995 Y72.278 E9.69290 ; perimeter
G1 X175.539 Y75.030 E9.99265 ; perimeter
G1 X178.904 Y77.999 E10.29240 ; perimeter
G1 X182.074 Y81.173 E10.59215 ; perimeter
G1 X185.040 Y84.541 E10.89190 ; perimeter
G1 X188.333 Y88.792 E11.25119 ; perimeter
G1 X190.215 Y87.884 E11.39079 ; perimeter
G1 X196.590 Y98.925 E12.24251 ; perimeter
G1 X194.862 Y100.101 E12.38211 ; perimeter
G1 X196.898 Y105.079 E12.74140 ; perimeter
G1 X198.332 Y109.331 E13.04115 ; perimeter
G1 X199.495 Y113.665 E13.34090 ; perimeter
G1 X200.384 Y118.062 E13.64065 ; perimeter
G1 X200.995 Y122.508 E13.94040 ; perimeter
G1 X201.326 Y126.982 E14.24015 ; perimeter
G1 X201.375 Y131.469 E14.53990 ; perimeter
G1 X201.141 Y135.950 E14.83965 ; perimeter
G1 X200.627 Y140.407 E15.13940 ; perimeter
G1 X199.834 Y144.823 E15.43915 ; perimeter
G1 X198.764 Y149.181 E15.73890 ; perimeter
G1 X197.423 Y153.463 E16.03865 ; perimeter
G1 X195.816 Y157.652 E16.33840 ; perimeter
