; generated by Slic3r 1.2.9 on 2018-10-26 at 16:50:00

; external perimeters extrusion width = 0.30mm
; perimeters extrusion width = 0.30mm
; infill extrusion width = 0.60mm
; solid infill extrusion width = 0.60mm
; top infill extrusion width = 0.45mm

M107 ; disable fan
M190 S55 ; set bed temperature
M104 S195 ; set temperature
G28 ; home all axes
G1 Z5 F5000 ; lift nozzle

M109 S195 ; wait for temperature to be reached
G21 ; set units to millimeters
G90 ; use absolute coordinates
M82 ; use absolute distances for extrusion
G92 E0 ; reset extrusion distance
G1 E-2.00000 F4800.00000 ; retract
G92 E0 ; reset extrusion distance
G1 Z0.500 F6000.000 ; lift Z
G1 X62.664 Y65.410 F6000.000 ; move to first skirt point
G1 Z0.300 F6000.000 ; restore layer Z
G1 E2.00000 F4800.00000 ; unretract
G1 X66.445 Y61.685 E2.35460 F1800.000 ; skirt
G1 X70.645 Y58.006 E2.72760 ; skirt
G1 X75.057 Y54.584 E3.10060 ; skirt
G1 X79.665 Y51.431 E3.47361 ; skirt
G1 X84.695 Y48.426 E3.86502 ; skirt
G1 X89.406 Y45.981 E4.21961 ; skirt
G1 X94.503 Y43.703 E4.59262 ; skirt
G1 X99.989 Y41.644 E4.98403 ; skirt
G1 X105.061 Y40.080 E5.33862 ; skirt
G1 X110.483 Y38.748 E5.71163 ; skirt
G1 X116.248 Y37.702 E6.10304 ; skirt
G1 X121.792 Y37.043 E6.47604 ; skirt
G1 X127.366 Y36.718 E6.84904 ; skirt
G1 X132.674 Y36.718 E7.20364 ; skirt
G1 X138.248 Y37.043 E7.57664 ; skirt
G1 X143.792 Y37.702 E7.94965 ; skirt
G1 X149.288 Y38.691 E8.32265 ; skirt
G1 X154.980 Y40.080 E8.71406 ; skirt
G1 X160.312 Y41.733 E9.08706 ; skirt
G1 X165.282 Y43.598 E9.44166 ; skirt
G1 X170.634 Y45.981 E9.83307 ; skirt
G1 X175.346 Y48.426 E10.18766 ; skirt
G1 X180.143 Y51.283 E10.56067 ; skirt
G1 X184.761 Y54.422 E10.93367 ; skirt
G1 X186.709 Y55.918 E11.09781 ; skirt
G1 X189.396 Y58.006 E11.32508 ; skirt
G1 X193.595 Y61.685 E11.69809 ; skirt
G1 X197.376 Y65.410 E12.05268 ; skirt
G1 X201.118 Y69.554 E12.42569 ; skirt
G1 X204.606 Y73.914 E12.79869 ; skirt
G1 X206.027 Y75.919 E12.96283 ; skirt
G1 X207.978 Y78.705 E13.19010 ; skirt
G1 X210.907 Y83.459 E13.56310 ; skirt
G1 X213.422 Y88.133 E13.91770 ; skirt
G1 X215.776 Y93.196 E14.29070 ; skirt
G1 X217.824 Y98.391 E14.66371 ; skirt
G1 X219.557 Y103.698 E15.03671 ; skirt
G1 X221.031 Y109.369 E15.42812 ; skirt
G1 X222.057 Y114.577 E15.78272 ; skirt
G1 X222.815 Y120.108 E16.15572 ; skirt
G1 X223.240 Y125.676 E16.52872 ; skirt
G1 X223.332 Y131.258 E16.90173 ; skirt
G1 X223.069 Y137.111 E17.29314 ; skirt
G1 X222.477 Y142.663 E17.66614 ; skirt
G1 X221.554 Y148.170 E18.03914 ; skirt
G1 X220.373 Y153.345 E18.39374 ; skirt
G1 X218.815 Y158.706 E18.76674 ; skirt
G1 X216.839 Y164.222 E19.15815 ; skirt
G1 X214.753 Y169.103 E19.51275 ; skirt
G1 X212.263 Y174.100 E19.88575 ; skirt
G1 X209.478 Y178.940 E20.25876 ; skirt
G1 X208.131 Y180.995 E20.42290 ; skirt
G1 X206.250 Y183.829 E20.65017 ; skirt
G1 X202.895 Y188.292 E21.02317 ; skirt
G1 X199.463 Y192.341 E21.37777 ; skirt
G1 X195.610 Y196.382 E21.75077 ; skirt
G1 X191.315 Y200.367 E22.14218 ; skirt
G1 X186.997 Y203.907 E22.51518 ; skirt
G1 X182.475 Y207.182 E22.88819 ; skirt
G1 X178.002 Y210.040 E23.24278 ; skirt
G1 X173.130 Y212.766 E23.61579 ; skirt
G1 X167.851 Y215.308 E24.00720 ; skirt
G1 X162.939 Y217.321 E24.36179 ; skirt
G1 X157.658 Y219.133 E24.73480 ; skirt
G1 X152.011 Y220.692 E25.12621 ; skirt
G1 X146.547 Y221.845 E25.49921 ; skirt
G1 X141.026 Y222.669 E25.87214 ; skirt
G1 X135.504 Y223.159 E26.24254 ; skirt
G1 X130.159 Y223.320 E26.59975 ; skirt
G1 X124.262 Y223.142 E26.99389 ; skirt
G1 X118.741 Y222.636 E27.36422 ; skirt
G1 X113.493 Y221.845 E27.71882 ; skirt
G1 X108.030 Y220.692 E28.09183 ; skirt
G1 X105.659 Y220.046 E28.25596 ; skirt
G1 X102.382 Y219.133 E28.48324 ; skirt
G1 X97.101 Y217.321 E28.85624 ; skirt
G1 X91.938 Y215.196 E29.22924 ; skirt
G1 X87.155 Y212.893 E29.58384 ; skirt
G1 X82.038 Y210.040 E29.97525 ; skirt
G1 X77.565 Y207.182 E30.32985 ; skirt
G1 X73.043 Y203.907 E30.70285 ; skirt
G1 X68.725 Y200.367 E31.07585 ; skirt
G1 X64.627 Y196.576 E31.44886 ; skirt
G1 X60.578 Y192.341 E31.84027 ; skirt
G1 X57.146 Y188.292 E32.19486 ; skirt
G1 X53.790 Y183.829 E32.56787 ; skirt
G1 X50.707 Y179.174 E32.94087 ; skirt
G1 X49.471 Y177.050 E33.10501 ; skirt
G1 X47.778 Y174.100 E33.33228 ; skirt
G1 X45.287 Y169.103 E33.70528 ; skirt
G1 X43.201 Y164.222 E34.05988 ; skirt
G1 X41.310 Y158.969 E34.43288 ; skirt
G1 X39.667 Y153.345 E34.82429 ; skirt
G1 X38.486 Y148.170 E35.17889 ; skirt
G1 X37.563 Y142.663 E35.55189 ; skirt
G1 X36.971 Y137.111 E35.92490 ; skirt
G1 X36.713 Y131.534 E36.29790 ; skirt
G1 X36.800 Y125.676 E36.68931 ; skirt
G1 X37.197 Y120.382 E37.04391 ; skirt
G1 X37.938 Y114.848 E37.41691 ; skirt
G1 X39.070 Y109.100 E37.80832 ; skirt
G1 X40.483 Y103.698 E38.18132 ; skirt
G1 X42.216 Y98.391 E38.55432 ; skirt
G1 X44.156 Y93.450 E38.90892 ; skirt
G1 X46.495 Y88.380 E39.28193 ; skirt
G1 X49.134 Y83.459 E39.65493 ; skirt
G1 X52.062 Y78.705 E40.02793 ; skirt
G1 X55.434 Y73.914 E40.41934 ; skirt
G1 X58.922 Y69.554 E40.79234 ; skirt
G1 X62.623 Y65.454 E41.16134 ; skirt
G1 X63.040 Y65.792 F6000.000 ; move to first skirt point
G1 X66.821 Y62.067 E41.51594 F1800.000 ; skirt
G1 X70.997 Y58.409 E41.88680 ; skirt
G1 X75.384 Y55.007 E42.25767 ; skirt
G1 X79.967 Y51.874 E42.62853 ; skirt
G1 X84.941 Y48.902 E43.01566 ; skirt
G1 X89.872 Y46.351 E43.38652 ; skirt
G1 X94.721 Y44.192 E43.74112 ; skirt
G1 X100.146 Y42.156 E44.12825 ; skirt
G1 X105.453 Y40.527 E44.49911 ; skirt
G1 X110.610 Y39.268 E44.85371 ; skirt
G1 X116.312 Y38.234 E45.24084 ; skirt
G1 X121.824 Y37.578 E45.61170 ; skirt
G1 X127.366 Y37.253 E45.98256 ; skirt
G1 X132.674 Y37.253 E46.33716 ; skirt
G1 X138.216 Y37.578 E46.70803 ; skirt
G1 X143.729 Y38.234 E47.07889 ; skirt
G1 X149.192 Y39.218 E47.44975 ; skirt
G1 X154.822 Y40.591 E47.83688 ; skirt
G1 X159.894 Y42.156 E48.19148 ; skirt
G1 X165.094 Y44.100 E48.56234 ; skirt
G1 X170.388 Y46.457 E48.94947 ; skirt
G1 X175.099 Y48.902 E49.30407 ; skirt
G1 X179.868 Y51.743 E49.67493 ; skirt
G1 X184.459 Y54.864 E50.04579 ; skirt
G1 X186.382 Y56.342 E50.20779 ; skirt
G1 X189.043 Y58.409 E50.43292 ; skirt
G1 X193.219 Y62.067 E50.80379 ; skirt
G1 X197.000 Y65.792 E51.15838 ; skirt
G1 X200.720 Y69.913 E51.52925 ; skirt
G1 X204.187 Y74.248 E51.90011 ; skirt
G1 X207.389 Y78.784 E52.27097 ; skirt
G1 X210.435 Y83.713 E52.65810 ; skirt
G1 X213.059 Y88.605 E53.02897 ; skirt
G1 X215.386 Y93.645 E53.39983 ; skirt
G1 X217.407 Y98.816 E53.77069 ; skirt
G1 X219.116 Y104.098 E54.14156 ; skirt
G1 X220.451 Y109.235 E54.49616 ; skirt
G1 X221.531 Y114.680 E54.86702 ; skirt
G1 X222.309 Y120.423 E55.25415 ; skirt
G1 X222.706 Y125.716 E55.60874 ; skirt
G1 X222.796 Y131.266 E55.97961 ; skirt
G1 X222.536 Y137.055 E56.36674 ; skirt
G1 X221.981 Y142.334 E56.72133 ; skirt
G1 X221.079 Y147.812 E57.09220 ; skirt
G1 X219.851 Y153.226 E57.46306 ; skirt
G1 X218.301 Y158.556 E57.83392 ; skirt
G1 X216.346 Y164.011 E58.22105 ; skirt
G1 X214.260 Y168.892 E58.57565 ; skirt
G1 X211.784 Y173.860 E58.94651 ; skirt
G1 X209.014 Y178.672 E59.31738 ; skirt
G1 X207.684 Y180.700 E59.47938 ; skirt
G1 X205.822 Y183.508 E59.70451 ; skirt
G1 X202.486 Y187.945 E60.07537 ; skirt
G1 X198.891 Y192.176 E60.44623 ; skirt
G1 X195.223 Y196.012 E60.80083 ; skirt
G1 X190.975 Y199.954 E61.18796 ; skirt
G1 X186.682 Y203.474 E61.55882 ; skirt
G1 X182.388 Y206.594 E61.91342 ; skirt
G1 X177.505 Y209.713 E62.30055 ; skirt
G1 X172.653 Y212.410 E62.67141 ; skirt
G1 X167.648 Y214.813 E63.04228 ; skirt
G1 X162.736 Y216.825 E63.39687 ; skirt
G1 X157.485 Y218.627 E63.76774 ; skirt
G1 X151.899 Y220.168 E64.15487 ; skirt
G1 X146.468 Y221.315 E64.52573 ; skirt
G1 X140.978 Y222.135 E64.89653 ; skirt
G1 X135.487 Y222.624 E65.26478 ; skirt
G1 X130.143 Y222.785 E65.62200 ; skirt
G1 X124.310 Y222.609 E66.01184 ; skirt
G1 X118.821 Y222.106 E66.38004 ; skirt
G1 X113.573 Y221.315 E66.73464 ; skirt
G1 X108.141 Y220.168 E67.10551 ; skirt
G1 X105.802 Y219.530 E67.26751 ; skirt
G1 X102.555 Y218.627 E67.49264 ; skirt
G1 X97.304 Y216.825 E67.86350 ; skirt
G1 X92.392 Y214.813 E68.21810 ; skirt
G1 X87.388 Y212.410 E68.58896 ; skirt
G1 X82.326 Y209.588 E68.97609 ; skirt
G1 X77.652 Y206.594 E69.34695 ; skirt
G1 X73.358 Y203.474 E69.70155 ; skirt
G1 X69.065 Y199.954 E70.07241 ; skirt
G1 X64.991 Y196.183 E70.44328 ; skirt
G1 X60.986 Y191.995 E70.83041 ; skirt
G1 X57.554 Y187.946 E71.18500 ; skirt
G1 X54.218 Y183.508 E71.55587 ; skirt
G1 X51.154 Y178.879 E71.92673 ; skirt
G1 X49.935 Y176.783 E72.08873 ; skirt
G1 X48.257 Y173.860 E72.31386 ; skirt
G1 X45.780 Y168.892 E72.68472 ; skirt
G1 X43.694 Y164.011 E73.03932 ; skirt
G1 X41.814 Y158.788 E73.41018 ; skirt
G1 X40.189 Y153.226 E73.79731 ; skirt
G1 X38.961 Y147.812 E74.16818 ; skirt
G1 X38.092 Y142.575 E74.52277 ; skirt
G1 X37.504 Y137.055 E74.89364 ; skirt
G1 X37.248 Y131.510 E75.26450 ; skirt
G1 X37.334 Y125.716 E75.65163 ; skirt
G1 X37.731 Y120.422 E76.00623 ; skirt
G1 X38.469 Y114.920 E76.37709 ; skirt
G1 X39.589 Y109.235 E76.76422 ; skirt
G1 X40.993 Y103.864 E77.13508 ; skirt
G1 X42.715 Y98.586 E77.50594 ; skirt
G1 X44.654 Y93.645 E77.86054 ; skirt
G1 X46.981 Y88.605 E78.23141 ; skirt
G1 X49.605 Y83.713 E78.60227 ; skirt
G1 X52.517 Y78.987 E78.97313 ; skirt
G1 X55.853 Y74.248 E79.36026 ; skirt
G1 X59.320 Y69.913 E79.73112 ; skirt
G1 X62.999 Y65.835 E80.09798 ; skirt
G1 X63.416 Y66.174 F6000.000 ; move to first skirt point
G1 X67.197 Y62.448 E80.45258 F1800.000 ; skirt
G1 X71.349 Y58.812 E80.82130 ; skirt
G1 X75.712 Y55.431 E81.19003 ; skirt
G1 X80.269 Y52.317 E81.55875 ; skirt
G1 X85.188 Y49.377 E81.94160 ; skirt
G1 X89.899 Y46.932 E82.29620 ; skirt
G1 X94.939 Y44.681 E82.66492 ; skirt
G1 X100.304 Y42.668 E83.04777 ; skirt
G1 X105.580 Y41.047 E83.41649 ; skirt
G1 X110.737 Y39.789 E83.77109 ; skirt
G1 X116.376 Y38.765 E84.15394 ; skirt
G1 X121.856 Y38.113 E84.52266 ; skirt
G1 X127.366 Y37.789 E84.89138 ; skirt
G1 X132.674 Y37.789 E85.24598 ; skirt
G1 X138.184 Y38.113 E85.61471 ; skirt
G1 X143.665 Y38.765 E85.98343 ; skirt
G1 X149.096 Y39.745 E86.35215 ; skirt
G1 X154.664 Y41.103 E86.73500 ; skirt
G1 X159.736 Y42.668 E87.08960 ; skirt
G1 X164.906 Y44.601 E87.45832 ; skirt
G1 X170.141 Y46.932 E87.84117 ; skirt
G1 X174.852 Y49.377 E88.19577 ; skirt
G1 X179.593 Y52.203 E88.56449 ; skirt
G1 X184.157 Y55.307 E88.93322 ; skirt
G1 X186.054 Y56.765 E89.09307 ; skirt
G1 X188.691 Y58.812 E89.31606 ; skirt
G1 X192.843 Y62.448 E89.68479 ; skirt
G1 X196.624 Y66.174 E90.03939 ; skirt
G1 X200.322 Y70.271 E90.40811 ; skirt
G1 X203.768 Y74.582 E90.77683 ; skirt
G1 X205.151 Y76.535 E90.93669 ; skirt
G1 X207.067 Y79.268 E91.15968 ; skirt
G1 X209.963 Y83.967 E91.52841 ; skirt
G1 X212.479 Y88.641 E91.88300 ; skirt
G1 X214.804 Y93.646 E92.25173 ; skirt
G1 X216.827 Y98.782 E92.62045 ; skirt
G1 X218.538 Y104.029 E92.98917 ; skirt
G1 X219.980 Y109.576 E93.37202 ; skirt
G1 X221.006 Y114.784 E93.72662 ; skirt
G1 X221.753 Y120.252 E94.09534 ; skirt
G1 X222.172 Y125.756 E94.46407 ; skirt
G1 X222.261 Y131.274 E94.83279 ; skirt
G1 X222.004 Y136.999 E95.21564 ; skirt
G1 X221.420 Y142.488 E95.58436 ; skirt
G1 X220.510 Y147.931 E95.95308 ; skirt
G1 X219.329 Y153.106 E96.30768 ; skirt
G1 X217.787 Y158.406 E96.67641 ; skirt
G1 X215.854 Y163.801 E97.05925 ; skirt
G1 X213.679 Y168.874 E97.42798 ; skirt
G1 X211.305 Y173.621 E97.78257 ; skirt
G1 X208.550 Y178.404 E98.15130 ; skirt
G1 X207.237 Y180.405 E98.31116 ; skirt
G1 X205.393 Y183.187 E98.53415 ; skirt
G1 X202.078 Y187.599 E98.90287 ; skirt
G1 X198.504 Y191.805 E99.27159 ; skirt
G1 X194.836 Y195.642 E99.62619 ; skirt
G1 X190.635 Y199.540 E100.00904 ; skirt
G1 X186.368 Y203.040 E100.37776 ; skirt
G1 X181.899 Y206.280 E100.74649 ; skirt
G1 X177.426 Y209.137 E101.10108 ; skirt
G1 X172.608 Y211.830 E101.46981 ; skirt
G1 X167.445 Y214.317 E101.85266 ; skirt
G1 X162.533 Y216.330 E102.20726 ; skirt
G1 X157.312 Y218.120 E102.57598 ; skirt
G1 X151.788 Y219.644 E102.95883 ; skirt
G1 X146.388 Y220.786 E103.32755 ; skirt
G1 X140.930 Y221.602 E103.69622 ; skirt
G1 X135.471 Y222.088 E104.06234 ; skirt
G1 X130.127 Y222.249 E104.41955 ; skirt
G1 X124.358 Y222.075 E104.80510 ; skirt
G1 X118.901 Y221.577 E105.17117 ; skirt
G1 X113.652 Y220.786 E105.52576 ; skirt
G1 X108.252 Y219.644 E105.89449 ; skirt
G1 X105.944 Y219.014 E106.05435 ; skirt
G1 X102.728 Y218.120 E106.27734 ; skirt
G1 X97.507 Y216.330 E106.64606 ; skirt
G1 X92.596 Y214.317 E107.00066 ; skirt
G1 X87.620 Y211.928 E107.36938 ; skirt
G1 X82.615 Y209.137 E107.75223 ; skirt
G1 X77.967 Y206.160 E108.12095 ; skirt
G1 X73.673 Y203.040 E108.47555 ; skirt
G1 X69.405 Y199.540 E108.84428 ; skirt
G1 X65.355 Y195.790 E109.21300 ; skirt
G1 X61.395 Y191.648 E109.59585 ; skirt
G1 X57.963 Y187.599 E109.95045 ; skirt
G1 X54.647 Y183.187 E110.31917 ; skirt
G1 X51.601 Y178.584 E110.68789 ; skirt
G1 X50.399 Y176.515 E110.84775 ; skirt
G1 X48.736 Y173.621 E111.07074 ; skirt
G1 X46.272 Y168.682 E111.43946 ; skirt
G1 X44.186 Y163.801 E111.79406 ; skirt
G1 X42.319 Y158.607 E112.16279 ; skirt
G1 X40.711 Y153.106 E112.54563 ; skirt
G1 X39.489 Y147.724 E112.91436 ; skirt
G1 X38.592 Y142.278 E113.28308 ; skirt
G1 X38.037 Y136.999 E113.63768 ; skirt
G1 X37.783 Y131.486 E114.00640 ; skirt
G1 X37.868 Y125.756 E114.38925 ; skirt
G1 X38.265 Y120.463 E114.74385 ; skirt
G1 X39.000 Y114.992 E115.11257 ; skirt
G1 X40.107 Y109.369 E115.49542 ; skirt
G1 X41.502 Y104.029 E115.86414 ; skirt
G1 X43.214 Y98.782 E116.23287 ; skirt
G1 X45.153 Y93.841 E116.58747 ; skirt
G1 X47.467 Y88.830 E116.95619 ; skirt
G1 X50.077 Y83.967 E117.32491 ; skirt
G1 X52.973 Y79.268 E117.69364 ; skirt
G1 X56.272 Y74.582 E118.07648 ; skirt
G1 X59.718 Y70.271 E118.44521 ; skirt
G1 X63.374 Y66.217 E118.80992 ; skirt
G1 E116.80992 F4800.00000 ; retract
G92 E0 ; reset extrusion distance
G1 Z0.800 F6000.000 ; lift Z
G1 X56.331 Y92.499 F6000.000 ; move to first perimeter point
G1 Z0.300 F6000.000 ; restore layer Z
G1 E2.00000 F4800.00000 ; unretract
G1 X65.526 Y98.615 E2.73779 F1800.000 ; perimeter
G1 X99.698 Y121.498 E5.48525 ; perimeter
G1 X110.131 Y128.534 E6.32591 ; perimeter
G1 X110.184 Y130.550 E6.46064 ; perimeter
G1 X110.396 Y132.930 E6.62025 ; perimeter
G1 X110.880 Y135.230 E6.77730 ; perimeter
G1 X111.633 Y137.457 E6.93435 ; perimeter
G1 X112.644 Y139.579 E7.09140 ; perimeter
G1 X113.899 Y141.567 E7.24845 ; perimeter
G1 X115.380 Y143.393 E7.40550 ; perimeter
G1 X117.067 Y145.030 E7.56255 ; perimeter
G1 X118.949 Y146.467 E7.72075 ; perimeter
G1 X121.346 Y147.965 E7.90953 ; perimeter
G1 X122.110 Y158.832 E8.63730 ; perimeter
G1 X124.931 Y201.211 E11.47473 ; perimeter
G1 X125.635 Y212.536 E12.23274 ; perimeter
G1 X119.873 Y212.032 E12.61916 ; perimeter
G1 X114.838 Y211.250 E12.95952 ; perimeter
G1 X109.865 Y210.162 E13.29965 ; perimeter
G1 X104.968 Y208.769 E13.63977 ; perimeter
G1 X100.166 Y207.077 E13.97990 ; perimeter
G1 X95.477 Y205.093 E14.32003 ; perimeter
G1 X90.919 Y202.823 E14.66015 ; perimeter
G1 X86.510 Y200.278 E15.00028 ; perimeter
G1 X82.266 Y197.466 E15.34040 ; perimeter
G1 X78.203 Y194.398 E15.68053 ; perimeter
G1 X74.336 Y191.086 E16.02066 ; perimeter
G1 X70.681 Y187.541 E16.36078 ; perimeter
G1 X67.251 Y183.779 E16.70091 ; perimeter
G1 X64.059 Y179.812 E17.04103 ; perimeter
G1 X61.118 Y175.657 E17.38116 ; perimeter
G1 X58.437 Y171.328 E17.72129 ; perimeter
G1 X56.029 Y166.843 E18.06141 ; perimeter
G1 X53.901 Y162.218 E18.40154 ; perimeter
G1 X52.062 Y157.470 E18.74166 ; perimeter
G1 X50.518 Y152.618 E19.08179 ; perimeter
G1 X49.277 Y147.681 E19.42192 ; perimeter
G1 X48.341 Y142.676 E19.76204 ; perimeter
G1 X47.716 Y137.623 E20.10217 ; perimeter
G1 X47.403 Y132.542 E20.44229 ; perimeter
G1 X47.403 Y127.450 E20.78242 ; perimeter
G1 X47.717 Y122.369 E21.12254 ; perimeter
